/* XPM */
static const char *gui_background[] = {
/* columns rows colors chars-per-pixel */
"598 332 256 2 ",
"   c black",
".  c white",
"X  c #BBAAAB",
"o  c #E5DCDD",
"O  c #CEC4C7",
"+  c #C5BBBF",
"@  c #DCD4D9",
"#  c #D4CCD3",
"$  c #FCF4FC",
"%  c #ECE4EC",
"&  c #BDB4BE",
"*  c #A49AAE",
"=  c #CCC4D4",
"-  c #040414",
";  c #04040C",
":  c #BCBCCC",
">  c #B4B4C4",
",  c #CCCCDC",
"<  c #ECECF9",
"1  c #A4A4AD",
"2  c #C4C4CC",
"3  c #BCBCC4",
"4  c #B4B4BC",
"5  c #D4D4DC",
"6  c #CCCCD4",
"7  c #F4F4FC",
"8  c #DCDCE4",
"9  c #04147E",
"0  c #676A75",
"q  c #989BA5",
"w  c #051747",
"e  c #B4BCD4",
"r  c #7F8490",
"t  c #042C89",
"y  c #8C9098",
"u  c #A9ACB2",
"i  c #2B559F",
"p  c #4467A6",
"a  c #C3CCDC",
"s  c #134394",
"d  c #5878AE",
"f  c #6C88B6",
"g  c #8098BE",
"h  c #585B60",
"j  c #93A8C6",
"k  c #787C82",
"l  c #727477",
"z  c #AABED9",
"x  c #A7B7CC",
"c  c #9BA6B5",
"v  c #B8C4D4",
"b  c #D0DCEB",
"n  c #CCD4DD",
"m  c #BCC4CC",
"M  c #B4BCC4",
"N  c #C4CCD4",
"B  c #D5E4F2",
"V  c #C4D4E1",
"C  c #BCD4E4",
"Z  c #E0EEF6",
"A  c #9BA5AA",
"S  c #ACB4B8",
"D  c #ECF4F7",
"F  c #244851",
"G  c #68A4B2",
"H  c #2F5B65",
"J  c #041417",
"K  c #388896",
"L  c #37494C",
"P  c #BCCCCE",
"I  c #155C60",
"U  c #236C6D",
"Y  c #346465",
"T  c #508C8D",
"R  c #2C6464",
"E  c #306C6C",
"W  c #ACD4D4",
"Q  c #B1CCCC",
"!  c #CFE9E9",
"~  c #C4DCDC",
"^  c #C2D4D4",
"/  c #C4CCCC",
"(  c #BCC4C4",
")  c #B4BCBC",
"_  c #F3FCFC",
"`  c #D4DCDC",
"'  c #CCD4D4",
"]  c #DCE4E4",
"[  c #8CC8C6",
"{  c #084C48",
"}  c #09544F",
"|  c #186F69",
" . c #3BABA4",
".. c #357470",
"X. c #285451",
"o. c #7DBDBA",
"O. c #1A645E",
"+. c #29867E",
"@. c #31938B",
"#. c #174440",
"$. c #163A37",
"%. c #265C58",
"&. c #39847D",
"*. c #367C76",
"=. c #458A85",
"-. c #72B4AF",
";. c #A2BCBA",
":. c #0A5E56",
">. c #0A3E38",
",. c #06211E",
"<. c #0C312D",
"1. c #194C47",
"2. c #1C544E",
"3. c #2A7C73",
"4. c #24645D",
"5. c #2B746C",
"6. c #3A9C92",
"7. c #3B8C83",
"8. c #44948B",
"9. c #579C94",
"0. c #5CA49D",
"q. c #58948E",
"w. c #759C98",
"e. c #86A29F",
"r. c #1C5C54",
"t. c #246C63",
"y. c #43A497",
"u. c #2D6C64",
"i. c #499C92",
"p. c #4FA499",
"a. c #57AEA2",
"s. c #68A8A0",
"d. c #48746E",
"f. c #557C77",
"g. c #658B86",
"h. c #294C47",
"j. c #365C56",
"k. c #3C645E",
"l. c #4B7C74",
"z. c #436C66",
"x. c #35544F",
"c. c #5B8C84",
"v. c #56847D",
"b. c #6B9C94",
"n. c #66948D",
"m. c #77A49D",
"M. c #30645B",
"N. c #26433D",
"B. c #7BACA2",
"V. c #85ACA4",
"C. c #95BCB4",
"Z. c #AFC4C0",
"A. c #ACBCB9",
"S. c #89B4AA",
"D. c #C0E4DC",
"F. c #B6D4CD",
"G. c #46635C",
"H. c #8BBCB0",
"J. c #55766D",
"K. c #9CC4B9",
"L. c #A6CBC1",
"P. c #BADCD3",
"I. c #77978E",
"U. c #ACD4C8",
"Y. c #96B8AD",
"T. c #75A494",
"R. c #B4CCC4",
"E. c #C4DCD4",
"W. c #CCDCD5",
"Q. c #BCCCC4",
"!. c #C7D4CC",
"~. c #F3FCF4",
"^. c #040C04",
"/. c #C4CCC4",
"(. c #D4DCD4",
"). c #ECF4EC",
"_. c #E4ECE4",
"`. c #DCE4DC",
"'. c #4F504F",
"]. c #F4FCEC",
"[. c #656662",
"{. c #6F7241",
"}. c #EDEED5",
"|. c #0C0C04",
" X c #FCFCEC",
".X c #B4B4A9",
"XX c #CCCCC4",
"oX c #BCBCB4",
"OX c #D4D4CC",
"+X c #FCFCF4",
"@X c #F4F4EC",
"#X c #ECECE4",
"$X c #E4E4DC",
"%X c #DACC1B",
"&X c #DED23A",
"*X c #E6E2B1",
"=X c #E1D76F",
"-X c #A8992A",
";X c #A19F90",
":X c #C7B229",
">X c #927D10",
",X c #6D5A0D",
"<X c #88867D",
"1X c #DEDCD4",
"2X c #DF911D",
"3X c #D68018",
"4X c #CC7012",
"5X c #140C04",
"6X c #363432",
"7X c #FCF4EC",
"8X c #292827",
"9X c #403F3E",
"0X c #C3600B",
"qX c #C8712B",
"wX c #D4823A",
"eX c #D58B4C",
"rX c #D7A073",
"tX c #DAB18E",
"yX c #E5D4C6",
"uX c #BA601D",
"iX c #DDC0AA",
"pX c #B2500F",
"aX c #DFCBBD",
"sX c #C67846",
"dX c #CA8F69",
"fX c #BB6938",
"gX c #B97E5E",
"hX c #C89C84",
"jX c #D1B19F",
"kX c #A14311",
"lX c #8F3309",
"zX c #AC5932",
"xX c #B06849",
"cX c #762709",
"vX c #7E3A24",
"bX c #611C09",
"nX c #9C5540",
"mX c #ECE4E2",
"MX c #834B41",
"NX c #0C0404",
"BX c #FCF4F4",
"VX c #F4ECEC",
"CX c gray99",
"ZX c #F4F4F4",
"AX c #ECECEC",
"SX c #E4E4E4",
"DX c gainsboro",
"FX c gray83",
"GX c gray80",
"HX c gray77",
"JX c #BCBCBC",
"KX c #B4B4B4",
"LX c gray11",
"PX c gray8",
"IX c #0C0C0C",
"UX c #040404",
/* pixels */
"#X#X#X#X#X#X#X#X#X#X#X#X#X#X#X#X#X#X#X#X#X#X#X#X#X#X#X#X#X#X#X#X#X#X#X#X#X#X#X#X#X#X#X#X#X#X#X#X#X#X#X#X#X#X#X#X#X#X#X#X#X#X#X#X#X#X#X#X< }.&X&X%X%X%X%X*X< #X#X#X#X#X#X#X#X#X#X#X#X#X#X#X#X#X#X#X#X#X#X#X#X#X#X#X#X#X#X#X#X#X#X#X#X#X#X#X#X#X#X#X#X#X#X#X#X#X#X#X#X#X#X#X#X#X#X#X#X#X#X#X#X#X#X#X#X#X#X#X#X#X#X#X).D aXtXiXAX_ #X#X#X#X#X#X#X#X#X#X#X#X#X#X#X#X#X#X#X#X#X#X#X#X#X#X#X#X#X#X#X#X#X#X#X#X#X#X#X#X#X#X#X#X#X#X#X#X#X#X#X#X#X#X#X#X#X#X#X#X#X#X#X#X#X#X#X#X#X#X#X#X#X#X#X#X#X#X#X#X#X#X#X#X#X#X#X#X#X#X#X#X#X#X#X#X#X#X#X#X#X#X#X#X#X#X#X#X#X#X#X#X#X#X#X#X#X#X#X#X#X#X#X#X#X#X#X#X#X#X#X#X#X#X#X#X#X#X#X#X#X#X#X#X#X#X#X#X#X#X#X#X#X#X#X#X#X#X#X#X#X#X#X#X#X#X#X#X#X#X#X#X#X#X#X#X#X#X#X#X#X#X#X#X#X#X#X#X#X#X#X#X#X#X#X#X#X#X#X#X#X#X#X#X#X#X#X#X#X#X#X#X#X#X#X#X#X#X#X#X#X#X#X#X#X#X#X#X#X#X#X#X#X#X#X#X#X#X#X#X#X#X#X#X#X#X#X#X#X#X#X#X#X#X#X#X#X#X#X#X#X#X#X#X#X#X#X#X#X#X#X#X#X#X#X#X#X#X#X#X#X#X#X#X#X#X#X#X#X#X#X#X#X#X#X#X#X#X#X#X#X#X#X#X#X#X#X#X#X#X#X#X#X#X#X#X#X#X#X#X#X#X#X#X#X#X#X#X#X#X#X#X#X#X#X#X#X#X#X#X#X#X#X#X#X#X#X#X#X#X#X#X#X#X#X#X#X#X#X#X#X#X#X#X#X#X#X#X#X#X#X#X#X#X#X#X#X#X#X#X#X#X#X#X#X#X#X#X#X#X#X#X#X#X#X#X#X#X#X#X#X#X#X#X#X#X#X#X#X#X#X#X#X#X#X#X#X#X#X#X#X#X#X#X#X#X#X#X#X#X#X#X#X#X#X#X#X#X",
"#X#X#X#X#X#X#X#X#X#X#X#X#X#X#X#X#X#X#X#X#X#X#X#X#X#X#X#X#X#X#X#X#X#X#X#X#X#X#X#X#X#X#X#X#X#X#X#X#X#X#X#X#X#X#X#X#X#X#X#X#X#X#X#X#X#X#X#X< *X%X&X&X%X&X%X=X< #X#X#X#X#X#X#X#X#X#X#X#X#X#X#X#X#X#X#X#X#X#X#X#X#X#X#X#X#X#X#X#X#X#X#X#X#X#X#X#X#X#X#X#X#X#X#X#X#X#X#X#X#X#X#X#X#X#X#X#X#X#X#X#X#X#X#X#X#X#X#X#X#X#XAXD iXeXqXqXdXyX_ AX#X#X#X#X#X#X#X#X#X#X#X#X#X#X#X#X#X#X#X#X#X#X#X#X#X#X#X#X#X#X#X#X#X#X#X#X#X#X#X#X#X#X#X#X#X#X#X#X#X#X#X#X#X#X#X#X#X#X#X#X#X#X#X#X#X#X#X#X#X#X#X#X#X#X#X#X#X#X#X#X#X#X#X#X#X#X#X#X#X#X#X#X#X#X#X#X#X#X#X#X#X#X#X#X#X#X#X#X#X#X#X#X#X#X#X#X#X#X#X#X#X#X#X#X#X#X#X#X#X#X#X#X#X#X#X#X#X#X#X#X#X#X#X#X#X#X#X#X#X#X#X#X#X#X#X#X#X#X#X#X#X#X#X#X#X#X#X#X#X#X#X#X#X#X#X#X#X#X#X#X#X#X#X#X#X#X#X#X#X#X#X#X#X#X#X#X#X#X#X#X#X#X#X#X#X#X#X#X#X#X#X#X#X#X#X#X#X#X#X#X#X#X#X#X#X#X#X#X#X#X#X#X#X#X#X#X#X#X#X#X#X#X#X#X#X#X#X#X#X#X#X#X#X#X#X#X#X#X#X#X#X#X#X#X#X#X#X#X#X#X#X#X#X#X#X#X#X#X#X#X#X#X#X#X#X#X#X#X#X#X#X#X#X#X#X#X#X#X#X#X#X#X#X#X#X#X#X#X#X#X#X#X#X#X#X#X#X#X#X#X#X#X#X#X#X#X#X#X#X#X#X#X#X#X#X#X#X#X#X#X#X#X#X#X#X#X#X#X#X#X#X#X#X#X#X#X#X#X#X#X#X#X#X#X#X#X#X#X#X#X#X#X#X#X#X#X#X#X#X#X#X#X#X#X#X#X#X#X#X#X#X#X#X#X#X#X#X#X#X#X#X#X#X#X#X#X#X#X#X#X#X#X#X#X#X#X#X#X#X#X#X#X#X#X#X#X#X#X#X#X#X#X#X#X#X#X",
"#X#X#X#X#X#X#X#X#X#X#X#X#X#X#X#X#X#X#X#X#X#X#X#X#X#X#X#X#X#X#X#X#X#X#X#X#X#X#X#X#X#X#X#X#X#X#X#X#X#X#X#X#X#X#X#X#X#X#X#X#X#X#X#X#X#X#X#X< *X%X&X&X%X%X%X&X#X< #X#X#X#X#X#X#X#X#X#X#X#X#X#X#X#X#X#X#X#X#X#X#X#X#X#X#X#X#X#X#X#X#X#X#X#X#X#X#X#X#X#X#X#X#X#X#X#X#X#X#X#X#X#X#X#X#X#X#X#X#X#X#X#X#X#X#X#X#X#X#X#X#X_ tX3XeXrXeX3XwX1X_ D AX#X#X#X#X#X#X#X#X#X#X#X#X#X#X#X#X#X#X#X#X#X#X#X#X#X#X#X#X#X#X#X#X#X#X#X#X#X#X#X#X#X#X#X#X#X#X#X#X#X#X#X#X#X#X#X#X#X#X#X#X#X#X#X#X#X#X#X#X#X#X#X#X#X#X#X#X#X#X#X#X#X#X#X#X#X#X#X#X#X#X#X#X#X#X#X#X#X#X#X#X#X#X#X#X#X#X#X#X#X#X#X#X#X#X#X#X#X#X#X#X#X#X#X#X#X#X#X#X#X#X#X#X#X#X#X#X#X#X#X#X#X#X#X#X#X#X#X#X#X#X#X#X#X#X#X#X#X#X#X#X#X#X#X#X#X#X#X#X#X#X#X#X#X#X#X#X#X#X#X#X#X#X#X#X#X#X#X#X#X#X#X#X#X#X#X#X#X#X#X#X#X#X#X#X#X#X#X#X#X#X#X#X#X#X#X#X#X#X#X#X#X#X#X#X#X#X#X#X#X#X#X#X#X#X#X#X#X#X#X#X#X#X#X#X#X#X#X#X#X#X#X#X#X#X#X#X#X#X#X#X#X#X#X#X#X#X#X#X#X#X#X#X#X#X#X#X#X#X#X#X#X#X#X#X#X#X#X#X#X#X#X#X#X#X#X#X#X#X#X#X#X#X#X#X#X#X#X#X#X#X#X#X#X#X#X#X#X#X#X#X#X#X#X#X#X#X#X#X#X#X#X#X#X#X#X#X#X#X#X#X#X#X#X#X#X#X#X#X#X#X#X#X#X#X#X#X#X#X#X#X#X#X#X#X#X#X#X#X#X#X#X#X#X#X#X#X#X#X#X#X#X#X#X#X#X#X#X#X#X#X#X#X#X#X#X#X#X#X#X#X#X#X#X#X#X#X#X#X#X#X#X#X#X#X#X#X#X#X#X#X#X#X#X#X#X#X#X#X#X#X#X#X#X#X",
"#X#X#X#X#X#X#X#X#X#X#X#X#X#X#X#X#X#X#X#X#X#X#X#X#X#X#X#X#X#X#X#X#X#X#X#X#X#X#X#X#X#X#X#X#X#X#X#X#X#X#X#X#X#X#X#X#X#X#X#X#X#X#X#X#X#X#X#X< *X&X&X&X&X%X%X%X*X< #X#X#X#X#X#X#X#X#X#X#X#X#X#X#X#X#X#X#X#X#X#X#X#X#X#X#X#X#X#X#X#X#X#X#X#X#X#X#X#X#X#X#X#X#X#X#X#X#X#X#X#X#X#X#X#X#X#X#X#X#X#X#X#X#X#X#X#X#X#X#X#X_ #XeXwXeXrXwXeXeXeXrXtX#X).#X#X#X#X#X#X#X#X#X#X#X#X#X#X#X#X#X#X#X#X#X#X#X#X#X#X#X#X#X#X#X#X#X#X#X#X#X#X#X#X#X#X#X#X#X#X#X#X#X#X#X#X#X#X#X#X#X#X#X#X#X#X#X#X#X#X#X#X#X#X#X#X#X#X#X#X#X#X#X#X#X#X#X#X#X#X#X#X#X#X#X#X#X#X#X#X#X#X#X#X#X#X#X#X#X#X#X#X#X#X#X#X#X#X#X#X#X#X#X#X#X#X#X#X#X#X#X#X#X#X#X#X#X#X#X#X#X#X#X#X#X#X#X#X#X#X#X#X#X#X#X#X#X#X#X#X#X#X#X#X#X#X#X#X#X#X#X#X#X#X#X#X#X#X#X#X#X#X#X#X#X#X#X#X#X#X#X#X#X#X#X#X#X#X#X#X#X#X#X#X#X#X#X#X#X#X#X#X#X#X#X#X#X#X#X#X#X#X#X#X#X#X#X#X#X#X#X#X#X#X#X#X#X#X#X#X#X#X#X#X#X#X#X#X#X#X#X#X#X#X#X#X#X#X#X#X#X#X#X#X#X#X#X#X#X#X#X#X#X#X#X#X#X#X#X#X#X#X#X#X#X#X#X#X#X#X#X#X#X#X#X#X#X#X#X#X#X#X#X#X#X#X#X#X#X#X#X#X#X#X#X#X#X#X#X#X#X#X#X#X#X#X#X#X#X#X#X#X#X#X#X#X#X#X#X#X#X#X#X#X#X#X#X#X#X#X#X#X#X#X#X#X#X#X#X#X#X#X#X#X#X#X#X#X#X#X#X#X#X#X).7X X X+X+X+X+X+X+X+X+X+X+X+X+X+X+X+X+X+X+X+X+X X X@X#X#X#X#X#X#X#X#X#X#X#X#X#X#X#X#X#X#X#X#X#X#X#X#X#X#X#X#X#X#X#X#X#X#X#X#X",
"#X#X#X#X#X#X#X#X#X#X#X#X#X#X#X#X#X#X#X#X#X#X#X#X#X#X#X#X#X#X#X#X#X#X#X#X#X#X#X#X#X#X#X#X#X#X#X#X#X#X#X#X#X#X#X#X#X#X#X#X#X#X#X#X#X#X#X#X< }.&X%X&X&X%X&X%X=X< AX#X#X#X#X#X#X#X#X#X#X#X#X#X#X#X#X#X#X#X#X#X#X#X#X#X#X#X#X#X#X#X#X#X#X#X#X#X#X#X#X#X#X#X#X#X#X#X#X#X#X#X#X#X#X#X#X#X#X#X#X#X#X#X#X#X#X#X#X#X#XD D rXwX2XsXsXwXeXtXeX4XqXaX_ _.#X#X#X#X#X#X#X#X#X#X#X#X#X#X#X#X#X#X#X#X#X#X#X#X#X#X#X#X#X#X#X#X#X#X#X#X#X#X#X#X#X#X#X#X#X#X#X#X#X#X#X#X#X#X#X#X#X#X#X#X#X#X#X#X#X#X#X#X#X#X#X#X#X#X#X#X#X#X#X#X#X#X#X#X#X#X#X#X#X#X#X#X#X#X#X#X#X#X#X#X#X#X#X#X#X#X#X#X#X#X#X#X#X#X#X#X#X#X#X#X#X#X#X#X#X#X#X#X#X#X#X#X#X#X#X#X#X#X#X#X#X#X#X#X#X#X#X#X#X#X#X#X#X#X#X#X#X#X#X#X#X#X#X#X#X#X#X#X#X#X#X#X#X#X#X#X#X#X#X#X#X#X#X#X#X#X#X#X#X#X#X#X#X#X#X#X#X#X#X#X#X#X#X#X#X#X#X#X#X#X#X#X#X#X#X#X#X#X#X#X#X#X#X#X#X#X#X#X#X#X#X#X#X#X#X#X#X#X#X#X#X#X#X#X#X#X#X#X#X#X#X#X#X#X#X#X#X#X#X#X#X#X#X#X#X#X#X#X#X#X#X#X#X#X#X#X#X#X#X#X#X#X#X#X#X#X#X#X#X#X#X#X#X#X#X#X#X#X#X#X#X#X#X#X#X#X#X#X#X#X#X#X#X#X#X#X#X#X#X#X#X#X#X#X#X#X#X#X#X#X#X#X#X#X#X#X#X#X#X#X#X#X#X#X#X#X#X#X#X#X#X#X#X#X#X#X#X#X#X#X#X).7X X+X+X+X+X X7X_.DXn v x j j g g f f f f f f f f f g g j x v , 8 #X X+X+X+X X@X#X#X#X#X#X#X#X#X#X#X#X#X#X#X#X#X#X#X#X#X#X#X#X#X#X#X#X#X#X#X",
"#X#X#X#X#X#X#X#X#X#X#X#X#X#X#X#X#X#X#X#X#X#X#X#X#X#X#X#X#X#X#X#X#X#X#X#X#X#X#X#X#X#X#X#X#X#X#X#X#X#X#X#X#X#X#X#X#X#X#X#X#X#X#X#X#X#X#X#XAXAX=X%X%X&X&X%X%X%X#X< #X#X#X#X#X#X#X#X#X#X#X#X#X#X#X#X#X#X#X#X#X#X#X#X#X#X#X#X#X#X#X#X#X#X#X#X#X#X#X#X#X#X#X#X#X#X#X#X#X#X#X#X#X#X#X#X#X#X#X#X#X#X#X#X#X#X#X#X#X_ yXgXwXwX3XdXdXsXeXdXeXwX3XtX_ #X#X#X#X#X#X#X#X#X#X#X#X#X#X#X#X#X#X#X#X#X#X#X#X#X#X#X#X#X#X#X#X#X#X#X#X#X#X#X#X#X#X#X#X#X#X#X#X#X#X#X#X#X#X#X#X#X#X#X#X#X#X#X#X#X#X#X#X#X#X#X#X#X#X#X#X#X#X#X#X#X#X#X#X#X#X#X#X#X#X#X#X#X#X#X#X#X#X#X#X#X#X#X#X#X#X#X#X#X#X#X#X#X#X#X#X#X#X#X#X#X#X#X#X#X#X#X#X#X#X#X#X#X#X#X#X#X#X#X#X#X#X#X#X#X#X#X#X#X#X#X#X#X#X#X#X#X#X#X#X#X#X#X#X#X#X#X#X#X#X#X#X#X#X#X#X#X#X#X#X#X#X#X#X#X#X#X#X#X#X#X#X#X#X#X#X#X#X#X#X#X#X#X#X#X#X#X#X#X#X#X#X#X#X#X#X#X#X#X#X#X#X#X#X#X#X#X#X#X#X#X#X#X#X#X#X#X#X#X#X#X#X#X#X#X#X#X#X#X#X#X#X#X#X#X#X#X#X#X#X#X#X#X#X#X#X#X#X#X#X#X#X#X#X#X#X#X#X#X#X#X#X#X#X#X#X#X#X#X#X#X#X#X#X#X#X#X#X#X#X#X#X#X#X#X#X#X#X#X#X#X#X#X#X#X#X#X#X#X#X#X#X#X#X#X#X#X#X#X#X#X#X#X#X#X#X#X#X#X#X#X#X#X#X#X#X#X#X#X#X#X#X#X#X#X#XAX@X X+X+X+X X#X5 v x j f d p i s t t 9 9 9 9 9 9 9 9 9 9 9 9 9 9 9 9 9 9 9 t s i p f j v ` @X+X+X X@X#X_.#X#X#X#X#X#X#X#X#X#X#X#X#X#X#X#X#X#X#X#X#X#X#X#X",
"#X#X#X#X#X#X#X#X#X#X#X#X#X#X#X#X#X#X#X#X#X#X#X#X#X#X#X#X#X#X#X#X#X#X#X#X#X#X#X#X#X#X#X#X#X#X#X#X#X#X#X#X#X#X#X#X#X#X#X#X#X#X#X#X#X#X#X#X#X< *X%X%X&X&X%X%X%X*X< #X#X#X#X#X#X#X#X#X#X#X#X#X#X#X#X#X#X#X#X#X#X#X#X#X#X#X#X#X#X#X#X#X#X#X#X#X#X#X#X#X#X#X#X#X#X#X#X#X#X#X#X#X#X#X#X#X#X#X#X#X#X#X#X#X#X#X#XAXD rXqXeX2XqXdXeXqX3XeXwXeXwXrXD AX#X#X#X#X#X#X#X#X#X#X#X#X#X#X#X#X#X#X#X#X#X#X#X#X#X#X#X#X#X#X#X#X#X#X#X#X#X#X#X#X#X#X#X#X#X#X#X#X#X#X#X#X#X#X#X#X#X#X#X#X#X#X#X#X#X#X#X#X#X#X#X#X#X#X#X#X#X#X#X#X#X#X#X#X#X#X#X#X#X#X#X#X#X#X#X#X#X#X#X#X#X#X#X#X#X#X#X#X#X#X#X#X#X#X#X#X#X#X#X#X#X#X#X#X#X#X#X#X#X#X#X#X#X#X#X#X#X#X#X#X#X#X#X#X#X#X#X#X#X#X#X#X#X#X#X#X#X#X#X#X#X#X#X#X#X#X#X#X#X#X#X#X#X#X#X#X#X#X#X#X#X#X#X#X#X#X#X#X#X#X#X#X#X#X#X#X#X#X#X#X#X#X#X#X#X#X#X#X#X#X#X#X#X#X#X#X#X#X#X#X#X#X#X#X#X#X#X#X#X#X#X#X#X#X#X#X#X#X#X#X#X#X#X#X#X#X#X#X#X#X#X#X#X#X#X#X#X#X#X#X#X#X#X#X#X#X#X#X#X#X#X#X#X#X#X#X#X#X#X#X#X#X#X#X#X#X#X#X#X#X#X#X#X#X#X#X#X#X#X#X#X#X#X#X#X#X#X#X#X#X#X#X#X#X#X#X#X#X#X#X#X#X#X#X#X#X#X#X#X#X#X#X#X#X#X#X#X#X#X#X#X#X#X#X#X#X#X#X#X#X#X@X X+X+X X#X` v j f p i s t 9 9 9 9 9 t t s i i p p d d f g f g j j g f g f f d p i i s t 9 9 9 9 t i f x 8  X+X XAX_.#X#X#X#X#X#X#X#X#X#X#X#X#X#X#X#X#X#X#X#X#X#X",
"#X#X#X#X#X#X#X#X#X#X#X#X#X#X#X#X#X#X#X#X#X#X#X#X#X#X#X#X#X#X#X#X#X#X#X#X#X#X#X#X#X#X#X#X#X#X#X#X#X#X#X#X#X#X#X#X#X#X#X#X#X#X#X#X#X#X#X#X#X< *X%X%X%X&X&X%X%X=X< AX#X#X#X#X#X#X#X#X#X#X#X#X#X#X#X#X#X#X#X#X#X#X#X#X#X#X#X#X#X#X#X#X#X#X#X#X#X#X#X#X#X#X#X#X#X#X#X#X#X#X#X#X#X#X#X#X#X#X#X#X#X#X#X_.AX_ _ _ aXrXhXwXwXwXgXsXqX4XwXeXwXqXdXAX).#X#X#X#X#X#X#X#X#X#X#X#X#X#X#X#X#X#X#X#X#X#X#X#X#X#X#X#X#X#X#X#X#X#X#X#X#X#X#X#X#X#X#X#X#X#X#X#X#X#X#X#X#X#X#X#X#X#X#X#X#X#X#X#X#X#X#X#X#X#X#X#X#X#X#X#X#X#X#X#X#X#X#X#X#X#X#X#X#X#X#X#X#X#X#X#X#X#X#X#X#X#X#X#X#X#X#X#X#X#X#X#X#X#X#X#X#X#X#X#X#X#X#X#X#X#X#X#X#X#X#X#X#X#X#X#X#X#X#X#X#X#X#X#X#X#X#X#X#X#X#X#X#X#X#X#X#X#X#X#X#X#X#X#X#X#X#X#X#X#X#X#X#X#X#X#X#X#X#X#X#X#X#X#X#X#X#X#X#X#X#X#X#X#X#X#X#X#X#X#X#X#X#X#X#X#X#X#X#X#X#X#X#X#X#X#X#X#X#X#X#X#X#X#X#X#X#X#X#X#X#X#X#X#X#X#X#X#X#X#X#X#X#X#X#X#X#X#X#X#X#X#X#X#X#X#X#X#X#X#X#X#X#X#X#X#X#X#X#X#X#X#X#X#X#X#X#X#X#X#X#X#X#X#X#X#X#X#X#X#X#X#X#X#X#X#X#X#X#X#X#X#X#X#X#X#X#X#X#X#X#X#X#X#X#X#X#X#X#X#X#X#X#X#X#X#X#X#X#X#X#X#X#X#X#X#X#X#X#X#X#X#X#X#X#X#X#X@X+X+X+XVXn x g d i s t 9 9 9 9 t s i p f g j v a ` ] #X@X X X X+X X+X X+X+X+X+X X+X X X X@X#X` N x g d i s 9 9 9 s p j 5 +X+X@XSX#X#X#X#X#X#X#X#X#X#X#X#X#X#X#X#X#X#X#X#X",
"#X#X#X#X#X#X#X#X#X#X#X#X#X#X#X#X#X#X#X#X#X#X#X#X#X#X#X#X#X#X#X#X#X#X#X#X#X#X#X#X#X#X#X#X#X#X#X#X#X#X#X#X#X#X#X#X#X#X#X#X#X#X#X#X#X#X#X#X#X< *X&X%X%X%X&X%X%X&X}.< #X#X#X#X#X#X#X#X#X#X#X#X#X#X#X#X#X#X#X#X#X#X#X#X#X#X#X#X#X#X#X#X#X#X#X#X#X#X#X#X#X#X#X#X#X#X#X#X#X#X#X#X#X#X#X#X#X#X#X#X#X#X#X).).iXjXiXrXwXeXsXsXwXsXxX0X4X3XsXsXwXwX#X_ AX#X#X#X#X#X#X#X#X#X#X#X#X#X#X#X#X#X#X#X#X#X#X#X#X#X#X#X#X#X#X#X#X#X#X#X#X#X#X#X#X#X#X#X#X#X#X#X#X#X#X#X#X#X#X#X#X#X#X#X#X#X#X#X#X#X#X#X#X#X#X#X#X#X#X#X#X#X#X#X#X#X#X#X#X#X#X#X#X#X#X#X#X#X#X#X#X#X#X#X#X#X#X#X#X#X#X#X#X#X#X#X#X#X#X#X#X#X#X#X#X#X#X#X#X#X#X#X#X#X#X#X#X#X#X#X#X#X#X#X#X#X#X#X#X#X#X#X#X#X#X#X#X#X#X#X#X#X#X#X#X#X#X#X#X#X#X#X#X#X#X#X#X#X#X#X#X#X#X#X#X#X#X#X#X#X#X#X#X#X#X#X#X#X#X#X#X#X#X#X#X#X#X#X#X#X#X#X#X#X#X#X#X#X#X#X#X#X#X#X#X#X#X#X#X#X#X#X#X#X#X#X#X#X#X#X#X#X#X#X#X#X#X#X#X#X#X#X#X#X#X#X#X#X#X#X#X#X#X#X#X#X#X#X#X#X#X#X#X#X#X#X#X#X#X#X#X#X#X#X#X#X#X#X#X#X#X#X#X#X#X#X#X#X#X#X#X#X#X#X#X#X#X#X#X#X#X#X#X#X#X#X#X#X#X#X#X#X#X#X#X#X#X#X#X#X#X#X#X#X#X#X#X#X#X#X#X#X#X#X#X#X#X@X X+X+X#XN j d i s 9 9 9 9 t s i d g x a SX@X X+X+X+X X X X7X@X@X@X#XVX#X#X#X#X#X#X#X#X#X#X#XVX@X@X@X X X+X+X+X7X` x f i 9 9 9 s d e  X+X#X#X#X#X#X#X#X#X#X#X#X#X#X#X#X#X#X#X#X#X",
"#X#X#X#X#X#X#X#X#X#X#X#X#X#X#X#X#X#X#X#X#X#X#X#X#X#X#X#X#X#X#X#X#X#X#X#X#X#X#X#X#X#X#X#X#X#X#X#X#X#X#X#X#X#X#X#X#X#X#X#X#X#X#X#X#X#X#X#X#X< yX=X&X%X%X&X&X%X%X*X< #X#X#X#X#X#X#X#X#X#X#X#X#X#X#X#X#X#X#X#X#X#X#X#X#X#X#X#X#X#X#X#X#X#X#X#X#X#X#X#X#X#X#X#X#X#X#X#X#X#X#X#X#X#X#X#X#X#X#X#X#XSXD _ jXfXzXfXgXqXwXsXgXdXeXwX4X4X3XwXsXwXsXdXaXD #X#X#X#X#X#X#X#X#X#X#X#X#X#X#X#X#X#X#X#X#X#X#X#X#X#X#X#X#X#X#X#X#X#X#X#X#X#X#X#X#X#X#X#X#X#X#X#X#X#X#X#X#X#X#X#X#X#X#X#X#X#X#X#X#X#X#X#X#X#X#X#X#X#X#X#X#X#X#X#X#X#X#X#X#X#X#X#X#X#X#X#X#X#X#X#X#X#X#X#X#X#X#X#X#X#X#X#X#X#X#X#X#X#X#X#X#X#X#X#X#X#X#X#X#X#X#X#X#X#X#X#X#X#X#X#X#X#X#X#X#X#X#X#X#X#X#X#X#X#X#X#X#X#X#X#X#X#X#X#X#X#X#X#X#X#X#X#X#X#X#X#X#X#X#X#X#X#X#X#X#X#X#X#X#X#X#X#X#X#X#X#X#X#X#X#X#X#X#X#X#X#X#X#X#X#X#X#X#X#X#X#X#X#X#X#X#X#X#X#X#X#X#X#X#X#X#X#X#X#X#X#X#X#X#X#X#X#X#X#X#X#X#X#X#X#X#X#X#X#X#X#X#X#X#X#X#X#X#X#X#X#X#X#X#X#X#X#X#X#X#X#X#X#X#X#X#X#X#X#X#X#X#X#X#X#X#X#X#X#X#X#X#X#X#X#X#X#X#X#X#X#X#X#X#X#X#X#X#X#X#X#X#X#X#X#X#X#X#X#X#X#X#X#X#X#X#X#X#X#X#X#X#X#X#X#X#X#XAX X+X+X#XN j d i t 9 9 9 t s p d g e ` 7X X+X+X X X@X@X#X#X#X#X#X#X#X#X#X#X#X#X#X#X#X#X#X#X#X#X#X#X#X#X#X#X#X#X#X#X#X#X@X X+X+X).x d s 9 9 t p v +X X#X_.#X#X#X#X#X#X#X#X#X#X#X#X#X#X#X#X",
"#X#X#X#X#X#X#X#X#X#X#X#X#X#X#X#X#X#X#X#X#X#X#X#X#X#X#X#X#X#X#X#X#X#X#X#X#X#X#X#X#X#X#X#X#X#X#X#X#X#X#X#X#X#X#X#X#X#X#X#X#X#X#X#X#X#X#X#X#XD }.=X%X%X%X&X&X%X%X=X< #X#X#X#X#X#X#X#X#X#X#X#X#X#X#X#X#X#X#X#X#X#X#X#X#X#X#X#X#X#X#X#X#X#X#X#X#X#X#X#X#X#X#X#X#X#X#X#X#X#X#X#X#X#X#X#X#X#XAX#XD _ ).hXxXsXdXdXeXsX4XsXsXdXdXwXwX4X4XqXsXsXsXqXfXyX_ #X#X#X#X#X#X#X#X#X#X#X#X#X#X#X#X#X#X#X#X#X#X#X#X#X#X#X#X#X#X#X#X#X#X#X#X#X#X#X#X#X#X#X#X#X#X#X#X#X#X#X#X#X#X#X#X#X#X#X#X#X#X#X#X#X#X#X#X#X#X#X#X#X#X#X#X#X#X#X#X#X#X#X#X#X#X#X#X#X#X#X#X#X#X#X#X#X#X#X#X#X#X#X#X#X#X#X#X#X#X#X#X#X#X#X#X#X#X#X#X#X#X#X#X#X#X#X#X#X#X#X#X#X#X#X#X#X#X#X#X#X#X#X#X#X#X#X#X#X#X#X#X#X#X#X#X#X#X#X#X#X#X#X#X#X#X#X#X#X#X#X#X#X#X#X#X#X#X#X#X#X#X#X#X#X#X#X#X#X#X#X#X#X#X#X#X#X#X#X#X#X#X#X#X#X#X#X#X#X#X#X#X#X#X#X#X#X#X#X#X#X#X#X#X#X#X#X#X#X#X#X#X#X#X#X#X#X#X#X#X#X#X#X#X#X#X#X#X#X#X#X#X#X#X#X#X#X#X#X#X#X#X#X#X#X#X#X#X#X#X#X#X#X#X#X#X#X#X#X#X#X#X#X#X#X#X#X#X#X#X#X#X#X#X#X#X#X#X#X#X#X#X#X#X#X#X#X#X#X#X#X#X#X#X#X#X#X#X#X#X#X#X#X#X#X#X#X#X#X#X#X#X#X#X@X X+X X8 x f i t 9 9 9 t s p g e ` @X+X+X+X X@X#X#X#X#X#X#X#X#X#X#X#X#X#X#X#X#X#X#X#X#X#X#X#X#X#X#X#X#X#X#X#X#X#X#X#X#X#X#X#X#X#X#X#X@X+X+X` f t 9 t t d _.+X#XSX#X#X#X#X#X#X#X#X#X#X#X#X#X#X#X",
"#X#X#X#X#X#X#X#X#X#X#X#X#X#X#X#X#X#X#X#X#X#X#X#X#X#X#X#X#X#X#X#X#X#X#X#X#X#X#X#X#X#X#X#X#X#X#X#X#X#X#X#X#X#X#X#X#X#X#X#X#X#X#X#X#X#X#X#X#XAXAX=X%X%X%X%X%X&X%X&X#X< #X#X#X#X#X#X#X#X#X#X#X#X#X#X#X#X#X#X#X#X#X#X#X#X#X#X#X#X#X#X#X#X#X#X#X#X#X#X#X#X#X#X#X#X#X#X#X#X#X#X#X#X#X#X#XmX).D _ mXaXdXfXgXsXdXeXwXqXuX0XqXsXsXsXwX4X4X4XsXsXsXsXfXiX_ #X#X#X#X#X#X#X#X#X#X#X#X#X#X#X#X#X#X#X#X#X#X#X#X#X#X#X#X#X#X#X#X#X#X#X#X#X#X#X#X#X#X#X#X#X#X#X#X#X#X#X#X#X#X#X#X#X#X#X#X#X#X#X#X#X#X#X#X#X#X#X#X#X#X#X#X#X#X#X#X#X#X#X#X#X#X#X#X#X#X#X#X#X#X#X#X#X#X#X#X#X#X#X#X#X#X#X#X#X#X#X#X#X#X#X#X#X#X#X#X#X#X#X#X#X#X#X#X#X#X#X#X#X#X#X#X#X#X#X#X#X#X#X#X#X#X#X#X#X#X#X#X#X#X#X#X#X#X#X#X#X#X#X#X#X#X#X#X#X#X#X#X#X#X#X#X#X#X#X#X#X#X#X#X#X#X#X#X#X#X#X#X#X#X#X#X#X#X#X#X#X#X#X#X#X#X#X#X#X#X#X#X#X#X#X#X#X#X#X#X#X#X#X#X#X#X#X#X#X#X#X#X#X#X#X#X#X#X#X#X#X#X#X#X#X#X#X#X#X#X#X#X#X#X#X#X#X#X#X#X#X#X#X#X#X#X#X#X#X#X#X#X#X#X#X#X#X#X#X#X#X#X#X#X#X#X#X#X#X#X#X#X#X#X#X#X#X#X#X#X#X#X#X#X#X#X#X#X#X#X#X#X#X#X#X#X#X#X#X#X#X#X#X#X#X#X#X#X#X_.#X@X+X+X7X, j d s 9 9 9 t i p g x _.CX+X X X@X#X#X#X#X#X#X#X#X#X#X#X#X#X#X#X% #X#X#X#X#X#X#X#X#X#X#X#X#X#X#X#X#X#X#X#X#X#X#X#X#X#X#X#X#X#X#X#X#X#X#X+X+Xn p t t t s v +X@XmX#X#X#X#X#X#X#X#X#X#X#X#X#X#X",
"#X#X#X#X#X#X#X#X#X#X#X#X#X#X#X#X#X#X#X#X#X#X#X#X#X#X#X#X#X#X#X#X#X#X#X#X#X#X#X#X#X#X#X#X#X#X#X#X#X#X#X#X#X#X#X#X#X#X#X#X#X#X#X#X#X#X#X#X#XAX< =X%X%X%X=X&X&X%X%X}.< #X#X#X#X#X#X#X#X#X#X#X#X#X#X#X#X#X#X#X#X#X#X#X#X#X#X#X#X#X#X#X#X#X#X#X#X#X#X#X#X#X#X#X#X#X#X#X#X#X#X#X#X#X#X#X).AXjXrXdXsXxXgXsXsXsXsXsXqX4XwXqXsXsXsXsXqX4X4XsXsXfXsXfXiX_ _.#X#X#X#X#X#X#X#X#X#X#X#X#X#X#X#X#X#X#X#X#X#X#X#X#X#X#X#X#X#X#X#X#X#X#X#X#X#X#X#X#X#X#X#X#X#X#X#X#X#X#X#X#X#X#X#X#X#X#X#X#X#X#X#X#X#X#X#X#X#X#X#X#X#X#X#X#X#X#X#X#X#X#X#X#X#X#X#X#X#X#X#X#X#X#X#X#X#X#X#X#X#X#X#X#X#X#X#X#X#X#X#X#X#X#X#X#X#X#X#X#X#X#X#X#X#X#X#X#X#X#X#X#X#X#X#X#X#X#X#X#X#X#X#X#X#X#X#X#X#X#X#X#X#X#X#X#X#X#X#X#X#X#X#X#X#X#X#X#X#X#X#X#X#X#X#X#X#X#X#X#X#X#X#X#X#X#X#X#X#X#X#X#X#X#X#X#X#X#X#X#X#X#X#X#X#X#X#X#X#X#X#X#X#X#X#XSX@XCXCXCXCXCXCXCXCXCXCXCXCXCXCXCXCX+X#XSX#X#X#X#X#X#X#X#X#X#X#XSXZX. CXCX#XSX#X#X#X#X#X#X#X#X#X#X#X#X#X#X#X#X#X#X#X#X#X#X#XSX@XCXCXCXAXmX#X#X#X#X#X#X#X#X#X#X#X#X#X#X#X#X#X#X#X#X#X#X#X#X#X#XAXBXCXCXCXCX+XZX#X#X#X#X#X#X_.% @X+X+X XN g p t 9 9 9 s p f e ]  X+X+X#X7X. mX#X#X#X#X#X#X#X#X#X#X#X#X#X#X#X#X#X#X#X#X#X#X#X#X#X#X#XSXVXCXCX. @XSX#X#X#X#X#X#X#X#X#X#X#X#X#X#X#X#X#X#X#X#X#X+X+Xg t t t t j +X@XSX#X#X#X#X#X#X#X#X#X#X#X#X#X",
"#X#X#X#X#X#X#X#X#X#X#X#X#X#X#X#X#X#X#X#X#X#X#X#X#X#X#X#X#X#X#X#X#X#X#X#X#X#X#X#X#X#X#X#X#X#X#X#X#X#X#X#X#X#X#X#X#X#X#X#X#X#X#X#X#X#X#X#X#X#X< =X%X%X%X=X&X%X%X%X*X< #X#X#X#X#X#X#X#X#X#X#X#X#X#X#X#X#X#X#X#X#X#X#X#X#X#X#X#X#X#X#X#X#X#X#X#X#X#X#X#X#X#X#X#X#X#X#X#X#X#X#X#X#X#X#XD iXeXsXsXsXsXsXsXsXsXsXsXsX4XtXdXuXsXsXsXsXqX0XfXsXfXfXsXaX_ #X#X#X#X#X#X#X#X#X#X#X#X#X#X#X#X#X#X#X#X#X#X#X#X#X#X#X#X#X#X#X#X#X#X#X#X#X#X#X#X#X#X#X#X#X#X#X#X#X#X#X#X#X#X#X#X#X#X#X#X#X#X#X#X#X#X#X#X#X#X#X#X#X#X#X#X#X#X#X#X#X#X#X#X#X#X#X#X#X#X#X#X#X#X#X#X#X#X#X#X#X#X#X#X#X#X#X#X#X#X#X#X#X#X#X#X#X#X#X#X#X#X#X#X#X#X#X#X#X#X#X#X#X#X#X#X#X#X#X#X#X#X#X#X#X#X#X#X#X#X#X#X#X#X#X#X#X#X#X#X#X#X#X#X#X#X#X#X#X#X#X#X#X#X#X#X#X#X#XSX+X. . . . . CX+X@XAX#X#X#X#X#X#X#X#X#X#X#X#X#X#X#X#X#X#X#X#X#X#X#X#X#X#X#XAX$XOXOXOXOXOXOXOXOXOXOXOXOXOXOXOXOXFX#X#X#X#X#X#X#X#X#X#X#X#X#XAX1XOXOXOX#X#X#X#X#X#X#X#X#X#X#X#X#X#X#X#X#X#X#X#X#X#X#X#X#XAX$XOXOXOXSXAX#X#X#X#X#X#X#X#X#X#X#X#X#X#X#X#X#X#X#X#X#XSX#XCX. . . #X1XOXOXFX$XZX. . . @XSX#X+X+X@XN g p t 9 9 t s d g a @X+X X XVX#X+XHX'.(.. #X#X#X#X#X#X#X#X#X#X#X#X#X#X#X#X#X#X#X#X#X#X#X#X#X#X#XAXSXOXOXOX$XAX#X#X#X#X#X#X#X#X#X#X#X#X#X#X#X#X#X#X#X#X#X_.7X+Xg t s t t j +X#X#X#X#X#X#X#X#X#X#X#X#X#X#X",
"#X#X#X#X#X#X#X#X#X#X#X#X#X#X#X#X#X#X#X#X#X#X#X#X#X#X#X#X#X#X#X#X#X#X#X#X#X#X#X#X#X#X#X#X#X#X#X#X#X#X#X#X#X#X#X#X#X#X#X#X#X#X#X#X#X#X#X#X#XAX< =X%X&X%X&X&X%X%X%X=X< #X#X#X#X#X#X#X#X#X#X#X#X#X#X#X#X#X#X#X#X#X#X#X#X#X#X#X#X#X#X#X#X#X#X#X#X#X#X#X#X#X#X#X#X#X#X#X#X#X#X#X#X#X#XD $XwXwXdXdXeXsXeXeXgXsXsXsXsX3X4XpXqXsXfXfXsXsXqXzXxXfXfXgXAXAX#X#X#X#X#X#X#X#X#X#X#X#X#X#X#X#X#X#X#X#X#X#X#X#X#X#X#X#X#X#X#X#X#X#X#X#X#X#X#X#X#X#X#X#X#X#X#X#X#X#X#X#X#X#X#X#X#X#X#X#X#X#X#X#X#X#X#X#X#X#X#X#X#X#X#X#X#X#X#X#X#X#X#X#X#X#X#X#X#X#X#X#X#X#X#X#X#X#X#X#X#X#X#X#X#X#X#X#X#X#X#X#X#X#X#X#X#X#X#X#X#X#X#X#X#X#X#X#X#X#X#X#X#X#X#X#X#X#X#X#X#X#X#X#X#X#X#X#X#X#X#X#X#X#X#X#X#X#X#X#X#X#X#X#X#X#X#X#X#X#X#X#X#X#X#X#X#X#X#X@XHX;Xq ;Xu oXGXSX+X. . . CXVXSX#X#X#X#X#X#X#X#X#X#X#X#X#X#X#X#X#X#X#X#X#X#X. <XUX  UX  UX  UX  UX  UX  UX  UXUX8X@XZX#X#X#X#X#X#X#X#X#X#X#X. l UXUXLXSX+X#X#X#X#X#X#X#X#X#X#X#X#X#X#X#X#X#X#X#X#X#X#X#X. .X  UXUXJX. #X#X#X#X#X#X#X#X#X#X#X#X#X#X#X#X#X#X#XSX@X. . DX;Xl 9X8XPXUXUXNXLX6Xh <XJX+X. . N g p t 9 9 t i f x SX X+X X@X#X#X#X#X#X+X$X  LX@X. SX#X#X#X#X#X#X#X#X#X#X#X#X#X#X#X#X#X#X#X#X#X#X#X#X#X. KX  UXUX1 . #X#X#X#X#X#X#X#X#X#X#X#X#X#X#X#X#X#X#X#X#X#X#X@X+Xf t s t 9 x +X#X#X#X#X#X#X#X#X#X#X#X#X#X",
"#X#X#X#X#X#X#X#X#X#X#X#X#X#X#X#X#X#X#X#X#X#X#X#X#X#X#X#X#X#X#X#X#X#X#X#X#X#X#X#X#X#X#X#X#X#X#X#X#X#X#X#X#X#X#X#X#X#X#X#X#X#X#X#X#X#X#X#X#XAX< =X%X&X%X%X=X=X%X%X=X< AX#X#X#X#X#X#X#X#X#X#X#X#X#X#X#X#X#X#X#X#X#X#X#X#X#X#X#X#X#X#X#X#X#X#X#X#X#X#X#X#X#X#X#X#X#X#X#X#X#X#X#X#X#X_ iXwXeXdXeXeXeXeXeXeXsXsXqX3X2X4XkXpXsXsXsXfXsXqXuXxXfXzXdXD ).#X#X#X#X#X#X#X#X#X#X#X#X#X#X#X#X#X#X#X#X#X#X#X#X#X#X#X#X#X#X#X#X#X#X#X#X#X#X#X#X#X#X#X#X#X#X#X#X#X#X#X#X#X#X#X#X#X#X#X#X#X#X#X#X#X#X#X#X#X#X#X#X#X#X#X#X#X#X#X#X#X#X#X#X#X#X#X#X#X#X#X#X#X#X#X#X#X#X#X#X#X#X#X#X#X#X#X#X#X#X#X#X#X#X#X#X#X#X#X#X#X#X#X#X#X#X#X#X#X#X#X#X#X#X#X#X#X#X#X#X#X#X#X#X#X#X#X#X#X#X#X#X#X#X#X#X#X#X#X#X#X#X#X#X#X#X#X#X#X#X#X#X#X#X#X#X#X#X#X. [.          UXPX6Xh k .X1X. . +X#XSX#X#X#X#X#X#X#X#X#X#X#X#X#X#X#X#X#X#X#X. <X                                LX@XZX#X#X#X#X#X#X#X#X#X#X#X. [.    IX$X+X#X#X#X#X#X#X#X#X#X#X#X#X#X#X#X#X#X#X#X#X#X#X#X. 1       oX. #X#X#X#X#X#X#X#X#X#X#X#X#X#X#X#X#X#X#X. . KXh PX                          6X<Xd s 9 9 t i f v #X+X+X X#X#X#X#X#X#X#X#X#X+X$XPX  6X).. SX#X#X#X#X#X#X#X#X#X#X#X#X#X#X#X#X#X#X#X#X#X#X#X#X. KX      ;X. #X#X#X#X#X#X#X#X#X#X#X#X#X#X#X#X#X#X#X#X#X#X#X#X X+Xp t s t t 8 +XSX#X#X#X#X#X#X#X#X#X#X#X",
"#X#X#X#X#X#X#X#X#X#X#X#X#X#X#X#X#X#X#X#X#X#X#X#X#X#X#X#X#X#X#X#X#X#X#X#X#X#X#X#X#X#X#X#X#X#X#X#X#X#X#X#X#X#X#X#X#X#X#X#X#X#X#X#X#X#X#X#X#X#X< *X%X&X%X%X&X&X%X%X=XAXAX#X#X#X#X#X#X#X#X#X#X#X#X#X#X#X#X#X#X#X#X#X#X#X#X#X#X#X#X#X#X#X#X#X#X#X#X#X#X#X#X#X#X#X#X#X#X#X#X#X#X#X#X#XD yXwXdXeXeXeXeXeX2X2XwX3X3X3X2XpXkXlXpXsXsXsXsXsXqXxXfXzXgXVXAX#X#X#X#X#X#X#X#X#X#X#X#X#X#X#X#X#X#X#X#X#X#X#X#X#X#X#X#X#X#X#X#X#X#X#X#X#X#X#X#X#X#X#X#X#X#X#X#X#X#X#X#X#X#X#X#X#X#X#X#X#X#X#X#X#X#X#X#X#X#X#X#X#X#X#X#X#X#X#X#X#X#X#X#X#X#X#X#X#X#X#X#X#X#X#X#X#X#X#X#X#X#X#X#X#X#X#X#X#X#X#X#X#X#X#X#X#X#X#X#X#X#X#X#X#X#X#X#X#X#X#X#X#X#X#X#X#X#X#X#X#X#X#X#X#X#X#X#X#X#X#X#X#X#X#X#X#X#X#X#X#X#X#X#X#X#X#X#X#X#X#X#X#X#X#X#X#X#X#X. l                       IX9Xy #X. +X#XSX#X#X#X#X#X#X#X#X#X#X#X#X#X#X#X#X#X. y                                 IX@XBX#X#X#X#X#X#X#X#X#X#XAX. l     LX$X+X#X#X#X#X#X#X#X#X#X#X#X#X#X#X#X#X#X#X#X#X#X#X#X. .X      JX. #X#X#X#X#X#X#X#X#X#X#X#X#X#X#X#XSXBX. XX9X                IXPX  UX              w i j v @X+X+X7X#X#X#X#X#X#X#X#X#X#X#X#X+X$XPX    8XZX. mX_.#X#X#X#X#X#X#X#X#X#X#X#X#X#X#X#X#X#X#X#X#X#X. KX      1 . #X#X#X#X#X#X#X#X#X#X#X#X#X#X#X#X#X#X#X#X#X#X#X#XSX+Xe t s s t d +X#X#X#X#X#X#X#X#X#X#X#X#X",
"#X#X#X#X#X#X#X#X#X#X#X#X#X#X#X#X#X#X#X#X#X#X#X#X#X#X#X#X#X#X#X#X#X#X#X#X#X#X#X#X#X#X#X#X#X#X#X#X#X#X#X#X#X#X#X#X#X#X#X#X#X#X#X#X#X#X#X#X#X#X< *X%X&X&X%X%X:X%X%X&XAXAX#X#X#X#X#X#X#X#X#X#X#X#X#X#X#X#X#X#X#X#X#X#X#X#X#X#X#X#X#X#X#X#X#X#X#X#X#X#X#X#X#X#X#X#X#X#X#X#X#X#X#X#X#X#X_ iXsXeXeX2X2X%X3XkXpXqX4X3X3X0XpXlXkXsXsXfXfXsXsXfXzXzXgX#X).#X#X#X#X#X#X#X#X#X#X#X#X#X#X#X#X#X#X#X#X#X#X#X#X#X#X#X#X#X#X#X#X#X#X#X#X#X#X#X#X#X#X#X#X#X#X#X#X#X#X#X#X#X#X#X#X#X#X#X#X#X#X#X#X#X#X#X#X#X#X#X#X#X#X#X#X#X#X#X#X#X#X#X#X#X#X#X#X#X#X#X#X#X#X#X#X#X#X#X#X#X#X#X#X#X#X#X#X#X#X#X#X#X#X#X#X#X#X#X#X#X#X#X#X#X#X#X#X#X#X#X#X#X#X#X#X#X#X#X#X#X#X#X#X#X#X#X#X#X#X#X#X#X#X#X#X#X#X#X#X#X#X#X#X#X#X#X#X#X#X#X#X#X#X#X#X#X#X#X. k       PXLXPXIX              LXy @X. #X#X#X#X#X#X#X#X#X#X#X#X#X#X#X#X#X#XCX<X      '.[.[.[.[.[.[.[.[.[.[.[.h k #X@X#X#X#X#X#X#X#X#X#X#X#X. l     LX$X+X#X#X#X#X#X#X#X#X#X#X#X#X#X#X#X#X#X#X#X#X#X#X#X. u       JX. #X#X#X#X#X#X#X#X#X#X#X#X#X#XSX_.. . k           ; 9Xk 1 XX(.#X}.JXH w -         UX8X$X. +XmX#X#X#X#X#X#X#X#X#X#X#X#X#X#X+X$XPX      6X).. #X#X#X#X#X#X#X#X#X#X#X#X#X#X#X#X#X#X#X#X#X#X#X. KX      1 . #X#X#X#X#X#X#X#X#X#X#X#X#X#X#X#X#X#X#X#X#X#X#X#X#X7X#Xi t s t s 5  X#X#X#X#X#X#X#X#X#X#X#X",
"#X#X#X#X#X#X#X#X#X#X#X#X#X#X#X#X#X#X#X#X#X#X#X#X#X#X#X#X#X#X#X#X#X#X#X#X#X#X#X#X#X#X#X#X#X#X#X#X#X#X#X#X#X#X#X#X#X#X#X#X#X#X#X#X#X#X#X#X#X#X< *X&X%X&X%X%X&X%X%X&X}.< #X#X#X#X#X#X#X#X#X#X#X#X#X#X#X#X#X#X#X#X#X#X#X#X#X#X#X#X#X#X#X#X#X#X#X#X#X#X#X#X#X#X#X#X#X#X#X#X#X#X#XAXD )._ iXwXeX2X2X2X2X4XkXkXuX4X4X4X3XuXlXlXfXsXsXsXsXsXfXxXzXfX1X7 #X#X#X#X#X#X#X#X#X#X#X#X#X#X#X#X#X#X#X#X#X#X#X#X#X#X#X#X#X#X#X#X#X#X#X#X#X#X#X#X#X#X#X#X#X#X#X#X#X#X#X#X#X#X#X#X#X#X#X#X#X#X#X#X#X#X#X#X#X#X#X#X#X#X#X#X#X#X#X#X#X#X#X#X#X#X#X#X#X#X#X#X#X#X#X#X#X#X#X#X#X#X#X#X#X#X#X#X#X#X#X#X#X#X#X#X#X#X#X#X#X#X#X#X#X#X#X#X#X#X#X#X#X#X#X#X#X#X#X#X#X#X#X#X#X#X#X#X#X#X#X#X#X#X#X#X#X#X#X#X#X#X#X#X#X#X#X#X#X#X#X#X#X#X#X#X#X#X#X. l       .XZX$X1XHXKX<X'.IX        8XGX. #XSX#X#X#X#X#X#X#X#X#X#X#X#X#X#X#X. y       AX. . CXCXCXCXCXCXCXCX. . . #XSX#X#X#X#X#X#X#X#X#X#X#XCXl     LXSX+X#X#X#X#X#X#X#X#X#X#X#X#X#X#X#X#X#X#X#X#X#X#X#X. .X      JX. #X#X#X#X#X#X#X#X#X#X#X#X#X#X#X. #X9X        LX<XDX. CX. . . < j p s t t p '.          y . ZX_.#X#X#X#X#X#X#X#X#X#X#X#X#X+X$XPX        8XZX. SX#X#X#X#X#X#X#X#X#X#X#X#X#X#X#X#X#X#X#X#X#X. KX      1 . #X#X#X#X#X#X#X#X#X#X#X#X#X#X#X#X#X#X#X#X#X#X#X#X#X#X+Xd t s s t g +X#X#X#X#X#X#X#X#X#X#X#X",
"#X#X#X#X#X#X#X#X#X#X#X#X#X#X#X#X#X#X#X#X#X#X#X#X#X#X#X#X#X#X#X#X#X#X#X#X#X#X#X#X#X#X#X#X#X#X#X#X#X#X#X#X#X#X#X#X#X#X#X#X#X#X#X#X#X#X#X#X#X#X< $X&X&X&X&X%X%X&X%X%X*X< #X#X#X#X#X#X#X#X#X#X#X#X#X#X#X#X#X#X#X#X#X#X#X#X#X#X#X#X#X#X#X#X#X#X#X#X#X#X#X#X#X#X#X#X#X#X#X#X#XD D #X$XD iXsXeX2X2X2X2XeX}.dXkXfXuXuXqX4XpXlXvXnXqXsXfXqXsXsXfXfXzXaX_ #X#X#X#X#X#X#X#X#X#X#X#X#X#X#X#X#X#X#X#X#X#X#X#X#X#X#X#X#X#X#X#X#X#X#X#X#X#X#X#X#X#X#X#X#X#X#X#X#X#X#X#X#X#X#X#X#X#X#X#X#X#X#X#X#X#X#X#X#X#X#X#X#X#X#X#X#X#X#X#X#X#X#X#X#X#X#X#X#X#X#X#X#X#X#X#X#X#X#X#X#X#X#X#X#X#X#X#X#X#X#X#X#X#X#X#X#X#X#X#X#X#X#X#X#X#X#X#X#X#X#X#X#X#X#X#X#X#X#X#X#X#X#X#X#X#X#X#X#X#X#X#X#X#X#X#X#X#X#X#X#X#X#X#X#X#X#X#X#X#X#X#X#X#X#X#X#X#X#X. l       HX. +XCX. . . . DX<X^.      |.HX. #X#X#X#X#X#X#X#X#X#X#X#X#X#X#X#X. <X      OX. AXAXAXAXAXAXAXAXAXAX#X#X#X#X#X#X#X#X#X#X#X#X#X#X#X. l     LX$X+X#X#X#X#X#X#X#X#X#X#X#X#X#X#X#X#X#X#X#X#X#X#X#X. u       JX. #X#X#X#X#X#X#X#X#X#X#X#X#X#X. DXLX        l AX. . @X+X Xv f t 9 9 s d v +X. oX6X        k . ZX_.#X#X#X#X#X#X#X#X#X#X#X#X+X$XPX          6X).. SX#X#X#X#X#X#X#X#X#X#X#X#X#X#X#X#X#X#X#X#X. KX      1 . #X#X#X#X#X#X#X#X#X#X#X#X#X#X#X#X#X#X#X#X#X#X#X#X#X#X+Xg t s s t d  XAX#X#X#X#X#X#X#X#X#X#X",
"#X#X#X#X#X#X#X#X#X#X#X#X#X#X#X#X#X#X#X#X#X#X#X#X#X#X#X#X#X#X#X#X#X#X#X#X#X#X#X#X#X#X#X#X#X#X#X#X#X#X#X#X#X#X#X#X#X#X#X#X#X#X#X#X#X#X#X#X#X#XAXAX=X%X%X&X%X%X%X%X%X*X< AX#X#X#X#X#X#X#X#X#X#X#X#X#X#X#X#X#X#X#X#X#X#X#X#X#X#X#X#X#X#X#X#X#X#X#X#X#X#X#X#X#X#X#X#XmXAXD _ SXiXdXeXrXsXsXeXeX2X2XrX]._ dXqXwX4X4XfXpXlXlXnXxXuX0X0X0X4XfXxXzXzXaX_ #X#X#X#X#X#X#X#X#X#X#X#X#X#X#X#X#X#X#X#X#X#X#X#X#X#X#X#X#X#X#X#X#X#X#X#X#X#X#X#X#X#X#X#X#X#X#X#X#X#X#X#X#X#X#X#X#X#X#X#X#X#X#X#X#X#X#X#X#X#X#X#X#X#X#X#X#X#X#X#X#X#X#X#X#X#X#X#X#X#X#X#X#X#X#X#X#X#X#X#X#X#X#X#X#X#X#X#X#X#X#X#X#X#X#X#X#X#X#X#X#X#X#X#X#X#X#X#X#X#X#X#X#X#X#X#X#X#X#X#X#X#X#X#X#X#X#X#X#X#X#X#X#X#X#X#X#X#X#X#X#X#X#X#X#X#X#X#X#X#X#X#X#X#X#X#X#X#X#X. k       oX. #X#X#X#X#XAX. . @ 8X      IXSXCX#X#X#X#X#X#X#X#X#X#X#X#X#X#X#X. y       GX. #X#X#X#X#X#X#X#X#X#X#X#X#X#X#X#X#X#X#X#X#X#X#X#XAX. l     LX$X+X#X#X#X#X#X#X#X#X#X#X#X#X#X#X#X#X#X#X#X#X#X#X#X. .X      JX. #X#X#X#X#X#X#X#X#X#X#X#XSX. SXPX      IXHX. +X@X+X+Xv p t 9 9 i g 5 CX+X@XAX. . l         l . @X#X#X#X#X#X#X#X#X#X#X#X#XCX$XPX            8XZX. mX_.#X#X#X#X#X#X#X#X#X#X#X#X#X#X#X#X#X#X. KX      1 +X#X#X#X#X#X#X#X#X#X#X#X#X#X#X#X#X#X#X#X#X#X#X#X#X#X#X+Xg t s s t i #X@X#X#X#X#X#X#X#X#X#X#X",
"#X#X#X#X#X#X#X#X#X#X#X#X#X#X#X#X#X#X#X#X#X#X#X#X#X#X#X#X#X#X#X#X#X#X#X#X#X#X#X#X#X#X#X#X#X#X#X#X#X#X#X#X#X#X#X#X#X#X#X#X#X#X#X#X#X#X#X#X#X#X#X< =X&X&X&X&X%X&X%X%XyX7 _.#X#X#X#X#X#X#X#X#X#X#X#X#X#X#X#X#X#X#X#X#X#X#X#X#X#X#X#X#X#X#X#X#X#X#X#X#X#X#X#X#X#X#XmX).D 1XyXrXwXeX2XwXwXsXeX3X3X*XCX_ hXsXeXsX3X3XfXzXfXpXzXnXxXuX0X4X4XpXxXfXzXaX_ #X#X#X#X#X#X#X#X#X#X#X#X#X#X#X#X#X#X#X#X#X#X#X#X#X#X#X#X#X#X#X#X#X#X#X#X#X#X#X#X#X#X#X#X#X#X#X#X#X#X#X#X#X#X#X#X#X#X#X#X#X#X#X#X#X#X#X#X#X#X#X#X#X#X#X#X#X#X#X#X#X#X#X#X#X#X#X#X#X#X#X#X#X#X#X#X#X#X#X#X#X#X#X#X#X#X#X#X#X#X#X#X#X#X#X#X#X#X#X#X#X#X#X#X#X#X#X#X#X#X#X#X#X#X#X#X#X#X#X#X#X#X#X#X#X#X#X#X#X#X#X#X#X#X#X#X#X#X#X#X#X#X#X#X#X#X#X#X#X#X#X#X#X#X#X#X#X#X#X. l       KX. #X#X#X#X#X#X#X#X. DXIX      [.. #X#X#X#X#X#X#X#X#X#X#X#X#X#X#XCX<X      GX. #X#X#X#X#X#X#X#X#X#X#X#X#X#X#X#X#X#X#X#X#X#X#X#X#X. l     LX$X+X#X#X#X#X#X#X#X#X#X#X#X#X#X#X#X#X#X#X#X#X#X#X#X. u       JX. #X#X#X#X#X#X#X#X#X#X#XSXCXZX8X      8XFX. 7X+X@Xe d t 9 t p j #X+X+X#X#X#X#X_.+X. y         y . AX#X#X#X#X#X#X#X#X#X#X#X+X$XPX    '.8X      6X_.. #X#X#X#X#X#X#X#X#X#X#X#X#X#X#X#X#X#X#X. KX      1 . #X#X#X#X#X#X#X#X#X#X#X#X#X#X#X#X#X#X#X#X#X#X#X#X#X#X+Xf t s s t i SX7X#X#X#X#X#X#X#X#X#X#X",
"#X#X#X#X#X#X#X#X#X#X#X#X#X#X#X#X#X#X#X#X#X#X#X#X#X#X#X#X#X#X#X#X#X#X#X#X#X#X#X#X#X#X#X#X#X#X#X#X#X#X#X#X#X#X#X#X#X#X#X#X#X#X#X#X#X#X#X#X#X#X#X< =X=X&X%X&X%X:X%X%X*X< #X#X#X#X#X#X#X#X#X#X#X#X#X#X#X#X#X#X#X#X#X#X#X#X#X#X#X#X#X#X#X#X#X#X#X#X#X#X#X#X#X#X#X#XD _ tXwXwXwXeX2X2X2XwXsXsXqXwXtXaXhXfXrXdXfXfXqXqXsXsXxXzXgXgXxX0X0X0XpXzXxXzXaX_ #X#X#X#X#X#X#X#X#X#X#X#X#X#X#X#X#X#X#X#X#X#X#X#X#X#X#X#X#X#X#X#X#X#X#X#X#X#X#X#X#X#X#X#X#X#X#X#X#X#X#X#X#X#X#X#X#X#X#X#X#X#X#X#X#X#X#X#X#X#X#X#X#X#X#X#X#X#X#X#X#X#X#X#X#X#X#X#X#X#X#X#X#X#X#X#X#X#X#X#X#X#X#X#X#X#X#X#X#X#X#X#X#X#X#X#X#X#X#X#X#X#X#X#X#X#X#X#X#X#X#X#X#X#X#X#X#X#X#X#X#X#X#X#X#X#X#X#X#X#X#X#X#X#X#X#X#X#X#X#X#X#X#X#X#X#X#X#X#X#X#X#X#X#X#X#X#X#X#X. k       oX. #X#X#X#X#X#X#X#X#X. l       ; $XCX#X#X#X#X#X#X#X#X#X#X#X#X#X#X. y       GX. #X#X#X#X#X#X#X#X#X#X#X#X#X#X#X#X#X#X#X#X#X#X#X#X#XCXl     LXSX+X#X#X#X#X#X#X#X#X#X#X#X#X#X#X#X#X#X#X#X#X#X#X#X. .X      JX. #X#X#X#X#X#X#X#X#X#X#X@X. '.      LX).. +X Xx i 9 9 t d N +X+X7X#X#X#X#X#X#X#X#X@XCXy         KX. SX#X#X#X#X#X#X#X#X#X#X+X$XPX    ;X).IX      LXZX. SX#X#X#X#X#X#X#X#X#X#X#X#X#X#X#X#X#X. KX      1 . #X#X#X#X#X#X#X#X#X#X#X#X#X#X#X#X#X#X#X#X#X#X#X#X#X@X@Xp t s s t i _.@X#X#X#X#X#X#X#X#X#X#X",
"#X#X#X#X#X#X#X#X#X#X#X#X#X#X#X#X#X#X#X#X#X#X#X#X#X#X#X#X#X#X#X#X#X#X#X#X#X#X#X#X#X#X#X#X#X#X#X#X#X#X#X#X#X#X#X#X#X#X#X#X#X#X#X#X#X#X#X#X#X#XAX< *X&X=X%X&X&X%X%X%X*X< #X#X#X#X#X#X#X#X#X#X#X#X#X#X#X#X#X#X#X#X#X#X#X#X#X#X#X#X#X#X#X#X#X#X#X#X#X#X#X#X#X#X#XAX).jXeX2XeXeX3X2X2X2XwXsXfXhXhX4X3XfXsXeXsXsXsXfXuX0X0XqXqXuXuXuX0X4XuXuXzXxXkXjXCX#X#X#X#X#X#X#X#X#X#X#X#X#X#X#X#X#X#X#X#X#X#X#X#X#X#X#X#X#XmXD _ _ _ D SX#X#X#X#X#X#X#X#X#X#X#X#X#X#X#X#X#X#X#X#X#X#X#X#X#X#X#X#X#X#X#X#X#X#X#X#X#X#X#X#X#X#X#X#X#X#X#X#X#X#X#X#X#X#X#X#X#X#X#X#X#X#X#X#X#X#X#X#X#X#X#X#X#X#X#X#X#X#X#X#X#X#X#X#X#X#X#X#X#X#X#X#X#X#X#X#X#X#X#X#X#X#X#X#X#X#X#X#X#X#X#X#X#X#X#X#X#X#X#X#X#X#X#X#X#X#X#X#X#X#X#X#X#X#X#X#X#X#X#X#X#X#X#X. l       KX. #X#X#X#X#X#X#X#X#X. KX        KX. #X#X#X#X#X#X#X#X#X#X#X#X#X#X. <X      GX. #X#X#X#X#X#X#X#X#X#X#X% #X#X#X#X#X#X#X#X#X#X#X#X#X. l     LX$X+X#X#X#X#X#X#X#X#X#X#X#X#X#X#X#X#X#X#X#X#X#X#X#X. u       JX. #X#X#X#X#X#X#X#X#X#X#X. ;X      UXOX.  Xe p 9 9 t d N +X+X@X#X#X#X#X#X#X#X#X#X#X_.@X. [.      LX+XZX#X#X#X#X#X#X#X#X#X#X+X$XPX    l . GXIX      6X@X. SX#X#X#X#X#X#X#X#X#X#X#X#X#X#X#X#X. KX      1 . #X#X#X#X#X#X#X#X#X#X#X#X#X#X#X#X#X#X#X#X#X#X#X#X#X X5 s t s s t i mX7X#X#X#X#X#X#X#X#X#X#X",
"#X#X#X#X#X#X#X#X#X#X#X#X#X#X#X#X#X#X#X#X#X#X#X#X#X#X#X#X#X#X#X#X#X#X#X#X#X#X#X#X#X#X#X#X#X#X#X#X#X#X#X#X#X#X#X#X#X#X#X#X#X#X#X#X#X#X#X#X#X#X#XAXAX&X=X=X%X&X%X%X%X*X< #X#X#X#X#X#X#X#X#X#X#X#X#X#X#X#X#X#X#X#X#X#X#X#X#X#X#X#X#X#X#X#X#X#X#X#X#X#X#X#X#X#XAX).tXqXeXsXsXdXdXsXsXsXeXsXgXeXeXsXwXqXsX3X4XsXfXxXxXzXpX0X0X0X0X0XuXsXsXdXsXzXzXgXo _ _ AX#X#X#X#X#X#X#X#X#X#X#X#X#X#X#X#X#X#X#X#X#X#X#X#XmX)._ SXiXtXtX$X).#X#X#X#X#X#X#X#X#X#X#X#X#X#X#X#X#X#X#X#X#X#X#X#X#X#X#X#X#X#X#X#X#X#X#X#X#X#X#X#X#X#X#X#X#X#X#X#X#X#X#X#X#X#X#X#X#X#X#X#X#X#X#X#X#X#X#X#X#X#X#X#X#X#X#X#X#X#X#X#X#X#X#X#X#X#X#X#X#X#X#X#X#X#X#X#X#X#X#X#X#X#X#X#X#X#X#X#X#X#X#X#X#X#X#X#X#X#X#X#X#X#X#X#X#X#X#X#X#X#X#X#X#X#X#X#X#X#X#X#X#X#X#X. l       oX. #X#X#X#X#X#X#X#X#X. oX        A . #X#X#X#X#X#X#X#X#X#X#X#X#X#X. y       GX. #X#X#X#X#X#X#X#X#X#X#X#X#X#X#X#X#X#X#X#X#X#X#X#XAX. l     LX$X+X#X#X#X#X#X#X#X#X#X#X#X#X#X#X#X#X#X#X#X#X#X#X#X. .X      JX. #X#X#X#X#X#X#X#X#X#XZX+XLX      .X. n p 9 9 t f ` +X+X#X#X#X#X#X#X#X#X#X#X#X#X#X#XmX+X. 8X      <X. #X#X#X#X#X#X#X#X#X#X+X$XPX    l . . OXIX      8XZX. mX_.#X#X#X#X#X#X#X#X#X#X#X#X#X#X. KX      1 +X#X#X#X#X#X#X#X#X#X#X#X#X#X#X#X#X#X#X#X#X#X#X#X#XSX+Xj t s s s t p @X@X#X#X#X#X#X#X#X#X#X#X",
"#X#X#X#X#X#X#X#X#X#X#X#X#X#X#X#X#X#X#X#X#X#X#X#X#X#X#X#X#X#X#X#X#X#X#X#X#X#X#X#X#X#X#X#X#X#X#X#X#X#X#X#X#X#X#X#X#X#X#X#X#X#X#X#X#X#X#X#X#X#X#X#X< =X=X=X%X&X&X%X%X*X< AX#X#X#X#X#X#X#X#X#X#X#X#X#X#X#X#X#X#X#X#X#X#X#X#X#X#X#X#X#X#X#X#X#X#X#X#X#X#X#X#XmX_ yXdXeXwXsXsXeXrXeXdXeXgXsXsXsXsXsXsXqXqXqX4X3X4XqXxXxXzXfXsXgXuXpXdXdXwXeXeXzXxXfXsXhXjXAX).D D #XmX#X#X#X#X#X#X#X#X#XAXD D _ _ D #XmX#XAX_ D iXeXqXqX0XrX_ AX#X#X#X#X#X#X#X#X#X#X#X#X#X#X#X#X#X#X#X#X#X#X#X#X#X#X#X#X#X#X#X#X#X#X#X#X#X#X#X#X#X#X#X#X#X#X#X#X#X#X#X#X#X#X#X#X#X#X#X#X#X#X#X#X#X#X#X#X#X#X#X#X#X#X#X#X#X#X#X#X#X#X#X#X#X#X#X#X#X#X#X#X#X#X#X#X#X#X#X#X#X#X#X#X#X#X#X#X#X#X#X#X#X#X#X#X#X#X#X#X#X#X#X#X#X#X#X#X#X#X#X#X#X#X#X#X#X#X#X#X#X#X. k       KX. #X#X#X#X#X#X#X#X#X. 1         .X. #X#X#X#X#X#X#X#X#X#X#X#X#X#XCX<X      GX. #X#X#X#X#X#X#X#X#X#X#X#X#X#X#X#X#X#X#X#X#X#X#X#X#X. l     LX$X+X#X#X#X#X#X#X#X#X#X#X#X#X#X#X#X#X#X#X#X#X#X#X#X. u       JX. #X#X#X#X#X#X#X#X#XmX. A       '.+Xg t 9 t d n +X+X#X#X#X#X#X#X#X#X#X#X#X#X#X#X#X#X#X_.. oX      IX#X+X#X#X#X#X#X#X#X#X#X+X$XPX    l . #X. GXIX      6X).. #X#X#X#X#X#X#X#X#X#X#X#X#X#X#X. KX      1 . #X#X#X#X#X#X#X#X#X#X#X#X#X#X#X#X#X#X#X#X#X#X#X% @X Xi t s s s t d +X#X#X#X#X#X#X#X#X#X#X#X",
"#X#X#X#X#X#X#X#X#X#X#X#X#X#X#X#X#X#X#X#X#X#X#X#X#X#X#X#X#X#X#X#X#X#X#X#X#X#X#X#X#X#X#X#X#X#X#X#X#X#X#X#X#X#X#X#X#X#X#X#X#X#X#X#X#X#X#X#X#X#X#XAX< *X%X=X%X&X&X%X%X*X< #X#X#X#X#X#X#X#X#X#X#X#X#X#X#X#X#X#X#X#X#X#X#X#X#X#X#X#X#X#X#X#X#X#X#X#X#X#X#XAXAX_._ tXqXeXwXdXgXqXwXiXiXsXsXsXsXsXfXfXsXwXqXnXuX4X4X4XuXfXxXdXgXsXfXxXgXwX2X2XwXnXnXsXqXuXuXaX_ 1Xo _ ).SX#X#X#X#X#XmXD _ D $XyXiXaXmX_ D D _ iXdXqXqXwXeXwXwXyX_ mX#X#X#X#X#X#X#X#X#X#X#X#X#X#X#X#X#X#X#X#X#X#X#X#X#X#X#X#X#X#X#X#X#X#X#X#X#X#X#X#X#X#X#X#X#X#X#X#X#X#X#X#X#X#X#X#X#X#X#X#X#X#X#X#X#X#X#X#X#X#X#X#X#X#X#X#X#X#X#X#X#X#X#X#X#X#X#X#X#X#X#X#X#X#X#X#X#X#X#X#X#X#X#X#X#X#X#X#X#X#X#X#X#X#X#X#X#X#X#X#X#X#X#X#X#X#X#X#X#X#X#X#X#X#X#X#X#X#X#X#X#X. l       oX. #X#X#X#X#X#X#X#X#X. l       UXFXCX#X#X#X#X#X#X#X#X#X#X#X#X#X#X. y       GX. #X#X#X#X#X#X#X#X#X#X#X#X#X#X#X#X#X#X#X#X#X#X#X#X#XCXl     LXSX+X#X#X#X#X#X#X#X#X#X#X#X#X#X#X#X#X#X#X#X#X#X#X#X. .X      JX. #X#X#X#X#X#X#X#X#X@X. 6X      g.i 9 9 p n +X+X#X#X#X#X#X#X#X#X#X#X#X#X#X#X#X#X#X#X#X#X@X. '.      y . _.#X#X#X#X#X#X#X#X+X$XPX    l . #X#X. GXIX      8XZX. SX#X#X#X#X#X#X#X#X#X#X#X#X#X. KX      1 . #X#X#X#X#X#X#X#X#X#X#X#X#X#X#X#X#X#X#X#X#X#X#X#X+Xj t s s s s t j +X#X#X#X#X#X#X#X#X#X#X#X",
"#X#X#X#X#X#X#X#X#X#X#X#X#X#X#X#X#X#X#X#X#X#X#X#X#X#X#X#X#X#X#X#X#X#X#X#X#X#X#X#X#X#X#X#X#X#X#X#X#X#X#X#X#X#X#X#X#X#X#X#X#X#X#X#X#X#X#X#X#X#X#X#XAX< &X=X&X%X&X&X%X*X< #X#X#X#X#X#X#X#X#X#X#X#X#X#X#X#X#X#X#X#X#X#X#X#X#X#X#X#X#X#X#X#X#X#X#X#X#XAXD D D _ < eXwX2XeXfXsXwXeXeXeXqXqXeX2X3XsXdXwXeX2XfXkXpXuX4X4XuXzXzXfXdXsXsXsX3X2X3XpXzXnXqX4XqXqXdXhXwXwXtXD D mX#X#X#X#X).AXtXdXeXsXsXfXsXjX).$XdXfXqXsXeXeXeXeXqXrXD AX% #X#X#X#X#X#X#X#X#X#X#X#X#X#X#X#X#X#X#X#X#X#X#X#X#X#X#X#X#X#X#X#X#X#X#X#X#X#X#X#X#X#X#X#X#X#X#X#X#X#X#X#X#X#X#X#X#X#X#X#X#X#X#X#X#X#X#X#X#X#X#X#X#X#X#X#X#X#X#X#X#X#X#X#X#X#X#X#X#X#X#X#X#X#X#X#X#X#X#X#X#X#X#X#X#X#X#X#X#X#X#X#X#X#X#X#X#X#X#X#X#X#X#X#X#X#X#X#X#X#X#X#X#X#X#X#X#X#X#X#X. l       KX. #X#X#X#X#X#X#X#XZX+X8X      6XCX@X#X#X#X#X#X#X#X#X#X#X#X#X#X#X. <X      GX. #X#X#X#X#X#X#X#X#X#X#X#X#X#X#X#X#X#X#X#X#X#X#X#X#X. l     LX$X+X#X#X#X#X#X#X#X#X#X#X#X#X#X#X#X#X#X#X#X#X#X#X#X. u       JX. #X#X#X#X#X#X#X#X#X. XX      J t 9 i x  X+X#X#X#X#X#X#X#X#X#X#X#X#X#X#X#X#X#X#X#X#X#X#X_.. oX      '.. AX#X#X#X#X#X#X#X#X+X$XPX    l . #X#X#X. HX        6X@X. SX#X#X#X#X#X#X#X#X#X#X#X#X. KX      1 . #X#X#X#X#X#X#X#X#X#X#X#X#X#X#X#X#X#X#X#X#X#X#X X#Xs t s s s t s SX X#X#X#X#X#X#X#X#X#X#X#X",
"#X#X#X#X#X#X#X#X#X#X#X#X#X#X#X#X#X#X#X#X#X#X#X#X#X#X#X#X#X#X#X#X#X#X#X#X#X#X#X#X#X#X#X#X#X#X#X#X#X#X#X#X#X#X#X#X#X#X#X#X#X#X#X#X#X#X#X#X#X#X#X#X#X< =X&X&X%X&X&X&X}.< #X#X#X#X#X#X#X#X#X#X#X#X#X#X#X#X#X#X#X#X#X#X#X#X#X#X#X#X#X#X#X#X#X#X#X#X#XD iXrXrXiXtXqXwXeXsXfXsXwXeXeXeX2X3X3X2X3XdXeXsXeX2XuXkX0X0X4X0XfX<XgXgXdXsXeXwX2XqXkXkXxXnXuX4X4X4XqXfXqXwXqXrX_ ).#X#X#XD o rXwX3XwX2XwXqXfXsXdXsXqXwXwXeXwXeXwX3X3XwX1XD #X#X#X#X#X#X#X#X#X#X#X#X#X#X#X#X#X#X#X#X#X#X#X#X#X#X#X#X#X#X#X#X#X#X#X#X#X#X#X#X#X#X#X#X#X#X#X#X#X#X#X#X#X#X#X#X#X#X#X#X#X#X#X#X#X#X#X#X#X#X#X#X#X#X#X#X#X#X#X#X#X#X#X#X#X#X#X#X#X#X#X#X#X#X#X#X#X#X#X#X#X#X#X#X#X#X#X#X#X#X#X#X#X#X#X#X#X#X#X#X#X#X#X#X#X#X#X#X#X#X#X#X#X#X#X#X#X#X#X#X#X. k       oX. #X#X#X#X#X#X#X_.. 1         y . #X#X#X#X#X#X#X#X#X#X#X#X#X#X#X. y       GX. #X#X#X#X#X#X#X#X#X#X#X#X#X#X#X#X#X#X#X#X#X#X#X#XAX. l     LX$X+X#X#X#X#X#X#X#X#X#X#X#X#X#X#X#X#X#X#X#X#X#X#X#X. .X      JX. #X#X#X#X#X#X#X#XSX. <X      w s j @X+X@X#X#X#X#X#X#X#X#X#X#X#X#X#X#X#X#X#X#X#X#X#X#X#X#XBXZXLX    IX#X+X#X#X#X#X#X#X#X#XCX$XPX    l . #X#X#X#X. JXUX      8X@X. #X#X#X#X#X#X#X#X#X#X#X#X. KX      1 +X#X#X#X#X#X#X#X#X#X#X#X#X#X#X#X#X#X#X#X#X#XSXVX+Xf 9 s s s s 9 d +X#X#X#X#X#X#X#X#X#X#X#X#X",
"#X#X#X#X#X#X#X#X#X#X#X#X#X#X#X#X#X#X#X#X#X#X#X#X#X#X#X#X#X#X#X#X#X#X#X#X#X#X#X#X#X#X#X#X#X#X#X#X#X#X#X#X#X#X#X#X#X#X#X#X#X#X#X#X#X#X#X#X#X#X#X#X#X< }.&X=X&X%X&X&X#XAXAX#X#X#X#X#X#X#X#X#X#X#X#X#X#X#X#X#X#X#X#X#X#X#X#X#X#X#X#X#X#X#X#X#X#X% D yXrXwX3X4X4X3XeXeXpXxXsXsXjXeXwX2X2X2X2XsXsXfXeXeXeXqXzXqXuXkXlXnX<X<XsXqXwXqX3X3XsXzXnXzXkXiXeX4X4X4XsXsXeXwXqXtX_ AX_.#X_ $X3XwXeXwX3X3XwXgXsXfXsXwXeXeXeXwX2X3X2X4X4XiX_ #X#X#X#X#X#X#X#X#X#X#X#X#X#X#X#X#X#X#X#X#X#X#X#X#X#X#X#X#X#X#X#X#X#X#X#X#X#X#X#X#X#X#X#X#X#X#X#X#X#X#X#X#X#X#X#X#X#X#X#X#X#X#X#X#X#X#X#X#X#X#X#X#X#X#X#X#X#X#X#X#X#X#X#X#X#X#X#X#X#X#X#X#X#X#X#X#X#X#X#X#X#X#X#X#X#X#X#X#X#X#X#X#X#X#X#X#X#X#X#X#X#X#X#X#X#X#X#X#X#X#X#X#X#X#X#X#X#X#X#X#X. l       KX. #X#X#X#X#X#XSX. +XLX      LX+XZX#X#X#X#X#X#X#X#X#X#X#X#X#X#X#XCX<X      GX. #X#X#X#X#X#X#X#X#X#X#X#X#X#X#X#X#X#X#X#X#X#X#X#X#X. l     LX$X+X#X#X#X#X#X#X#X#X#X#X#X#X#X#X#X#X#X#X#X#X#X#X#X. u       JX. #X#X#X#X#X#XSX_.+X. 9X      d Z CX X#XmX#X#X#X#X#X#X#X#X#X#X#X#X#X#X#X#X#X#X#X#X#X#X#X#X#X. [.      KX. #X#X#X#X#X#X#X#X+X$XPX    l . #X#X#X#X#X. /.;       6XAX. SX#X#X#X#X#X#X#X#X#X#X. KX      1 . #X#X#X#X#X#X#X#X#X#X#X#X#X#X#X#X#X#X#X#X#X#X+Xx t s s s s t t a +X#X#X#X#X#X#X#X#X#X#X#X#X",
"#X#X#X#X#X#X#X#X#X#X#X#X#X#X#X#X#X#X#X#X#X#X#X#X#X#X#X#X#X#X#X#X#X#X#X#X#X#X#X#X#X#X#X#X#X#X#X#X#X#X#X#X#X#X#X#X#X#X#X#X#X#X#X#X#X#X#X#X#X#X#X#X#XAXAX&X=X&X%X%X=XAXAX#X#X#X#X#X#X#X#X#X#X#X#X#X#X#X#X#X#X#X#X#X#X#X#X#X#X#X#X#X#X#X#X#X#X#X#X_ tXwXeXwX2X2X3X2XqXkXuXfXeXdXwX2X2X2X3XqXxXsXsXrXrXwXeXeXsXeXfXMXMXMXgX0XqX4X3X4XfXgXxXzXlXkXZ tX4X3X4XqXsXsX2X4XeXD _ _ _ _ iXqXqXsXfXfXsXsXsXsXwXwXeXeXeXwX2XiXrX4X3X0XtX_ #X#X#X#X#X#X#X#X#X#X#X#X#X#X#X#X#X#X#X#X#X#X#X#X#X#X#X#X#X#X#X#X#X#X#X#X#X#X#X#X#X#X#X#X#X#X#X#X#X#X#X#X#X#X#X#X#X#X#X#X#X#X#X#X#X#X#X#X#X#X#X#X#X#X#X#X#X#X#X#X#X#X#X#X#X#X#X#X#X#X#X#X#X#X#X#X#X#X#X#X#X#X#X#X#X#X#X#X#X#X#X#X#X#X#X#X#X#X#X#X#X#X#X#X#X#X#X#X#X#X#X#X#X#X#X#X#X#X#X#X#X. k       oX. #X#X#X#X#X_.CX. '.        JX. mX#X#X#X#X#X#X#X#X#X#X#X#X#X#X#X. y       1X. +XZX+XZX+XZX+XZXBXZX#XSX#X#X#X#X#X#X#X#X#X#X#X#X#XCXl     LXSX+X#X#X#X#X#X#X#X#X#X#X#X#X#X#X#X#X#X#X#X#X#X#X#X. .X      JX. #X#X#X#X#X#X#X+XZXd ;     8XCXCX#XmX#X#X#X#X#X#X#X#X#X#X#X#X#X#X#X#X#X#X#X#X#X#X#X#X#X#X#XCX;X      <X. #X#X#X#X#X#X#X#X+X$XPX    l . #X#X#X#X#X#X. OXIX      8XZX. SX#X#X#X#X#X#X#X#X#X. KX      1 . #X#X#X#X#X#X#X#X#X#X#X#X#X#X#X#X#X#X#X#X#X+Xn t t s s s s t d +X#X#X#X#X#X#X#X#X#X#X#X#X#X",
"#X#X#X#X#X#X#X#X#X#X#X#X#X#X#X#X#X#X#X#X#X#X#X#X#X#X#X#X#X#X#X#X#X#X#X#X#X#X#X#X#X#X#X#X#X#X#X#X#X#X#X#X#X#X#X#X#X#X#X#X#X#X#X#X#X#X#X#X#X#X#X#X#XAX< =X%X&X&X%X=X< #X#X#X#X#X#X#X#X#X#X#X#X#X#X#X#X#X#X#X#X#X#X#X#X#X#X#X#X#X#X#X#X#X#X#X#X_._ tX4XwX3X2X2XeX0X0XgXqXqXeXwX2X2X3X4XuXgXrXsXeXrXrXwXeXeXsXsXsXfXMXnX<XpX4X3X4X4X0XqXqXkXlXzXSXwX0X3X4X4XwXwX3X3XdXAXyXtXtXrXsXsXsXsXsXgXgXsXsXwXeXeXeXwX2X2XyXZ eX0X4X0XrXD AX% #X#X#X#X#X#X#X#X#X#X#X#X#X#X#X#X#X#X#X#X#X#X#X#X#X#X#X#X#X#X#X#X#X#X#X#X#X#X#X#X#X#X#X#X#X#X#X#X#X#X#X#X#X#X#X#X#X#X#X#X#X#X#X#X#X#X#X#X#X#X#X#X#X#X#X#X#X#X#X#X#X#X#X#X#X#X#X#X#X#X#X#X#X#X#X#X#X#X#X#X#X#X#X#X#X#X#X#X#X#X#X#X#X#X#X#X#X#X#X#X#X#X#X#X#X#X#X#X#X#X#X#X#X#X#X#X#X#X#X. l       KX. #X#X#X_.mX. . [.        <X. #X_.#X#X#X#X#X#X#X#X#X#X#X#X#X#X#X. <X      GX. #X#X#X#X#X#X#X#X#X#X#X#X#X#X#X#X#X#X#X#X#X#X#X#X#X. l     LX$X+X#X#X#X#X#X#X#X#X#X#X#X#X#X#X#X#X#X#X#X#X#X#X#X. u       JX. #X#X#X#XSX@X+Xa i 9       9XCX).#X#X#X#X#X#X#X#X#X#X#X#X#X#X#X#X#X#X#X#X#X#X#X#X#X#X#X#X#X. JX      0 . AX#X#X#X#X#X#X#X+X$XPX    l . #X#X#X#X#X#X#X. GX;       6X@X. SX#X#X#X#X#X#X#X#X. KX      1 . #X#X#X#X#X#X#X#X#X#X#X#X#X#X#X#X#X#X#XmX+X_.s t s s s s t t n +X#X#X#X#X#X#X#X#X#X#X#X#X#X",
"#X#X#X#X#X#X#X#X#X#X#X#X#X#X#X#X#X#X#X#X#X#X#X#X#X#X#X#X#X#X#X#X#X#X#X#X#X#X#X#X#X#X#X#X#X#X#X#X#X#X#X#X#X#X#X#X#X#X#X#X#X#X#X#X#X#X#X#X#X#X#X#X#X#X< *X%X&X%X%X=X7 AX#X#X#X#X#X#X#X#X#X#X#X#X#X#X#X#X#X#X#X#X#X#X#X#X#X#X#X#X#X#X#X#X#X#X#X#XD mXeX3X2X2X3XuXkXqXhXsXsXeXwX2X2XqXfXsXdXrXdXeX2XwXwXeXwXwXsXsXsXsXfXxXzX0X0X0X0X0X0XuXkXlXgXCXtX4X4X3X3X4X4X4XwXeXeXdXsX4XwXeXeXsXsXxXsXfXsXwXeXeXwX2X2X3XqXgXuX4X3X4X0XtX_ #X#X#X#X#X#X#X#X#X#X#X#X#X#X#X#X#X#X#X#X#X#X#X#X#X#X#X#X#X#X#X#X#X#X#X#X#X#X#X#X#X#X#X#X#X#X#X#X#X#X#X#X#X#X#X#X#X#X#X#X#X#X#X#X#X#X#X#X#X#X#X#X#X#X#X#X#X#X#X#X#X#X#X#X#X#X#X#X#X#X#X#X#X#X#X#X#X#X#X#X#X#X#X#X#X#X#X#X#X#X#X#X#X#X#X#X#X#X#X#X#X#X#X#X#X#X#X#X#X#X#X#X#X#X#X#X#X#X#X#X#X. l       oX. #X#XSX@X. AX9X        l . @X#X#X#X#X#X#X#X#X#X#X#X#X#X#X#X#X#X. y       LXLXLXLXLXLXLXLXLXLXLX6XSX+X#X#X#X#X#X#X#X#X#X#X#X#XAX. l     LX$X+X#X#X#X#X#X#X#X#X#X#X#X#X#X#X#X#X#X#X#X#X#X#X#X. .X      JX. #X#X#XSX X+Xg t 9 s |.    '.. #X#X#X#X#X#X#X#X#X#X#X#X#X#X#X#X#X#X#X#X#X#X#X#X#X#X#X#X#X#X. OX      h . ).#X#X#X#X#X#X#X+X$XPX    l . #X#X#X#X#X#X#X#X. GXIX      8XZX. mX_.#X#X#X#X#X#X. KX      1 +X#X#X#X#X#X#X#X#X#X#X#X#X#X#X#X#X#X#XSX+XAXi t s s s s s t g +X#X#X#X#X#X#X#X#X#X#X#X#X#X#X",
"#X#X#X#X#X#X#X#X#X#X#X#X#X#X#X#X#X#X#X#X#X#X#X#X#X#X#X#X#X#X#X#X#X#X#X#X#X#X#X#X#X#X#X#X#X#X#X#X#X#X#X#X#X#X#X#X#X#X#X#X#X#X#X#X#X#X#X#X#X#X#X#X#X#X< *X&X%X&X%X%X}.< #X#X#X#X#X#X#X#X#X#X#X#X#X#X#X#X#X#X#X#X#X#X#X#X#X#X#X#X#X#X#X#X#X#X#X#XmX_ #XwXpXpXpXkXpXeXwXsXeXeX2X2X3XfXdXeXwX2XeX3X3XeXeXwXeXsXsXsXsXsXsXsXfXzXzXuXzXpX0X0XlXlXnX_ $XwX4X4X4XqXuXfXfXgXrXjXeXwXwXeXqXxXxXxXfXsXsXeXwX3X2X2XpXpXpXpXuXqX4X4XeX#XD #X#X#X#X#X#X#X#X#X#X#X#X#X#X#X#X#X#X#X#X#X#X#X#X#X#X#X#X#X#X#X#X#X#X#X#X#X#X#X#X#X#X#X#X#X#X#X#X#X#X#X#X#X#X#X#X#X#X#X#X#X#X#X#X#X#X#X#X#X#X#X#X#X#X#X#X#X#X#X#X#X#X#X#X#X#X#X#X#X#X#X#X#X#X#X#X#X#X#X#X#X#X#X#X#X#X#X#X#X#X#X#X#X#X#X#X#X#X#X#X#X#X#X#X#X#X#X#X#X#X#X#X#X#X#X#X#X#X#X#X#X. k       KX. #XmX+X. KXLXUX      <X. ZX#X#X#X#X#X#X#X#X#X#X#X#X#X#X#X#X#X#XCX<X                            UX_.+X#X#X#X#X#X#X#X#X#X#X#X#X#X. l     LX$X+X#X#X#X#X#X#X#X#X#X#X#X#X#X#X#X#X#X#X#X#X#X#X#X. u       JX. #X% #X+X Xd 9 9 g XX|.    '.. AX#X#X#X#X#X#X#X#X#X#X#X#X#X#X#X#X#X#X#X#X#X#X#X#X#X#X#X#X#XCXOX      '.. VX#X#X#X#X#X#X#X+X$XPX    l . #X#X#X#X#X#X#X#X#X. GX;       6X).. mX#X#X#X#X#X#X. KX      1 . #X#X#X#X#X#X#X#X#X#X#X#X#X#X#X#X_.mX+X).i 9 s s s s s 9 p +X7X#X#X#X#X#X#X#X#X#X#X#X#X#X#X",
"#X#X#X#X#X#X#X#X#X#X#X#X#X#X#X#X#X#X#X#X#X#X#X#X#X#X#X#X#X#X#X#X#X#X#X#X#X#X#X#X#X#X#X#X#X#X#X#X#X#X#X#X#X#X#X#X#X#X#X#X#X#X#X#X#X#X#X#X#X#X#X#X#X#X7 yX&X&X%X%X%X=X< AX#X#X#X#X#X#X#X#X#X#X#X#X#X#X#X#X#X#X#X#X#X#X#X#X#X#X#X#X#X#X#X#X#X#X#X_._ AXfXkXkXxXxXuX4X3XwXsXqX2XwXfXsXeXwX2XeXwX2X3XeXeXwXwXsXwXqXsXsXsXsXsXsXxXxXnXpXuXpXkXkXkXsXgXdXeXfXnXnXxXsXuXgXhXdXfXeXeXeXkXnXxXfXsXsXeX3X2X2X3XlXlX0X4XsXsX4X4XaX_ . 7XBXVXSX#X#X#X#X#X#X#X#X#X#X#X#X#X#X#X#X#X#X#X#X#X#X#X#X#X#X#X#X#X#X#X#X#X#X#X#X#X#X#X#X#X#X#X#X#X#X#X#X#X#X#X#X#X#X#X#X#X#X#X#X#X#X#X#X#X#X#X#X#X#X#X#X#X#X#X#X#X#X#X#X#X#X#X#X#X#X#X#X#X#X#X#X#X#X#X#X#X#X#X#X#X#X#X#X#X#X#X#X#X#X#X#X#X#X#X#X#X#X#X#X#X#X#X#X#X#X#X#X#X#X#X#X#X#X#X#X#X#X. l       oX. #X~.GX6X        LXKX. @XmX#X#X#X#X#X#X#X#X#X#X#X#X#X#X#X#X#X#X. y                               mX+X#X#X#X#X#X#X#X#X#X#X#X#X#XCXl     LXSX+X#X#X#X#X#X#X#X#X#X#X#X#X#X#X#X#X#X#X#X#X#X#X#X. .X      JX. #X#X+X] i 9 t j . 1X      '.. #X#X#X#X#X#X#X#X#X#X#X#X#X#X#X#X#X#X#X#X#X#X#X#X#X#X#X#X#X#X. GX      h . AX#X#X#X#X#X#X#X+X$XPX    l . #X#X#X#X#X#X#X#X#X#X. XXUX      8XZX. SX#X#X#X#X#X. KX      1 . #X#X#X#X#X#X#X#X#X#X#X#X#X#X#X#X#X+XSXi t s s s s s t s ` +X_.#X#X#X#X#X#X#X#X#X#X#X#X#X#X",
"#X#X#X#X#X#X#X#X#X#X#X#X#X#X#X#X#X#X#X#X#X#X#X#X#X#X#X#X#X#X#X#X#X#X#X#X#X#X#X#X#X#X#X#X#X#X#X#X#X#X#X#X#X#X#X#X#X#X#X#X#X#X#X#X#X#X#X#X#X#X#X#X#X#X< *X&X&X%X&X%X%X*X< #X#X#X#X#X#X#X#X#X#X#X#X#X#X#X#X#X#X#X#X#X#X#X#X#X#X#X#X#X#X#X#X#X#XAX_ aXqXpXgXgXxXxXuX0X4X0XfXhXeXeXeXsXsXsXeXwX2X2X3X3XwXsXsXsXwX4X4X2XwXwXsXsXsXsXsXxXxXxXsXdXsXfXfXsXgXxXxXgXnXxXsXsXfXsXsXgXxXsXfXnXfXsXsXwX3X2X3X3XlXlXpX4XsXdXfXwXaXCXAXZ.L.R.#X@XmX#X#X#X#X#X#X_.#XVXVXVX_.#X#X#X#X#X#X#X#X#X#X#X#X#X#X#X#X#X#X#X#X#X#X#X#X#X#X#X#X#X#X#X#X#X#X#X#X#X#X#X#X#X#X#X#X#X#X#X#X#X#X#X#X#X#X#X#X#X#X#X#X#X#X#X#X#X#X#X#X#X#X#X#X#X#X#X#X#X#X#X#X#X#X#X#X#X#X#X#X#X#X#X#X#X#X#X#X#X#X#X#X#X#X#X#X#X#X#X#X#X#X#X#X#X#X#X#X#X#X#X#X#X#X#X#X#X. l       KX. #X+XDXUX      8X+X. #X#X#X#X#X#X#X#X#X#X#X#X#X#X#X#X#X#X#X#X#X. <X      6X9X9X9X9X9X9X9X9X9X9X'._.ZX#X#X#X#X#X#X#X#X#X#X#X#X#X. l     LX$X+X#X#X#X#X#X#X#X#X#X#X#X#X#X#X#X#X#X#X#X#X#X#X#X. u       JX. @X+Xa s 9 s n CX. OX^.    9X. ).#X#X% #X#X#X#X#X#X#X#X#X#X#X#X#X#X#X#X#X#X#X#X#X#X#X#X#X#X. JX      [.. #X#X#X#X#X#X#X#X+X$XPX    l . #X#X#X#X#X#X#X#X#X#X#X. JX        6X@X. SX#X#X#X#X. KX      1 . #X#X#X#X#X#X#X#X#X#X#X#X#X#X_.VX+X` s 9 s s s s s t t v +X#X#X#X#X#X#X#X#X#X#X#X#X#X#X#X#X",
"#X#X#X#X#X#X#X#X#X#X#X#X#X#X#X#X#X#X#X#X#X#X#X#X#X#X#X#X#X#X#X#X#X#X#X#X#X#X#X#X#X#X#X#X#X#X#X#X#X#X#X#X#X#X#X#X#X#X#X#X#X#X#X#X#X#X#X#X#X#X#X#X#X#X< yX&X&X%X%X&X%X&X7 AX#X#X#X#X#X#X#X#X#X#X#X#X#X#X#X#X#X#X#X#X#X#X#X#X#X#X#X#X#X#X#X#X#X_ aXhXdXuXuXzXfXxXfX0XkXkXwXrXeXeXwX4XsXgXsXfXuXqXqX3X3XsXsXsX3X4XpX0X0X4X3XqXqXsXsXfXfXqXeXrXeXwXwXsXfXfXxXxXgXxXsXsXsXsXsXsXsXsXeXsXzXzXxX4X3XpXlXlXvXnXzX0XqXsXqXrXCXCXK.@.6.6.C.@X#X#X#X#X#X#X#X#X7XVX$XVXVX#X#X#X#X#X#X#X#X#X#X#X#X#X#X#X#X#X#X#X#X#X#X#X#X#X#X#X#X#X#X#X#X#X#X#X#X#X#X#X#X#X#X#X#X#X#X#X#X#X#X#X#X#X#X#X#X#X#X#X#X#X#X#X#X#X#X#X#X#X#X#X#X#X#X#X#X#X#X#X#X#X#X#X#X#X#X#X#X#X#X#X#X#X#X#X#X#X#X#X#X#X#X#X#X#X#X#X#X#X#X#X#X#X#X#X#X#X#X#X#X#X#X#X#X#X. k       oX. #XSX. DXUX    IX;X. AX#X#X#X#X#X#X#X#X#X#X#X#X#X#X#X#X#X#X#X#X. y       $X. . . . . . . . . . . #X#X#X#X#X#X#X#X#X#X#X#X#X#XAX. l     LX$X+X#X#X#X#X#X#X#X#X#X#X#X#X#X#X#X#X#X#X#X#X#X#X#X. .X      JX. +Xx t 9 p mX+X#X+X#XLX    8XZXBX#X#X#X#X#X#X#X#X#X#X#X#X#X#X#X#X#X#X#X#X#X#X#X#X#X#X#X#XmX. ;X      <X. #X#X#X#X#X#X#X#XCX$XPX    l . #X#X#X#X#X#X#X#X#X#X#X#X. HXIX      8X@X. #X#X#X#X. KX      1 +X#X#X#X#X#X#X#X#X#X#X#X#X#XSX7X+Xe t t s s s s s t t j +X#X#X#X#X#X#X#X#X#X#X#X#X#X#X#X#X#X",
"#X#X#X#X#X#X#X#X#X#X#X#X#X#X#X#X#X#X#X#X#X#X#X#X#X#X#X#X#X#X#X#X#X#X#X#X#X#X#X#X#X#X#X#X#X#X#X#X#X#X#X#X#X#X#X#X#X#X#X#X#X#X#X#X#X#X#X#X#X#X#X#X#X#X7 *X%X%X&X&X&X%X%X*X< #X#X#X#X#X#X#X#X#X#X#X#X#X#X#X#X#X#X#X#X#X#X#X#X#X#X#X#XmX#XD _ _ 1XqXdXhXgXhXdXfXxXzXkXpXsXeXwXeXeXeX3XqXsXfXsXfX0X4X4X0XqXsX4X0X3XzXkXkXvXuX3X3X3X3X3X4X3X3XwXsXsXfXsXsXxXsXfXsXsXsXsXsXwXwXwXwXsXsXwXxXnXnXpXpXlXkXnXnXnXkXpXsXsXuXtXCX^ s.y.a.p.s.SX@X#X#XAX#X#XSXBX` s.9.-._.VX#X#X#X#X#X#X#X#X#X#X#X#X#X#X#X#X#X#X#X#X#X#X#X#X#X#X#X#X#X#X#X#X#X#X#X#X#X#X#X#X#X#X#X#X#X#X#X#X#X#X#X#X#X#X#X#X#X#X#X#X#X#X#X#X#X#X#X#X#X#X#X#X#X#X#X#X#X#X#X#X#X#X#X#X#X#X#X#X#X#X#X#X#X#X#X#X#X#X#X#X#X#X#X#X#X#X#X#X#X#X#X#X#X#X#X#X#X#X#X#X#X#X#X#X. l       KX. #X#X#X. KX        1 . #X#X#X#X#X#X#X#X#X#X#X#X#X#X#X#X#X#X#X#XCX<X      OX. AXAXAXAXAXAXAXAXAXAX#X#X#X#X#X#X#X#X#X#X#X#X#X#X#X. l     LX$X+X#X#X#X#X#X#X#X#X#X#X#X#X#X#X#X#X#X#X#X#X#X#X#X. u       XX. g 9 9 d  X+X#X#X).. 9X      OX. #X#X#X#X#X#X#X#X#X#X#X#X#X#X#X#X#X#X#X#X#X#X#X#X#X#X#X% #X. [.      KX. #X#X#X#X#X#X#X#X+X$XPX    l . #X#X#X#X#X#X#X#X#X#X#X#X#X. GXIX      6X).. mX_.#X. KX      1 . #X#X#X#X#X#X#X#X#X#X#XSX#X+X+Xg t t s s s s s s t g +X@X#X#X#X#X#X#X#X#X#X#X#X#X#X#X#X#X#X",
"#X#X#X#X#X#X#X#X#X#X#X#X#X#X#X#X#X#X#X#X#X#X#X#X#X#X#X#X#X#X#X#X#X#X#X#X#X#X#X#X#X#X#X#X#X#X#X#X#X#X#X#X#X#X#X#X#X#X#X#X#X#X#X#X#X#X#X#X#X#X#X#X#XAXD yX&X%X&X&X%X&X%X&X$X< #X#X#X#X#X#X#X#X#X#X#X#X#X#X#X#X#X#X#X#X#X#X#X#X#X#X#X_._ yXtXiXgXsXqXfXsXgXgXfXfXxXnXsXrXeXeXeXwXeX3X3XsXfXfXsXuX0X0XkXuXqX0X0X4XfXxXxXkXvXMXnXzX4X4X4X4X3XsXsXsXxXsXsXsXsXsXsXsXwXwXwXwX3X3X3X4X4X4XgXgXxXgXzXeXeXsXzXxXxXxXxXxXqXrXR.i.y.a.a. .-._.VX7XBX7XBX+X+X@Xb.+.6.6.F.BX#X#X#X#X#X#X#X#X#X#X#X#X#X#X#X#X#X#X#X#X#X#X#X#X#X#X#X#X#X#X#X#X#X#X#X#X#X#X#X#X#X#X#X#X#X#X#X#X#X#X#X#X#X#X#X#X#X#X#X#X#X#X#X#X#X#X#X#X#X#X#X#X#X#X#X#X#X#X#X#X#X#X#X#X#X#X#X#X#X#X#X#X#X#X#X#X#X#X#X#X#X#X#X#X#X#X#X#X#X#X#X#X#X#X#X#X#X#X#X#X#X#X#X#X. k       oX. #X#X#X#X. <X        XX. SX#X#X#X#X#X#X#X#X#X#X#X#X#X#X#X#X#X#X. y       GX. #X#X#X#X#X#X#X#X#X#X#X#X#X#X#X#X#X#X#X#X#X#X#X#X#XCXl     LXSX+X#X#X#X#X#X#X#X#X#X#X#X#X#X#X#X#X#X#X#X#X#X#X#X. .X      yXz 9 9 g +X X_.#X#X#X. k       y . #X#X#X#X#X#X#X#X#X#X#X#X#X#X#X#X#X#X#X#X#X#X#X#X#X#X#X#X+XZXLX    PX#X+X#X#X#X#X#X#X#X#X+X$XPX    l . #X#X#X#X#X#X#X#X#X#X#X#X#X#X. GXIX      8XZX. mX#X. KX      1 . #X#X#X#X#X#X#X#X#X#X_.VX+X#Xp 9 t s s s s s t 9 g +X@XSX#X#X#X#X#X#X#X#X#X#X#X#X#X#X#X#X#X",
"#X#X#X#X#X#X#X#X#X#X#X#X#X#X#X#X#X#X#X#X#X#X#X#X#X#X#X#X#X#X#X#X#X#X#X#X#X#X#X#X#X#X#X#X#X#X#X#X#X#X#X#X#X#X#X#X#X#X#X#X#X#X#X#X#X#X#X#X#X#X#X#X#X#X< *X&X=X=X&X%X%X%X&X*X< #X#X#X#X#X#X#X#X#X#X#X#X#X#X#X#X#X#X#X#X#X#X#X#X#X#X#X_ yXwX3XwXxXsXwXwXwXfXfXsXzX;XgXgXrXeXeXeXeXwX3X3XwXsXfXxXgXuX0X0XkX0X4X0X0X4XxXnXnXlXvX9XbXcXvXxXsXsXgXsXsXsXsXsXsXwXwXwX2X3X3X3X3X2X3X4X4XuXsXsXsXdXsXdXgXsXwX0XgXjXdXeXeXeXgX+.@.p.a.a.0.-._ . ` ;.V.B.!.VXV.+.i.p.p.Q BX#X#X#X#X#X#X#X#X#X#X#X#X#X#X#X#X#X#X#X#X#X#X#X#X#X#X#X#X#X#X#X#X#X#X#X#X#X#X#X#X#X#X#X#X#X#X#X#X#X#X#X#X#X#X#X#X#X#X#X#X#X#X#X#X#X#X#X#X#X#X#X#X#X#X#X#X#X#X#X#X#X#X#X#X#X#X#X#X#X#X#X#X#X#X#X#X#X#X#X#X#X#X#X#X#X#X#X#X#X#X#X#X#X#X#X#X#X#X#X#X#X#X#X#X. l       KX. #X#X#X#XZX. 9X      LX$X. mX#X#X#X#X#X#X#X#X#X#X#X#X#X#X#X#X#X. <X      GX. #X#X#X#X#X#X#X#X#X#X#X#X#X#X#X#X#X#X#X#X#X#X#X#X#X. l     LX$X+X#X#X#X#X#X#X#X#X#X#X#X#X#X#X#X#X#X#X#X#X#X#X#X. u     NXp t 9 g +X7XSX#X#X#X#X. HX      6X. @X#X#X#X#X#X#X#X#X#X#X#X#X#X#X#X#X#X#X#X#X#X#X#X#X#X#X_.. oX      9X. AX#X#X#X#X#X#X#X#X+X$XPX    l . #X#X#X#X#X#X#X#X#X#X#X#X#X#X#X. GXIX      6X).. #X. KX      1 . #X#X#X#X#X#X#X#X#XmX X+Xv s t s s s s s s t t f +X@X#X#X#X#X#X#X#X#X#X#X#X#X#X#X#X#X#X#X#X",
"#X#X#X#X#X#X#X#X#X#X#X#X#X#X#X#X#X#X#X#X#X#X#X#X#X#X#X#X#X#X#X#X#X#X#X#X#X#X#X#X#X#X#X#X#X#X#X#X#X#X#X#X#X#X#X#X#X#X#X#X#X#X#X#X#X#X#X#X#X#X#X#X#X#X< yX=X=X=X%X&X%X%X%X*X7 #X#X#X#X#X#X#X#X#X#X#X#X#X#X#X#X#X#X#X#X#X#X#X#X#X#XAX_.dXwXeXeXsXsXqX3XwXfXgXgXzX& ` nXqX2X2X2X2X2X2X2X2X2XsXzXX jXpX0XpXkXpX0X0X0XuXkXMXMXcXcXlXzXgXdXgXsXsXwXwXeXeXwX2X2X2X2X2X2X2X2X3X4X0XfXxXgXsXsXsXsXqXqXsXeXwX4X0X0XwXeXeXeXeXI. . .-.hXeXeXtX.X-.o.+.3.&.=.&.8.i.a.a.W.7X#X#X#X#X#X#X#X#X#X#X#X#X#X#X#X#X#X#X#X#X#X_.#XVX#X#X#X_.#XVXBXVX#X#X#X#X#X#X#X#X#X#X#X#X#X#X#X#X#X#X#X#X#X#X#X#X#X#X#X#X#X#X#X#X#X#X#X#X#X#X#X#X#X#X#X#X#X#X#X#X#X#X#X#X#X#X#X#X#X#X#X#X#X#X#X#X#X#X#X#X#X#X#X#X#X#X#X#X#X#X#X#X#X#X#X#X#X#X#X#X#X#X#X#X. l       oX. #X#X#X#X_.. ZXLX      8XCX. SX#X#X#X#X#X#X#X#X#X#X#X#X#X#X#X#X. y       GX. #X#X#X#X#X#X#X#X#X#X#X#X#X#X#X#X#X#X#X#X#X#X#X#XAX. l     LX$X+X#X#X#X#X#X#X#X#X#X#X#X#X#X#X#X#X#X#X#X#X#X#X#X. .X      9 t g CX@X#X#X#X#X#X#X@X. 6X      KX. SX#X#X#X#X#X#X#X#X#X#X#X#X#X#X#X#X#X#X#X#X#X#X#X#X#XVX. '.      y . #X#X#X#X#X#X#X#X#X+X$XPX    l . #X#X#X#X#X#X#X#X#X#X#X#X#X#X#X#X. GXIX      8XZX. . KX      1 +X#X#X#X#X#X#X#XSX#X+X Xf t t s s s s s s t t g +X7X_.#X#X#X#X#X#X#X#X#X#X#X#X#X#X#X#X#X#X#X",
"#X#X#X#X#X#X#X#X#X#X#X#X#X#X#X#X#X#X#X#X#X#X#X#X#X#X#X#X#X#X#X#X#X#X#X#X#X#X#X#X#X#X#X#X#X#X#X#X#X#X#X#X#X#X#X#X#X#X#X#X#X#X#X#X#X#X#X#X#X#X#X#X#X#X< *X&X&X&X%X%X%X%X=X#XAX#X#X#X#X#X#X#X#X#X#X#X#X#X#X#X#X#X#X#X#X#X#X#X#X#X#XD yXrXeXeXeXdXeX3XqXxXzXfXqXuXfXX xXsXwXwXwX2X2X3X2X3XpXfXxXxXhXfXuX0XkXzXzXpX0XpXkXzXzXpXfXiXiXdXsXsXwXwXeXeXeX2X2X2X3X3X2X3X4X0XpXpXkXxXgXsXfXsXsXqXqXsXqXqX4XwXuXpX0XeXeXeXeXwXeX<Xa.dXeXeXwX2XxX9.p.7.i.8.7.i.p.0.a.a.$X@X#X#X#X#X#X#X#X#X#X#X#X#X#X#X#X#X#X#X#XSXAX7XBX#X7XBX7X+XBX`.W.SX7XBX#X_.#X#X#X#X#X#X#X#X#X#X#X#X#X#X#X#X#X#X#X#X#X#X#X#X#X#X#X#X#X#X#X#X#X#X#X#X#X#X#X#X#X#X#X#X#X#X#X#X#X#X#X#X#X#X#X#X#X#X#X#X#X#X#X#X#X#X#X#X#X#X#X#X#X#X#X#X#X#X#X#X#X#X#X#X#X#X#X#X. k       KX. #X#X#X#X#X#X. /.        '.. +XSX#X#X#X#X#X#X#X#X#X#X#X#X#X#X#XCX<X      GX. #X#X#X#X#X#X#X#X#X#X#X#X#X#X#X#X#X#X#X#X#X#X#X#X#X. l     LX$X+X#X#X#X#X#X#X#X#X#X#X#X#X#X#X#X#X#X#X#X#X#X#X#X. u       w f CX@X#X#X#X#X#X#X#X#X. ;X      6X. @X#X#X#X#X#X#X#X#X#X#X#X#X#X#X#X#X#X#X#X#X#X#X#X#XSX. HX      |.$X+X#X#X#X#X#X#X#X#X#X+X$XPX    l . #X#X#X#X#X#X#X#X#X#X#X#X#X#X#X#X#X. GXUX      6X).. KX      1 . #X#X#X#X#X_.mX X+Xa i 9 t s s s s s s t t g +X@X#X#X#X#X#X#X#X#X#X#X#X#X#X#X#X#X#X#X#X#X#X",
"#X#X#X#X#X#X#X#X#X#X#X#X#X#X#X#X#X#X#X#X#X#X#X#X#X#X#X#X#X#X#X#X#X#X#X#X#X#X#X#X#X#X#X#X#X#X#X#X#X#X#X#X#X#X#X#X#X#X#X#X#X#X#X#X#X#X#X#X#X#X#X#X#X#XD *X%X&X%X&X&X%X&XD < #X#X#X#X#X#X#X#X#X#X#X#X#X#X#X#X#X#X#X#X#X#X#X#X#X#X#X_ iXrXrXwXeXhXeX3X3XzXnXfXwXeXqXzXsXqX4XsXgXwX3X2X2XuXMXzXsXxXzXxXuXuXuXuXuXfXfXxXsXqX0XdXiXtXdXwXwXeXeXwXeX2X2X2X3XxXzXkX0XpXpXkXzXnXxXxXxXsXsXqXqX4X3XqXxXuX4XqXzXpXeXeXeXeX2XeXwXeXdXeXwXeXwXeXeX=.+.=.=.*.=.p.p.a. .L.BX#X#X#X#X#X#X#X#X#X#X#X#X#X#X#X#X#X#X_.#X7X7XmXL.0.H.(.` / Q s.6.0.-.R.VXAX#X#X#X#X#X#X#X#X#X#X#X#X#X#X#X#X#X#X#X#X#X#X#X#X#X#X#X#X#X#X#X#X#X#X#X#X#X#X#X#X#X#X#X#X#X#X#X#X#X#X#X#X#X#X#X#X#X#X#X#X#X#X#X#X#X#X#X#X#X#X#X#X#X#X#X#X#X#X#X#X#X#X#X#X#X#X#X#X. l       oX. #X#X#X#X#X#X#X. y         h . ZXSX#X#X#X#X#X#X#X#X#X#X#X#X#X#X. y       GX. #X#X#X#X#X#X#X#X#X#X#X#X#X#X#X#X#X#X#X#X#X#X#X#X#XCXl     LXSX+X#X#X#X#X#X#X#X#X#X#X#X#X#X#X#X#X#X#X#X#X#X#X#X. .X      p .  X_.#X#X#X#X#X#X#X#XZX+XPX      A . #XSX#X#X#X#X#X#X#X#X#X#X#X#X#X#X#X#X#X#X#X#X#X#XCX. 8X      <X. #X#X#X#X#X#X#X#X#X#X+X$XPX    l . #X#X#X#X#X#X#X#X#X#X#X#X#X#X#X#X#X#X. HXUX      8X. 1X      1 . #X#X#X#XmX@X+X Xf t t s s s s s s s t t x +X@X_.#X#X#X#X#X#X#X#X#X#X#X#X#X#X#X#X#X#X#X#X#X",
"#X#X#X#X#X#X#X#X#X#X#X#X#X#X#X#X#X#X#X#X#X#X#X#X#X#X#X#X#X#X#X#X#X#X#X#X#X#X#X#X#X#X#X#X#X#X#X#X#X#X#X#X#X#X#X#X#X#X#X#X#X#X#X#X#X#X#X#X#X#X#X#X#X#X< *X%X&X&X%X%X%X%X*X< < mX#X#X#X#X#X#X#X#X#X#X#X#X#X#X#X#XAX).D AXmX#X#X#X_._ tXqXwX2XwXdXeX3X4XkXsXdXeXdXdXdXeX4X4XxXeXwX3X2X2XpXnXkX0XsXsXsXfXsXsXsXsXsXsXqXuXsXjXyXsXuXwXeXeXeXeX2X2X3X4X0XkXkXzXxXnXnXxXxXxXxXxXfXqXqX4X3X3X4X0XpXzXzXxXxXzXeXrXeXeX2X2XeXeXeXdXwXwXwXwXwXeXg.3.l.Y M.u.u.U +.0.AX. D mX_.VX@XVXSX#X#X#X#X#X#X#X#X#X#X#X#X7X` B.9.8.8.+.9.s.@.i.a.p.y.6.@.P BX#X#X#X#X#X#X#X#X#X#X#X#X#X#X#X#X#X#X#X#X#X#X#X#X#X#X#X#X#X#X#X#X#X#X#X#X#X#X#X#X#X#X#X#X#X#X#X#X#X#X#X#X#X#X#X#X#X#X#X#X#X#X#X#X#X#X#X#X#X#X#X#X#X#X#X#X#X#X#X#X#X#X#X#X#X#X#X#X. l       KX. #X#X#X#X#X#X#X@X. '.        <X. @XmX#X#X#X#X#X#X#X#X#X#X#X#X#X. <X      GX. #X#X#X#X#X#X#X#X#X#X#X#X#X#X#X#X#X#X#X#X#X#X#X#X#X. l     LX$X+X#X#X#X#X#X#X#X#X#X#X#X#X#X#X#X#X#X#X#X#X#X#XSX. oX      HX. mX#X#X#X#X#X#X#X#X#X#XCX;X      IXOX. #X#X#X#X#X#X#X#X#X#X#X#X#X#X#X#X#X#X#X#X#XSX@X. l       LX+XZX#X#X#X#X#X#X#X#X#X#X+X$XPX    l . #X#X#X#X#X#X#X#X#X#X#X#X#X#X#X#X#X#X#X. JXUX      '.KX;     1 . #X#X#X#X+X Xx i t t s s s s s s s 9 i n +X#X#X#X#X#X#X#X#X#X#X#X#X#X#X#X#X#X#X#X#X#X#X#X#X",
"#X#X#X#X#X#X#X#X#X#X#X#X#X#X#X#X#X#X#X#X#X#X#X#X#X#X#X#X#X#X#X#X#X#X#X#X#X#X#X#X#X#X#X#X#X#X#X#X#X#X#X#X#X#X#X#X#X#X#X#X#X#X#X#X#X#X#X#X#X#X#X#X#X#XAXAX&X%X&X%X&X&X%X%X=X< < #X#X#X#X#X#X#X#X#X#X#X#X#XmXAXD D mXo AXD #X#X#XAXD rXqX3X3XeXhXuX4X0XfXtXeXwX2XeXhXeXwXqXfXeX3X3X2X3X0XkXpXpX0XhXdXsXsXsXeXeXwXqXdXhXjXjXqXwXwXwXeX2X2X2X4X0XpXuXgXgXzXxXxXnXxXxXfXfXqXqX4X4X4X3X4XuXpXkXkXpXzXxXxXfXeXeXeX2X2X2X2XwXqXqXeXsXwXsXeXwXgX*.&.&.l.E | M.h xXdXdXyXD 7X7X`.VXBX#X_.#X#X#X#X#X#X#X#X#XVX$XH.p.@.i.p.i.i.p.p.y.p.a.p.a.y.H.7X#X#X#X#X#X#X#X#X#X#X#X#X#X#X#X#X#X#X#X#X#X#X#X#X#X#X#X#X#X#X#X#X#X#X#X#X#X#X#X#X#X#X#X#X#X#X#X#X#X#X#X#X#X#X#X#X#X#X#X#X#X#X#X#X#X#X#X#X#X#X#X#X#X#X#X#X#X#X#X#X#X#X#X#X#X#X#X#X. k       oX. #X#X#X#X#X#X#XSXCX+X8X        y . #X#X#X#X#X#X#X#X#X#X#X#X#X#X. y       GX. #X#X#X#X#X#X#X#X#X#X#X#X#X#X#X#X#X#X#X#X#X#X#X#XAX. l     LX$X+X#X#X#X#X#X#X#X#X#X#X#X#X#X#X#X#X#X#X#X#X#X% @X. f.      + . #X#X#X#X#X#X#X#X#X#X_.VX. h       PX#X. #XSX#X#X#X#X#X#X#X#X#X#X#X#X#X#X#X#X#XSX@X. <X        HXCX#X#X#X#X#X#X#X#X#X#X#XCX$XPX    l . #X#X#X#X#X#X#X#X#X#X#X#X#X#X#X#X#X#X#X#X. GXIX      UX^.    1 +X#X#X+X+XN p t t s s s s s s s t 9 d ].+X#X#X#X#X#X#X#X#X#X#X#X#X#X#X#X#X#X#X#X#X#X#X#X#X#X",
"#X#X#X#X#X#X#X#X#X#X#X#X#X#X#X#X#X#X#X#X#X#X#X#X#X#X#X#X#X#X#X#X#X#X#X#X#X#X#X#X#X#X#X#X#X#X#X#X#X#X#X#X#X#X#X#X#X#X#X#X#X#X#X#X#X#X#X#X#X#X#X#X#X#XAX< =X%X&X&X%X%X&X%X%X&X#X< AX#X#X#X#X#X#X#X#X#XSX)._ D yXrXeXeXrX$XD #X#XAXAXeX4X3X3XdXhX4X4XdXeXeXeXeX3X3X4XwXsXuXsXwX3X2X2X0XpXpX0XeXjXdXwXwXeXwXwX0X4XsXtXrXsXqXeXeXwX2X2X2X4XpXkXkXdXX jXgXxXnXxXfXzXfXfX0X0X4X4X4X3XuXkXnXnXxXxXfXxXzXzXqXwXeXeX2X2X2X3X4XqXwXqXsXsXsXwX2XeXf.+.=.&.&.<XsXsXeXfXuXrX. ` s.9.B.DXBX@XmX#X#X#X#X#X#X#X#XBXE.y.0.i.p.p.i.i.i.y.6.y.a.a.a.p.-.#XVX#X#X#X#X#X#X#X#X#X#X#X#X#X#X#X#X#X#X#X#X#X#X#X#X#X#X#X#X#X#X#X#X#X#X#X#X#X#X#X#X#X#X#X#X#X#X#X#X#X#X#X#X#X#X#X#X#X#X#X#X#X#X#X#X#X#X#X#X#X#X#X#X#X#X#X#X#X#X#X#X#X#X#X#X#X#X#X. l       KX. #X#X#X#X#X#X#X#X#X. OXUX        JX. #X#X#X#X#X#X#X#X#X#X#X#X#XCX<X      GX. #X#X#X#X#X#X#X#X#X#X#X#X#X#X#X#X#X#X#X#X#X#X#X#X#X. l     LX$X+X#X#X#X#X#X#X#X#X#X#X#X#X#X#X#X#X#X#X#X#X#X#X+Xz 9       oX. #X#X#X#X#X#X#X#X#X#X#X_.CX@XLX      8XDX. #X#X#X#X#X#X#X#X#X#X#X#X#X#X#X#X#XmX+X. ;X        <X. #X#X#X#X#X#X#X#X#X#X#X#X+X$XPX    l . #X#X#X#X#X#X#X#X#X#X#X#X#X#X#X#X#X#X#X#X#X. GXIX            1 .  X+X8 f t t s s s s s s s s t t g +X X#X#X#X#X#X#X#X#X#X#X#X#X#X#X#X#X#X#X#X#X#X#X#X#X#X#X",
"#X#X#X#X#X#X#X#X#X#X#X#X#X#X#X#X#X#X#X#X#X#X#X#X#X#X#X#X#X#X#X#X#X#X#X#X#X#X#X#X#X#X#X#X#X#X#X#X#X#X#X#X#X#X#X#X#X#X#X#X#X#X#X#X#X#X#X#X#X#X#X#X#X#X_.7 =X%X%X&X&X%X&X&X%X%X%X*X< < mX#X#X#X#X#X#X#XD #XiXrXeXwX2X3X3XeXD AX#X#X_ aX3X3X3XsXgXqXeXeXeXwXeXeXwX3X3X3XpXpXsXqX3X2X3XkXlXpXdXaXrXwXeXwX2X2X4XrXhXsXsXqXwXeXwXeX2X2XfXzXvXkXzXxXgXxXzXzXfXfXxXfX0X4XfXuX0XpXpXpXkXvXkXnXzXzXzXfXfXuXpX0XwXeXeXeX2X2X4XqXtXdX3XqXsXqX3XsXwXgXU 5.+.l 3XfXgXxXsXeXeXJX-.@.6.@.=.A.BXCX7XSX#X#XVXBXBX@X#XVX0.@.p.p.0.i.8.6.p.[ Q a.a.a.y.p.W.7X#X#X#X#X#X#X#X#X#X#X#X#X#X#X#X#X#X#X#X#X#X#X#X#X#X#X#X#X#X#X#X#X#X#X#X#X#X#X#X#X#X#X#X#X#X#X#X#X#X#X#X#X#X#X#X#X#X#X#X#X#X#X#X#X#X#X#X#X#X#X#X#X#X#X#X#X#X#X#X#X#X#X#X#X#X#X#X. k       oX. #X#X#X#X#X#X#X#X#X#X. 1         IXDX. SX#X#X#X#X#X#X#X#X#X#X#X. y       GX. #X#X#X#X#X#X#X#X#X#X#X#X#X#X#X#X#X#X#X#X#X#X#X#X#XCXl     LXSX+X#X#X#X#X#X#X#X#X#X#X#X#X#X#X#X#X#X#X#X#X_. X% s w       JX. #X#X#X#X#X#X#X#X#X#X#X#X#X. DXPX      PXHX. CX#XSX#X#X#X#X#X#X#X#X#X#X#X#XAX. . l         [.. @XSX#X#X#X#X#X#X#X#X#X#X#X+X$XPX    l . #X#X#X#X#X#X#X#X#X#X#X#X#X#X#X#X#X#X#X#X#X#X. GXIX          .X. ).g s t t s s s s s s s s 9 i ^ +X@X_.#X#X#X#X#X#X#X#X#X#X#X#X#X#X#X#X#X#X#X#X#X#X#X#X#X#X",
"#X#X#X#X#X#X#X#X#X#X#X#X#X#X#X#X#X#X#X#X#X#X#X#X#X#X#X#X#X#X#X#X#X#X#X#X#X#X#X#X#X#X#X#X#X#X#X#X#X#X#X#X#X#X#X#X#X#X#X#X#X#X#X#X#X#X#X#X#X#X#X#X#X#X#X< #X&X%X%X&X&X%X%X&X&X%X%X=XAX< #X#X#X#X#X#XAXD rXuXqXwXeXwX2X2X3XyX_ #X_._ 1X3X3X3XqXxXqXeXeXeXeXeXeXwX3X3XuXkXzXeX3X3X2X0XkXpXsXeXqXwXwXwX2X3X4XgX+ dXqXwXeXeXeX2X2XwXzXnXnXnXxXnXnXnXzXzXxXsXfXqXqX4X0XqXfXnXMXnXpXlXkXpXpXpXpXpX0XuXuX0X0XqXeXwXeXsX4XqXsXrXdXsXwXsXwXfXxXqXsXh } } {.qXgXxXsXwXeXgX| 8.0.V.m.@.=.m.K.(.. +X7XSX!.R.SX7X7X] a.6.i.p.i.8.@.R.. 7Xi.@.i.i.@.Z.+X#X#X#X#X#X#X#X#X#X#X#X#X#X#X#X#X#X#X#X#X#X#X#X#X#X#X#X#X#X#X#X#X#X#X#X#X#X#X#X#X#X#X#X#X#X#X#X#X#X#X#X#X#X#X#X#X#X#X#X#X#X#X#X#X#X#X#X#X#X#X#X#X#X#X#X#X#X#X#X#X#X#X#X#X#X#X#X. l       KX. #X#X#X#X#X#X#X#X#X_.@X. [.        8X+X. SX#X#X#X#X#X#X#X#X#X#X. <X      OX. #X#XAX#XAX#XAX#XAX#XAXAX#X#X#X#X#X#X#X#X#X#X#X#X#X. l     LXSX+XAX#XAX#XAX#XAX#XAX#XAXAX#X#X#X#X#X#X#X#X#X+Xf t t       JX. #X#X#X#X#X#X#X#X#X#X#X#X_.#X. OXPX        k ).. . AX#X#X#X#X#X#X#XSX#X@X. . HX9X        [.. +X#X#X#X#X#X#X#X#X#X#X#X#X#X+X$XPX    l . #X#X#X#X#X#X#X#X#X#X#X#X#X#X#X#X#X#X#X#X#X#X#X. GXIX        1 z i 9 t s s s s s s s s t t f ).+X#X#X#X#X#X#X#X#X#X#X#X#X#X#X#X#X#X#X#X#X#X#X#X#X#X#X#X#X#X",
"#X#X#X#X#X#X#X#X#X#X#X#X#X#X#X#X#X#X#X#X#X#X#X#X#X#X#X#X#X#X#X#X#X#X#X#X#X#X#X#X#X#X#X#X#X#X#X#X#X#X#X#X#X#X#X#X#X#X#X#X#X#X#X#X#X#X#X#X#X#X#X#X#X#X#X#X< }.=X=X&X&X&X&X%X&X%X%X%X&X_.7 AX#X#X#X#XD 1XwXsXeXeXsXwX4X3X4XtX_ #XmX_ yXqXwXeXsXfXgXeXeX&X2XeXeXwXeXwXsXzXuXsX4X3X2XpXkXqXeXeXeXwX2X2X3XqXgXsXqXqXeXeXwX2X2X3XfXnXnXnXnXnXnXnXxXxXxXxXfXqX0X0X0XpXuXzXnXnXnXnXzXkXlXkXkXcXcXlXkXpXpXkX0XqXeXwXwXsXsXgXsXqXwXeXsXsXeXfXxXgXxXfXMXI MXqXfXsXsXeXeXn.z.xXgXwXsX;Xi.@.+.0.!.R.H.s.s.@.0.SX@X+XmX8.6.p.i.6.0.VX+XmX8.+.i.6.+.C.+X#X% #X#X#X#X#X#X#X#X#X#X#X#X#X#X#X#X#X#X#X#X#X#X#X#X#X#X#X#X#X#X#X#X#X#X#X#X#X#X#X#X#X#X#X#X#X#X#X#X#X#X#X#X#X#X#X#X#X#X#X#X#X#X#X#X#X#X#X#X#X#X#X#X#X#X#X#X#X#X#X#X#X#X#X#X#X. l       oX. #X#X#X#X#X#X#X#X#X#XmX+X. 9X        9X. +XSX#X#X#X#X#X#X#X#X#X. y       #X. . . . . . . . . . . . . #XSX#X#X#X#X#X#X#X#X#X#XAX. l     LX. . . . . . . . . . . . . . SX#X#X#X#X#X#X%  X8 s s t       JX. #X#X#X#X#X#X#X#X#X#X#X#X#XmX#X. SX9X        LX<X`.. . . CXCX+XCX. . . +XJX'.          <X. +XSX#X#X#X#X#X#X#X#X#X#X#X#X#X+X$XPX    l . #X#X#X#X#X#X#X#X#X#X#X#X#X#X#X#X#X#X#X#X#X#X#X#X. GXLX    w s t t s s s s s s s s t t s e +X X#X#X#X#X#X#X#X#X#X#X#X#X#X#X#X#X#X#X#X#X#X#X#X#X#X#X#X#X#X#X",
"#X#X#X#X#X#X#X#X#X#X#X#X#X#X#X#X#X#X#X#X#X#X#X#X#X#X#X#X#X#X#X#X#X#X#X#X#X#X#X#X#X#X#X#X#X#X#X#X#X#X#X#X#X#X#X#X#X#X#X#X#X#X#X#X#X#X#X#X#X#X#X#X#X#X#X#X#X< 7 < *X%X&X&X&X%X%X%X%X%X%X*X< < #X#X#X_ iXqXdXhXdXsXsXgXfXuXtX_ #XAXD tXqXgXgXwXfXdXxXeXwXqXwXeXeXsXsXsXfXxXqX4X4X4X0XpXsXsXeXeX2X2X3XqXxXsXsXwXeXwXwX2X3X3XzXnXnXzXzXxXnXxXxXfXuXuX0X0XpXpXkXkXpXkXpXkXkXnXxXzXzXl vXbXbXbXcXlXlXlXlXlXwXeXeXsXsXsXwXsXeXeXwXsXsXsXsXzXxXgXsXsXxXnXpXfXfXsX2XqXMXeXrXqXsXwXwX;X6.p.i.+.7.6.y.0.i.+.H.BXBX` 7.8.i.i.@.s.VX@XBXS.| @.@.+.Q BX#X#X#X#X#X#X#X#X#X#X#X#X#X#X#X#X#X#X#X#X#X#X#X#X#X#X#X#X#X#X#X#X#X#X#X#X#X#X#X#X#X#X#X#X#X#X#X#X#X#X#X#X#X#X#X#X#X#X#X#X#X#X#X#X#X#X#X#X#X#X#X#X#X#X#X#X#X#X#X#X#X#X#X#X#X#X#X. k       KX. #X#X#X#X#X#X#X#X#X#X#XSX. $XIX        '.).@X#X#X#X#X#X#X#X#X#XCX<X      [.k l l l l l l l l l l [.<XAX@X#X#X#X#X#X#X#X#X#X#X#X. l     IX0 l l l l l l l l l l l [.y @XAX#X#X#X#X#X#X+Xg 9 s t UX    JX. #X#X#X#X#X#X#X#X#X#X#X#X#X#X_.#X. . 0           IX'.y KXOXDX$XFX/.1 l 6X          LXJX. @X#X#X#X#X#X#X#X#X#X#X#X#X#X#X#X+X$XPX    l . #X#X#X#X#X#X#X#X#X#X#X#X#X#X#X#X#X#X#X#X#X#XSX#X X. oXw t i s s s s s s s s s s t t f #X+X#X#X#X#X#X#X#X#X#X#X#X#X#X#X#X#X#X#X#X#X#X#X#X#X#X#X#X#X#X#X#X#X",
"#X#X#X#X#X#X#X#X#X#X#X#X#X#X#X#X#X#X#X#X#X#X#X#X#X#X#X#X#X#X#X#X#X#X#X#X#X#X#X#X#X#X#X#X#X#X#X#X#X#X#X#X#X#X#X#X#X#X#X#X#X#X#X#X#X#X#X#X#X#X#X#X#X#X#X#X#X#X#X< < &X%X%X%X&X&X&X&X%X%X%X=X< < #XAXD rXfXgXdXsXuXgXjXgXfXuXiX_ _ iXqXhXsXfXwXqXzXxXzXxXxXsXeXwXsXsXsXqXfXxXfXuXpXpXuXeXsXeXwX3X4XfXsXsXsXsXeXwX2X2X4XnXnXnXnXnXxXxXfXfXfXuXpXpXuXzXkXkXpXkXlXcXlXvXkXzXxXzXpXkXvXbXbXbXbXcXlXlXlXcXcXpXeXwXsXsXeXwXwXwXwXeXsXsXsXsXfXdXdXsXfXsXsXxXnXsXwX4XlXpXrXjXfXfXqX4XwXm. .8.+.8.p.p.6.@.+.L.BX+XL.+.i.i.i.@.K.BX#X@X@XH.7.i.K.@XVX#X#X#X#X#X#X#X#X#X#X#X#X#X#X#X#XmX#X@XVX#X_.#X#X#X#X#X#X#X#X#X#X#XVXVX_.#X#X#X#X#X#X#X#X#X#X#X#X#X#X#X#X#X#X#X#X#X#X#X#X#X#X#X#X#X#X#X#X#X#X#X#X#X#X#X#X#X#X#X#X#X#X#X#X#X#X#XCXl       KX. #X#X#X#X#X#X#X#X#X#X#X#X#X. oX          XXCX#X#X#X#X#X#X#X#X#X. y                               UXIX@XZX#X#X#X#X#X#X#X#X#X#X#XCXl                                 8X. @X#X#X#X#X#X@X#Xi t s z.|.    JX. #X#X#X#X#X#X#X#X#X#X#X#X#X#X#X#XmX+X. HX9X                PXPXNX              |.k AX. #X_.#X#X#X#X#X#X#X#X#X#X#X#X#X#X#X+X$XPX    l . #X#X#X#X#X#X#X#X#X#X#X#X#X#X#X#X#X#X#X#XSX@X+X+XSXg p s s s s s s s s s s s t 9 i v +X X#X#X#X#X#X#X#X#X#X#X#X#X#X#X#X#X#X#X#X#X#X#X#X#X#X#X#X#X#X#X#X#X#X",
"#X#X#X#X#X#X#X#X#X#X#X#X#X#X#X#X#X#X#X#X#X#X#X#X#X#X#X#X#X#X#X#X#X#X#X#X#X#X#X#X#X#X#X#X#X#X#X#X#X#X#X#X#X#X#X#X#X#X#X#X#X#X#X#X#X#X#X#X#X#X#X#X#X#X#X#X#X#X#X#XD iX%X&X&X%X&X&X&X&X&X%X%X=XAX7 ).#XdXfXdXrXwXrXeXsXsXsX0XwX_ _ tXuXsXsXqXeXwXuXsXsXfXsXsXeXwXwXqX4X4X0XzXxXxXzXkXfXeXwXwXsXqXxXsXfXsXwXeXwX2X4XkXkXvXkXzXfXuXuXfXfXuXkXkXkXMXnXnXkXpXkXcXcXvXvXvXpXxXxXuX0XkXbXbXcXbXbXbXcXlXcXcXcXcX0X3XsXsXsXwX3X3X4XqXsXsXfXqXhXhXpXsXfXfXsXsXxXxXgXxXzXsXsXsXsXxXsXqX4XgXy.6.&.7.p.a.a.o.U.VX@X7Xs.+.i.i.6.p.#X@X#XSX@XBX`.$XBXVX_.#X#X#X#X#X#X#X#X#X#X#X#X#X#X#X#X_.7XSX] 7X#X#X#X#X#X#X#X#X#X_.7X7X#X@XBX@XVXSX#X#X#X#X#X#X#X#X#X#X#X#X#X#X#X#X#X#X#X#X#X#X#X#X#X#X#X#X#X#X#X#X#X#X#X#X#X#X#X#X#X#X#X#X#X#X#X#X. <XPXPXPXoXCX#X#X#X#X#X#X#X#X#X#X#X#X#XAX. <X    8XJXZX#X#X#X#X#X#X#X#X#X#X. <X                                LX@XZX#X#X#X#X#X#X#X#X#X#XAX. [.                                6XCX@X#X#X#X#X#X+Xe t s i k       oX. #X#X#X#X#X#X#X#X#X#X#X#X#X#X#X#X_.#X#X. . u [.PX                          6X<X(.. +X#X#X#X#X#X#X#X#X#X#X#X#X#X#X#X#X#X#XCXDXIX    l . #X#X#X#X#X#X#X#X#X#X#X#X#X#X#X#X#XSX#X7X+X Xv f s 9 t s s s s s s s s s t t s j  X+X#X#X#X#X#X#X#X#X#X#X#X#X#X#X#X#X#X#X#X#X#X#X#X#X#X#X#X#X#X#X#X#X#X#X#X",
"#X#X#X#X#X#X#X#X#X#X#X#X#X#X#X#X#X#X#X#X#X#X#X#X#X#X#X#X#X#X#X#X#X#X#X#X#X#X#X#X#X#X#X#X#X#X#X#X#X#X#X#X#X#X#X#X#X#X#X#X#X#X#X#X#X#X#X#X#X#X#X#X#X#X#X#X#X#X#X#X< }.%X=XiX%X%X&X&X&X&X&X:X%X:X*X7 ).hXfXuXqXeXjXdXwX3XwX0XeX_ _ dXpXpXzX3XeXeXqXqXfXqX4XsXsXeXwX3X0XqXpX0XpXpXnXxXsXwXeXsXfXuXsXsXsXsXeXwX3X0XlXlXlXpXpXpXpXpXpXkXkXlXlXkXnXnXnXkXpXpXlXlXMXMXMXkXuXxXfX0X0XpXcXlXvXlXlXlXcXcXcXcXlXlXlXpXfXsXsX3X3X4XpXpXqXsXfXsXsXzXxXfXfXxXxXsXfXxXxXgXgXsXwXwXsXeXdXsXwXsXg.8.i.p.y.y.s.7XCX#XBXW.7.6.p.p.6.R.+X#X#X#X#X#X7X@X#X#X#X#X#X#X#X#X#X#X#X#X#X#X#X#X#X#XmXBX' p.i.^ BX#X#X#X#X#X#X#X_.7X` H.-.-.!.SXVX7X_.#X#X#X#X#X#X#X#X#X#X#X#X#X#X#X#X#X#X#X#X#X#X#X#X#X#X#X#X#X#X#X#X#X#X#X#X#X#X#X#X#X#X#X#X#X#X#XAX$X1X`.DX#X#X#X#X#X#X#X#X#X#X#X#X#X#X#XSX@X. 9X'.CX. #X#X#X#X#X#X#X#X#X#X#X. <X                                8X@XZX#X#X#X#X#X#X#X#X#X#X#X. l                                 9XCX@X#X#X#X#X#X+Xg t s s f 5X    JX. #X#X#X#X#X#X#X#X#X#X#X#X#X#X#X#X#X#X#X#X@X. . SXu l 9X8XIX      PX6X'.y XX+X. . #X#X#X#X#X#X#X#X#X#X#X#X#X#X#X#X#X#X#X#X+X$XPX    l CX#X#X#X#X#X#X#X#X#X#X#X#X#X#X#XSXAX X+X#Xj p t t t s s s s s s s s s s 9 t g #X+X@X#X#X#X#X#X#X#X#X#X#X#X#X#X#X#X#X#X#X#X#X#X#X#X#X#X#X#X#X#X#X#X#X#X#X#X#X",
"#X#X#X#X#X#X#X#X#X#X#X#X#X#X#X#X#X#X#X#X#X#X#X#X#X#X#X#X#X#X#X#X#X#X#X#X#X#X#X#X#X#X#X#X#X#X#X#X#X#X#X#X#X#X#X#X#X#X#X#X#X#X#X#X#X#X#X#X#X#X#X#X#X#X#X#X#X#X#X#XAX< =X%X=X=X&X&X&X%X%X&X&X%X%X:X}._ hXsXiXdXwXwXeXwX3X3X4XwX1XAXsXuX0X0X4X3XwXqXkXuX4X0XsXeXwX2X2XzXzXpX0X0XpXlXsXeXwXwXsXzXzXsXsXsXeXqX4X0XkXlXpXpXpXlXlXvXMXMXlXcXlXlXnXnXnXzXkXpXlXvXnXMXvXlXlXzXxXuX0XpXlXzXfXuXqXqXuXkXcXcXlXlXcXlXpXfXsXwX3X3XuXpXpXuXsXxXfXsXuXzXnXxXfXfXfXfXfXfXfXsXxXsXwXsXwXwXwXsXqX<X&.c.n.i.y.7.P +X#XBXS.+.p.p.6.-.@XVX#X#X#X#X#X#X#X#X#X#X#X#X#X#X#X#X#X#X#X#X#X#X#X#X% #X7Xs.7.8.s.SX@X#X#X#X#X#X#XVX` H.a.6.6.y.0.B.] @XmX#X#X#X#X#X#X#X#X#X#X#X#X#X#X#X#X#X#X#X#X#X#X#X#X#X#X#X#X#X#X#X#X#X#X#X#X#X#X#X#X#X#X#X#X#X#X#X@X+X+X+XAX#X#X#X#X#X#X#X#X#X#X#X#X#X#X#X_.@X@XBXCX_.#X#X#X#X#X#X#X#X#X#X#XAX`.GXGXGXGXGXGXGXGXGXGXGXGXGXGXGXGXOX#X#X#X#X#X#X#X#X#X#X#X% #XAX1XGXGXGXGXGXGXGXGXGXGXGXGXGXGXGXGXOXAX#X#X#X#X% #X Xp t s t x 1XGXGX$XAX#X#X#X#X#X#X#X#X#X#X#X#X#X#X#X#X#X#X#X#X#X#X#X+X. . . _.FXGXGXOXDX@X. . . @X#X#X#X#X#X#X#X#X#X#X#X#X#X#X#X#X#X#X#X#X#X#XAX#XOXGXXX1XAX#X#X#X#X#X#X#X#X#X#X#X#XSX#X7X+X+X5 g i t t t s s s s s s s s s s t t d n +X+X#X#X#X#X#X#X#X#X#X#X#X#X#X#X#X#X#X#X#X#X#X#X#X#X#X#X#X#X#X#X#X#X#X#X#X#X#X#X",
"#X#X#X#X#X#X#X#X#X#X#X#X#X#X#X#X#X#X#X#X#X#X#X#X#X#X#X#X#X#X#X#X#X#X#X#X#X#X#X#X#X#X#X#X#X#X#X#X#X#X#X#X#X#X#X#X#X#X#X#X#X#X#X#X#X#X#X#X#X#X#X#X#X#X#X#X#X#X#X#X#X< SX&X%X=X=X%X&X%X%X:X:X&X:X%X%X*XhXdXHXsXwXeXeXeXwX4X3X4XkXhXdXxXeX4X0X4X3XpXlXwX4X0XsXeXwX2X4XlXkX0X0X0XpXfXeXeXeXeXwXxXxXsXeXwX3X4XuXuX4X0X0XpXpXlXcXlXvXlXlXlXlXkXnXnXnXkXpXvXMXnXvXlXlXpXpXzXxXpX0XkXkXsXdXxXsXuXfXfXzXvXMXMXcXcXuXsXsXwX4X3X4XuXfXxXfXfXxXsXqXpXzXxXuX0XuXqXsXsXsXsXsXzXqXwXqX3XeXwX0Xl @.v.l.v.8.+.H.BX@X#Xi.@.p.p.@.C.BX#X#X#X#X#X#X#X#X#X#X#X#X#X#X#X#X#X#X#X#X#X#X#X#X_.#XCXVX9.i.0.i.R.+XSX#X#X#X#X#X7X^ 0.a.p.a.p.y.+.H.CX#X#X#X#X#X#X#X#X#X#X#X#X#X#X#X#X#X#X#X#X#X#X#X#X#X#X#X#X#X#X#X#X#X#X#X#X#X#X#X#X#X#X#X#X#X#X#X#X#X#X#X#X#X#X#X#X#X#X#X#X#X#X#X#X#X#X#X#X#X#XZX@X#X#X#X#X#X#X#X#X#X#X#X#X#X#X@X. . . . . . . . . . . . . . . . CX#X#X#X#X#X#X#X#X#X#X#X#X#X_.+X. . . . . . . . . . . . . . . . +X#X#X#X#X#X#X@X7Xp t s t j . . . ).#X#X#X#X#X#X#X#X#X#X#X#X#X#X#X#X#X#X#X#X#X#X#X#X#X#X#XVX+XCX. . . +XZXAX#X#X#X#X#X#X#X#X#X#X#X#X#X#X#X#X#X#X#X#X#X#X#X#X#X#X#X. . . ZX#X#X#X#X#X#X#X#X#X#X_.mX@X+X+X#Xx p s t t s s s s s s s s s s s t t p N +X+X#X#X#X#X% #X#X#X#X#X#X#X#X#X#X#X#X#X#X#X#X#X#X#X#X#X#X#X#X#X#X#X#X#X#X#X#X#X#X#X",
"#X#X#X#X#X#X#X#X#X#X#X#X#X#X#X#X#X#X#X#X#X#X#X#X#X#X#X#X#X#X#X#X#X#X#X#X#X#X#X#X#X#X#X#X#X#X#X#X#X#X#X#X#X#X#X#X#X#X#X#X#X#X#X#X#X#X#X#X#X#X#X#X#X#X#X#X#X#X#X#X#XAX< =X%X&X=X&X&X%X%X%X:X:X&X%X:XeXdXdXxXfXeXeX2XwXwX3X3X4XkXlXzXxXsXsX0X0X4XlXfXrX4X3XgXeXqX0XpXpXpX0XpXzXzXsXeXeXeXeXqXuXsXsXwX4X4X0XxXxXfXfXuXzXfXpXpXkXkXkXlXlXkXnXnXnXkXpXMXvXkXlXlXkXkXpXlXkXzXpXpXkXkXzXxXsXfX0XpXkXzXxXlXcXlXpXuXsXwX4X3X3XuXsXgXsXxXfXsXfXsXqXpXnXuXpX4X3XqXwXsXsXfXxXfX4X2X3X3X0XfXi.7.&.*.d.f.+.K.+X7X` i.i.p.p.6.K.+X#X#X#X#X#X% #X#X#X#X#X#X#X#X#X#X#X#X#X#X#X#X#X_.VX7X' B.i.p.p.0.B.#X@X#X#X#X#X#X+XR.@.8.p.p.p.p.6.i.(.7X#X#X#X#X#X#X#X#X#X#X#X#X#X#X#X#X#X#X#X#X#X#X#X#X#X#X#X#X#X#X#X#X#X#X#X#X#X#X#X#X#X#X#X#X#X#X#X#X#X#X#X#X#X#X#X#X#X#X#X#X#X#X#X#X#X#X#X#X#X#X#X#X#X#X#X#X#X#X#X#X#X#X#X#X#X#X#X#X#X#X#X#X#X#X#X#X#X#X#X#X#X#X#X#X#X#X#X#X#X#X#X#X#X#X#X#X#X#X#X#X#X#X#X#X#X#X#X#X#X#X#X#X#X#X#X#X#X#X#X#X#X@X@Xp t s t d  XVX#X#X#X#X#X#X#X#X#X#X#X#X#X#X#X#X#X#X#X#X#X#X#X#X#X#X#X#X#X#X#X#X#X#X#X#X#X#X#X#X#X#X#X#X#X#X#X#X#X#X#X#X#X#X#X#X#X#X#X#X#X#X#X#X#X#X#X#X#X#X#X#X#X#X#X#X#X_.VX+X+X@XN f i t t t s s s s s s s s s s s t t p x +X+X#X#X#X#X#X#X#X#X#X#X#X#X#X#X#X#X#X#X#X#X#X#X#X#X#X#X#X#X#X#X#X#X#X#X#X#X#X#X#X#X#X#X",
"#X#X#X#X#X#X#X#X#X#X#X#X#X#X#X#X#X#X#X#X#X#X#X#X#X#X#X#X#X#X#X#X#X#X#X#X#X#X#X#X#X#X#X#X#X#X#X#X#X#X#X#X#X#X#X#X#X#X#X#X#X#X#X#X#X#X#X#X#X#X#X#X#X#X#X#X#X#X#X#X#X#XAX< =X%X&X=X&X&X%X:X&X%X&XhXeXsXsXxXfXfXeXwX2X3X4X4X3XpXlXkXsXxXpX0XfXfX0XpXsXdX3XwXgXdXdXgXdXqX4X0X0XlXnXgXsXeXwX2XqXuXsXgXqX4X3XuXxXxXfXxXfXzXxXuXpXpXkXkXlXlXnXnXnXzXkXvXvXlXlXcXcXvXlXlXbXcXlXkXnXvXpXfXxXfXuX0XpXkXlXkXzXlXlXpXuXsXqX4X3XuXzXwXsXsXsXsXuX0XqXgXzXzXxXpXpX3X2X3XqXsXsXsXxXqX3XfXpXpXJ.@.7.7.*.&.*...Z.. . W.6.i.p.p.6.s.mX@X#X#X#X#X#X#X#X#X#X#X#X#X#X#X#X#X#X#X#X#X#X#XAX7XZ.6.@.p.a.p.a.8.;.CX#X% #X_.VXCXB.+.p.p.i.8.8.i.+.S.+XAX#X#X#X#X#X#X#X#X#X#X#X#X#X#X#X#X#X#X#X#X#X#X#X#X#X#X#X#X#X#X#X#X#X#X#X#X#X#X#X#X#X#X#X#X#X#X#X#X% #X#X#X#X#X#X#X#X#X#X#X#X#X#X#X#X#X#X#X#X#X#X#X#X#X#X#X#X#X#X#X#X#X#X#X#X#X#X#X#X#X#X#X#X#X#X#X#X#X#X#X#X#X#X#X#X#X#X#X#X#X#X#X#X#X#X#X#X#X#X#X#X#X#X#X#X#X#X#X#X#X#X#X#X#X#X#X#X#X#X#XVX@Xi t s t t n +X_.#X#X#X#X#X#X#X#X#X#X#X#X#X#X#X#X#X#X#X#X#X#X#X#X#X#X#X#X#X#X#X#X#X#X#X#X#X#X#X#X#X#X#X#X#X#X#X#X#X#X#X#X#X#X#X#X#X#X#X#X#X#X#X#X#X#X#X#X#X#X#X#X_.#XVX X+X XN g i t t t s s s s s s s s s s s s 9 t p x  X+X@X#X#X#X#X#X#X#X#X#X#X#X#X#X#X#X#X#X#X#X#X#X#X#X#X#X#X#X#X#X#X#X#X#X#X#X#X#X#X#X#X#X#X#X",
"#X#X#X#X#X#X#X#X#X#X#X#X#X#X#X#X#X#X#X#X#X#X#X#X#X#X#X#X#X#X#X#X#X#X#X#X#X#X#X#X#X#X#X#X#X#X#X#X#X#X#X#X#X#X#X#X#X#X#X#X#X#X#X#X#X#X#X#X#X#X#X#X#X#X#X#X#X#X#X#X#X#X#X< < =X%X%X&X%X%X=X=X&XdXrXsXsXsXfXfXsXeX2X3XuXpXpXlXlXlXfXdXuX0X0XxXMXkXqXsXwX3XwXsXsXgXgXgXgXxXuX0XuXfXsXeXwXeXwXfXkXuXsXqX3X4XkXuXsXxXfXuXpXkXpXpXpXnXzXMXMXnXnXnXkXkXcXcXlXlXlXvXvXlXlXlXcXcXlXvXlXuXxXxXfX0X0XkXnXnXlXkXkXpXkXzXsXqX4X3XuXpXuXqX4X0XsXfX0XpXfXgXxXzXpXpXpX4XwX3X4XqXsXfXsXfXfX[.E ..E =.8.@.7.&.*.&.n.GX`.p.6.p.i.i.@.P BX#X#X#X#X#X#X#X#X#X#X#X#X#X#X#X#X#X#X#X#X#X#X@X`.-.@.p.a.6.a.p.+.T mX+X#X_.VX+X/ =.7.i.p.8.8.i.i.6.9.VXBX_.#X#X#X#X#X#X#X#X#X#X#X#X#X#X#X#X#X#X#X#X#X#X#X#X#X#X#X#X#X#X#X#X#X#X#X#X#X#X#X#X#X#X#X#X#X#X#X#X#X#X#X#X#X#X#X#X#X#X#X#X#X#X#X#X#X#X#X#X#X#X#X#X#X#X#X#X#X#X#X#X#X#X#X#X#X#X#X#X#X#X#X#X#X#X#X#X#X#X#X#X#X#X#X#X#X#X#X#X#X#X#X#X#X#X#X#X#X#X#X#X#X#X#X#X#X#X#X#X#X#X#X#X#X#X#X#X#X#X#X#X Xp t s s t d +X@XmX#X#X#X#X#X#X#X#X#X#X#X#X#X#X#X#X#X#X#X#X#X#X#X#X#X#X#X#X#X#X#X#X#X#X#X#X#X#X#X#X#X#X#X#X#X#X#X#X#X#X#X#X#X#X#X#X#X#X#X#X#X#X#X#X#X#X#X#X_.#X7X+X+X Xa j p s t t s s s s s s s s s s s s t t t d e +X+X@X#X#X#X#X#X#X#X#X#X#X#X#X#X#X#X#X#X#X#X#X#X#X#X#X#X#X#X#X#X#X#X#X#X#X#X#X#X#X#X#X#X#X#X#X#X",
"#X#X#X#X#X#X#X#X#X#X#X#X#X#X#X#X#X#X#X#X#X#X#X#X#X#X#X#X#X#X#X#X#X#X#X#X#X#X#X#X#X#X#X#X#X#X#X#X#X#X#X#X#X#X#X#X#X#X#X#X#X#X#X#X#X#X#X#X#X#X#X#X#X#X#X#X#X#X#X#X#X#X#X#X< SX%X%X%X%X&X&X%X:XsXwXeXsXsXsXsXeX3X3XfXzXzXpXvXlXpXfXxXfX4XfXlXkXuXuXsXsX3XeXsXsXfXfXfXfXxXxXfXfXgXgXsXwXeX3X3XpXpXqX4X3XpXbXlXzXfXuXpXpXpXpXkXkXnXkXlXMXnXkXkXlX9XvXlXlXvXMXlXlXcXcXlXMXMXlXlXkXsXsXuX0X0XpXlXMXnXvXlX0XuXgXxXqXqX4X4XuXkXpXpXpXpXpXfXqX0XuXzXxXuXpXpXlXcXpX3XwX4XuX4XxXfX0X[.| *...u.z.*.&.7.7.&.| n.C.i.y.i.i.8.+.L.+X#X#X#X#X#X#X#X#X#X#X#X#X#X#X#X#X#X#X#X#X#XVX$Xs.[ 8.8.p.[ 0.+.*.3.&.FX. . CXS.3.7.i.p.i.8.i.p.i.p.@.s.VX@XSX#X#X#X#X#X#X#X#X#X#X#X#X#X#X#X#X#X#X#X#X#X#X#X#X#X#X#X#X#X#X#X#X#X#X#X#X#X#X#X#X#X#X#X#X#X#X#X#X#X#X#X#X#X#X#X#X#X#X#X#X#X#X#X#X#X#X#X#X#X#X#X#X#X#X#X#X#X#X#X#X#X#X#X#X#X#X#X#X#X#X#X#X#X#X#X#X#X#X#X#X#X#X#X#X#X#X#X#X#X#X#X#X#X#X#X#X#X#X#X#X#X#X#X#X#X#X#X#X#X#X#X#X#X#X#X#X#X#X#X+Xf t s s s t j +X@XSX#X#X#X#X#X#X#X#X#X#X#X#X#X#X#X#X#X#X#X#X#X#X#X#X#X#X#X#X#X#X#X#X#X#X#X#X#X#X#X#X#X#X#X#X#X#X#X#X#X#X#X#X#X#X#X#X#X#X#X#X#X#X#X% #X@X X+X+X#XN g i s 9 t t s s s s s s s s s s s s t t s d N +X+X@X#X#X#X#X#X#X#X#X#X#X#X#X#X#X#X#X#X#X#X#X#X#X#X#X#X#X#X#X#X#X#X#X#X#X#X#X#X#X#X#X#X#X#X#X#X#X#X",
"#X#X#X#X#X#X#X#X#X#X#X#X#X#X#X#X#X#X#X#X#X#X#X#X#X#X#X#X#X#X#X#X#X#X#X#X#X#X#X#X#X#X#X#X#X#X#X#X#X#X#X#X#X#X#X#X#X#X#X#X#X#X#X#X#X#X#X#X#X#X#X#X#X#X#X#X#X#X#X#X#X#X#X#X#X< 1X&X%X&X%X%X&X&XeXeXwXsXfXsXsXwXwXfXnXkXpXuXzXpXzXxXxXqX0XkXlXkXpXqXwXeXqXsXeXeXsXsXfXxXfXgXgXgXhXwXsXsXwXqX3XuXuXuX0X3XkXbXcXvXlXlXcXlXkXpXkXzXMXkXlXlXlXkXvXcXcXcXlXMXnXlXlXlXMXvXvXMXvXlXlXkXsXxXuX0X0XlXvXnXMXMXpXeXhXfXfXfXfX4X0XzXzXpXqX0X0XpXpXqXuXpXuXzXuXpX0XkXvXlXkXwXqX4X4XfXuX0X[.3.....u.M.k.R U U +.+.s.s.@.i.8.8.i.+.C.BX#X#X#X#X#X#X#X#X#X#X#X#X#X#X#X#X#X#X#X#X#X@X#X8.s.H.+.s.CX;.| 3...| ..Z.DXS.5.&.i.i.6.8.8.p.y.6.i.i.+.B.7XVX#X#X#X#X#X#X#X#X#X#X#X#X#X#X#X#X#X#X#X#X#X#X#X#X#X#X#X#X#X#X#X#X#X#X#X#X#X#X#X#X#X#X#X#X#X#X#X% #X#X#X#X#X#X#X#X#X#X#X#X#X#X#X#X#X#X#X#X#X#X#X#X#X#X#X#X#X#X#X#X#X#X#X#X#X#X#X#X#X#X#X#X#X#X#X#X#X#X#X#X#X#X#X#X#X#X#X#X#X#X#X#X#X#X#X#X#X#X#X#X#X#X#X#X#X#X#X#X#X#X#X#X#X#X#X#X#X#X#X+Xe t s s s t 9 j CX7XSX#X#X#X#X#X#X#X#X#X#X#X#X#X#X#X#X#X#X#X#X#X#X#X#X#X#X#X#X#X#X#X#X#X#X#X#X#X#X#X#X#X#X#X#X#X#X#X#X#X#X#X#X#X#X#X#X#X#X#X#X#X7X+X+X@X` x d i t t t t s s s s s s s s s s s s t t t i g 8 +X+X#X#X#X#X#X#X#X#X#X#X#X#X#X#X#X#X#X#X#X#X#X#X#X#X#X#X#X#X#X#X#X#X#X#X#X#X#X#X#X#X#X#X#X#X#X#X#X#X#X#X",
"#X#X#X#X#X#X#X#X#X#X#X#X#X#X#X#X#X#X#X#X#X#X#X#X#X#X#X#X#X#X#X#X#X#X#X#X#X#X#X#X#X#X#X#X#X#X#X#X#X#X#X#X#X#X#X#X#X#X#X#X#X#X#X#X#X#X#X#X#X#X#X#X#X#X#X#X#X#X#X#X#X#X#X#X#X#X7 mX&X%X&X&X%XeXsXwXwXsXsXwXsXsXfXnX;XgXuX4X0XlXpXuXqXuXkXlXkXkXpX0XqXeXsXeXeXeXeXsXxXzXzXnXfXhXeXqXfXsXsXwX3X4XpX0X0X4XlXbXcXMXcXcXcXbXvXvXlXlXzXkXkXlXlXvXMXvXcXcXlXnXvXkXkXkXvXvXvXvXlXkXMXkXxXxXfXpXpXpXlXvXMXnX0XsXsXqX4XqX4XqXuXkXuXuXhXgXuX0XpXkXuX0XuXpX0XpXpXnXnXnXnXuXqX4X0XuX0XfX5.| 5.5.3.| I M.{.gX{.=.p.@.i.i.8.6.@.+.R.BX#X#X#X#X#X#X#X#X#X#X#X#X#X#X#X#X#X#X#X#X#X#X$ K.+.-.8.8.] (.+.3.U =.b.3.*.5.&.8.8.p.H.p.y.y.0.0.p.9.8.i.SX@X#X#X#X#X#X#X#X#X#X#X#X#X#X#X#X#X#X#X#X#X#X#X#X#X#X#X#X#X#X#X#X#X#X#X#X#X#X#X#X#X#X#X#X#X#X#X#X#X#X#X#X#X#X#X#X#X#X#X#X#X#X#X#X#X#X#X#X#X#X#X#X#X#X#X#X#X#X#X#X#X#X#X#X#X#X#X#X#X#X#X#X#X#X#X#X#X#X#X#X#X#X#X#X#X#X#X#X#X#X#X#X#X#X#X#X#X#X#X#X#X#X#X#X#X#X#X#X#X#X#X#X#X#X#X#X#X#X#X#X@X@Xi t s s s t t g  X+X#X#X#X#X#X#X#X#X#X#X#X#X#X#X#X#X#X#X#X#X#X#X#X#X#X#X#X#X#X#X#X#X#X#X#X#X#X#X#X#X#X#X#X#X#X#X#X#X#X#X#X#X#X#X_.#XVX7X+X+X X_.v g p s t t t s s s s s s s s s s s s s s t t t d x @X+X X#X#X#X#X#X#X#X#X#X#X#X#X#X#X#X#X#X#X#X#X#X#X#X#X#X#X#X#X#X#X#X#X#X#X#X#X#X#X#X#X#X#X#X#X#X#X#X#X#X#X#X#X",
"#X#X#X#X#X#X#X#X#X#X#X#X#X#X#X#X#X#X#X#X#X#X#X#X#X#X#X#X#X#X#X#X#X#X#X#X#X#X#X#X#X#X#X#X#X#X#X#X#X#X#X#X#X#X#X#X#X#X#X#X#X#X#X#X#X#X#X#X#X#X#X#X#X#X#X#X#X#X#X#X#X#X#X#X#X#X#X< % =X:X%X%XeXeXwX3XsXsXsXfXfXnXkXhXgX0X0XkXlXkXpX0XkXlXkXkXkXkX0XuXfXsXsXeXeX3X4XsXqXpXpXsXeXwXsXsXsXsX3X3X3X0XpX0X0XcXbXvXMXcXcXcXbXbX'.bXbXlXkXlXcXcXcXvX[.vXcXMXnXlXlXkXcXcXlXcXlXkXnXnXMXnXpXzXMXMXuX0XvXvXlXfXsX3X3X3X3XlXlXqXfX4XwXxXxXsXfXuXpXpXuX4X0XpXpXpXzXkXkXkXkX0X4X4X0XMXt.3.3.+.| U G.{.=X=X%X%X:XK 8.i.i.y.@.7.C.7XVX#X#X#X#X#X#X#X#X#X#X#X#X#X#X#X#X#X#X#X#X#X#X7X_.8.+.p.@.L.K.+.7.3.&.s.8.&.7.8.i.@.U.. o.+.7.-.-.i.p.i.0.#XVX#X#X#X#X#X#X#X#X#X#X#X#X#X#X#X#X#X#X#X#X#X#X#X#X#X#X#X#X#X#X#X#X#X#X#X#X#X#X#X#X#X#X#X#X#X#X#X#X#X#X#X#X#X#X#X#X#X#X#X#X#X#X#X#X#X#X#X#X#X#X#X#X#X#X#X#X#X#X#X#X#X#X#X#X#X#X#X#X#X#X#X#X#X#X#X#X#X#X#X#X#X#X#X#X#X#X#X#X#X#X#X#X#X#X#X#X#X#X#X#X#X#X#X#X#X#X#X#X#X#X#X#X#X#X#X#X#X#X#X#X+Xx 9 s s s s t t p , +X+XVX_.#X#X#X#X#X#X#X#X#X#X#X#X#X#X#X#X#X#X#X#X#X#X#X#X#X#X#X#X#X#X#X#X#X#X#X#X#X#X#X#X#X#X#X#X#X#X#X#X@X X+X+X XSXv j d i t t t t s s s s s s s s s s s s s s t t t i f n +X+X@X#X#X#X#X#X#X#X#X#X#X#X#X#X#X#X#X#X#X#X#X#X#X#X#X#X#X#X#X#X#X#X#X#X#X#X#X#X#X#X#X#X#X#X#X#X#X#X#X#X#X#X#X#X#X",
"#X#X#X#X#X#X#X#X#X#X#X#X#X#X#X#X#X#X#X#X#X#X#X#X#X#X#X#X#X#X#X#X#X#X#X#X#X#X#X#X#X#X#X#X#X#X#X#X#X#X#X#X#X#X#X#X#X#X#X#X#X#X#X#X#X#X#X#X#X#X#X#X#X#X#X#X#X#X#X#X#X#X#X#X#X#X#X#X< ).rX:X:XdXdX2X3XqXsXsXfXxXkXxXdX4X4X0XuXzXkXkXpXkXkXpXpXpXkXkXpXzXxXfXwXeXwX4X3X3X4XuXsXsXwXwXsXsXsX3X4X4X0X0X0XlXbXcXvXMXcXlXvXcXbXbXbXbXbXlXlXlXbXcXcXvXMXlXMXMXvXlXlXvXvXcXbXlXzXnXnXMXkXlXlXMXxXzXqXpXcXkXsXsXqX4X2XzXbXbXlXkXvXkXwXsXuXuXuXuXkXkXpXpXpXpXpXpXpXpXpXpXpXpXkXnXh.:.O.4.J.{.-X&X&X=X&X%X%X&XH O.7.p.@.H.@XBXVX_.#X#X#X#X#X#X#X#X#X#X#X#X#X#X#X#X#X#X#X#X#X#XVX7Xb.+.i.y.s.9.6.i.8.&.+.7.8.8.p.a.3.Y.CX;.| i.y.p.p.i.8.8.P BX#X#X#X#X#X#X#X#X#X#X#X#X#X#X#X#X#X#X#X#X#X#X#X#X#X#X#X#X#X#X#X#X#X#X#X#X#X#X#X#X#X#X#X#X#X#X#X#X#X#X#X#X#X#X#X#X#X#X#X#X#X#X#X#X#X#X#X#X#X#X#X#X#X#X#X#X#X#X#X#X#X#X#X#X#X#X#X#X#X#X#X#X#X#X#X#X#X#X#X#X#X#X#X#X#X#X#X#X#X#X#X#X#X#X#X#X#X#X#X#X#X#X#X#X#X#X#X#X#X#X#X#X#X#X#X#X#X#X#X#X@X Xp 9 s s s s s t t d N  X+X XAX#X_.#X#X#X#X#X#X#X#X#X#X#X#X#X#X#X#X#X#X#X#X#X#X#X#X#X#X#X#X#X#X#X#X#X#X#X#X#X#X#X@X X+X+X+X@X` x g p i t t t t s s s s s s s s s s s s s s s t t t s d x #X+X+X#X#X#X#X#X#X#X#X#X#X#X#X#X#X#X#X#X#X#X#X#X#X#X#X#X#X#X#X#X#X#X#X#X#X#X#X#X#X#X#X#X#X#X#X#X#X#X#X#X#X#X#X#X#X#X#X#X",
"#X#X#X#X#X#X#X#X#X#X#X#X#X#X#X#X#X#X#X#X#X#X#X#X#X#X#X#X#X#X#X#X#X#X#X#X#X#X#X#X#X#X#X#X#X#X#X#X#X#X#X#X#X#X#X#X#X#X#X#X#X#X#X#X#X#X#X#X#X#X#X#X#X#X#X#X#X#X#X#X#X#X#X#X#X#X#X#X#XD ).:X:XeXeX2X3X4XsXsXsXnXkXdXdX4X3X0XzXxXpXpXpXpXuXzXpXpXkXkXkXpXxXxXzXeXeX3X3X2X3XuXxXsXsX3X4XsXeXqX4X4X0X0X4XlXbXcXbXvXcXlXcXbXbXbXbXbXbXgXxXlXcXcXlXcXvXvXlXkXkXkXcX9X'.bXbXkXnXgXxXlXlXlXlXxXhXxXuX0XpXzXsXfX4X3X3XcXbXcXcXbX8XbXlXqX4X4XuXpXlXlXlXlXlXlXkXkXpXkXkXkXkXlXcXlX6X>.,X>X%X%X&X&X:X%X%X%X%X&XY } =.8.U ;.BX7X7XSX#X#X#X#X#X#X#X#X#X#X#X#X#X#X#X#X#X#X#X#X#X_.. `.7.@.8.p.8.8.p.y.i.i.8.8.i.p.p.8.| l.Q.T +.y.p.y.i.i.i.@.s.7XAX#X#X#X#X#X#X#X#X#X#X#X#X#X#X#X#X#X#X#X#X#X#X#X#X#X#X#X#X#X#X#X#X#X#X#X#X#X#X#X#X#X#XVXVX#X_.#X#X#X#X#X#X#X#X#X#X#X#X#X#X#X#X#X#X#X#X#X#X#X#X#X#X#X#X#X#X#X#X#X#X#X#X#X#X#X#X#X#X#X#X#X#X#X#X#X#X#X#X#X#X#X#X#X#X#X#X#X#X#X#X#X#X#X#X#X#X#X#X#X#X#X#X#X#X#X#X#X#X#X#X#X#X#X#X#X#X#X#X#X#X+X] s t s s s s s t t t p x ]  X+X+X7XAX#X#X#X#X#X#X#X#X#X#X#X#X#X#X#X#X#X#X#X#X#X#X#X#X#X#X#X#X#X#XVX@X X+X+X+X X#X5 e j f p s t t t t s s s s s s s s s s s s s s s s s t t s p j ` +X+X7X#X#X#X#X#X#X#X#X#X#X#X#X#X#X#X#X#X#X#X#X#X#X#X#X#X#X#X#X#X#X#X#X#X#X#X#X#X#X#X#X#X#X#X#X#X#X#X#X#X#X#X#X#X#X#X#X#X#X#X",
"#X#X#X#X#X#X#X#X#X#X#X#X#X#X#X#X#X#X#X#X#X#X#X#X#X#X#X#X#X#X#X#X#X#X#X#X#X#X#X#X#X#X#X#X#X#X#X#X#X#X#X#X#X#X#X#X#X#X#X#X#X#X#X#X#X#X#X#X#X#X#X#X#X#X#X#X#X#X#X#X#X#X#X#X#X#X#X#X#X#X7 *X:XsXeXwXwXqXuXfXxXnXxXdXqX3X2X0XkXnXzXpXpXpXxXzXpXpXpXzXkXkXzXxXgXeXeX3X2X2X3XqXgXsXsX2X3X4XfXsX0X0X0XpX0XkXbXcXlXlXlXlXkXlXcXbXbXbXbXvXMXvXcXcXcXcXcXlXlXlXkXcXbXbXcXbXcXkXkXxXdXuXpXlXkXuXxXxXfXuXpXzXxXfX4X2XkXbXbXcXcXbXcXbXbXbXkX0XkXkXkXkXlXlXcXcXcXcXlXkXkXkXkXlXlXlX{.{.-X<X-X%X%X%X%X%X%X%X%X:XU E l.k.j.l.y.-.mXBX_.#X#X#X#X#X#X#X#X#X#X#X#X#X#X#X#X#X#X#XSX+X#Xb.+.7.8.8.7.8.8.8.i.8.i.p.i.7.3.3.*.&.+.3.7.8.6.@.i.i.i.@.0.#XVX#X#X#X#X#X#X#X#X#X#X#X#X#X#X#X_.AX7XVX#XSX#X#X#X#X#X#XSXVXBXBXBXVX_.#X#X#X#X#XSX7XVX_.#XVX#X#X#X#X#X#X#X#X#X#X#X#X#X#X#X#X#X#X#X#X#X#X#X#X#X#X#X#X#X#X#X#X#X#X#X#X#X#X#X#X#X#X#X#X#X#X#X#X#X#X#X#X#X#X#X#X#X#X#X#X#X#X#X#X#X#X#X#X#X#X#X#X#X#X#X#X#X#X#X#X#X#X#X#X#X#X#X#X#X#X#X#X#X#X#X#X+Xn t t s s s s s s s t t s d g N SX X+X+X+X X X7X@X@XVX@X#XVX#XVX#XVX#XVX@X@X@X7X7X X X+X+X+X+X+X X#X5 v j f d i s t t t t t s s s s s s s s s s s s s s s s s t t t t p g ,  X+X X#X#X#X#X#X#X#X#X#X#X#X#X#X#X#X#X#X#X#X#X#X#X#X#X#X#X#X#X#X#X#X#X#X#X#X#X#X#X#X#X#X#X#X#X#X#X#X#X#X#X#X#X#X#X#X#X#X#X#X#X#X#X",
"#X#X#X#X#X#X#X#X#X#X#X#X#X#X#X#X#X#X#X#X#X#X#X#X#X#X#X#X#X#X#X#X#X#X#X#X#X#X#X#X#X#X#X#X#X#X#X#X#X#X#X#X#X#X#X#X#X#X#X#X#X#X#X#X#X#X#X#X#X#X#X#X#X#X#X#X#X#X#X#X#X#X#X#X#X#X#X#X#X_.AX7 yXwXwXeXwXsXzXzXnXzXwXsXwX3X3X0XkXnXnXpXpXkXxXzXpXzXpXlXzXvXlXkXeXtXeXqX3X2X3XsXsXsXwX3X2X0XzXxXfXpX0XpX0XkXcXkXpXkXkXkXkXkXkXcXbXbXbXbXcXcXcXcXcXcXbXcXvXlXcXbXbXcXcXbXvXnXvXuXeXeX3XpXkXfXxXfXzXnXMXzXxXuX4X3XlXbXcXlXcXcXbXcXbXbXcXkXkXkXlXlXlXcXlXcXlXcXcXcXlXlXlXvXk.f.I.S.G G G ;X%X%X%X%X%X%X%Xz.I u...R k.z.=.@.s.#XVX#X#X#X#X#X#X#X#X#X#X#X#X#X#X#XSX#XBX+X. `.=.5.&.=.=.8.7.=.7.8.T 8.8.i.8.8.&.3.&.7.&.&.&.+.9.i.7.8.8.+.S.7X#X#X#X#X#X#X#X#X#X#X#X#X_.mX@XBXBX@X` _.7XAX#X#X#XSX#XBXCX#XZ.K.Q #XVX#X#X#X#XSXBX`.-.a.-.` 7X#X#X#X#X#X#X#X#X#X#X#X#X#X#X#X#X#X#X#X#X#X#X#X#X#X#X#X#X#X#X#X#X#X#X#X#X#X#X#X#X#X#X#X#X#X#X#X#X#X#X#X#X#X#X#X#X#X#X#X#X#X#X#X#X#X#X#X#X#X#X#X#X#X#X#X#X#X#X#X#X#X#X#X#X#X#X#X#X#X#X#X#X#X#XmX#X+Xn s 9 s s s s s s s s t t t t i d f j v , ` ] #XVX@X X X X X X X X X X@XVX#X_.8 ` n N x j g f p i s t t t t t t s s s s s s s s s s s s s s s s s s s t 9 t s p g N  X+X X@X#X#X#X#X#X#X#X#X#X#X#X#X#X#X#X#X#X#X#X#X#X#X#X#X#X#X#X#X#X#X#X#X#X#X#X#X#X#X#X#X#X#X#X#X#X#X#X#X#X#X#X#X#X#X#X#X#X#X#X#X#X#X#X#X",
"#X#X#X#X#X#X#X#X#X#X#X#X#X#X#X#X#X#X#X#X#X#X#X#X#X#X#X#X#X#X#X#X#X#X#X#X#X#X#X#X#X#X#X#X#X#X#X#X#X#X#X#X#X#X#X#X#X#X#X#X#X#X#X#X#X#X#X#X#X#X#X#X#X#X#X#X#X#X#X#X#X#X#X#X#X#X#X#X#X#X_.AX_ jXqXsXwX3XsXxXxXfXsXsXwX3X3X4XkXkXnXzXpXpXxXzXpXzXkXlXnXnXkXlXsXeXsXsXsX4XxXgXsXwXwX3X3XpXlXzXxXpXpXpX0XlXcXkXnXnXnXkXvXkXkXpXlXlXbXbXbXcXcXcXcXbXbXbXbXbXcXcXcXbXcXbXvXnXfXqXsXqX3X0XkXzXxXuXuXvXlXzXzX0X4X4XvXcXcXlXlXbXbXbXMXvXcXkXnXkXkXkXcXcXcXcXcXcXlX8X{ 6X,XJ.T n.B.m.m.m.m.G I.-X-X>X-X2X{.I | t.E t.t.R Y l.7.^ +X#X#X#X#X#X#X#X#X#X#X#X#X#X#X#X#XVX(.Z.;.T 3.9.0.i.i.i.i.i.i.i.8.8.i.8.i.i.8.*.3.&.7.&.| &.VX-.| +.+.s.SX@X#X#X#X#X#X#X#X#X#X#X#X#X#XBXSXK.L.K.9.0.R.BXAX#XmX@XBX!.;.s.7.@.@.H.7X#X#X#X#X7XVXs.a.a.@.K.BX#X#X#X#X#X#X#X#X#X#X#X#X#X#X#X#X#X#X#X#X#X#X#X#X#X#X#X#X#X#X#X#X#X#X#X#X#X#X#X#X#X#X#X#X#X#X#X#X#X#X#X#X#X#X#X#X#X#X#X#X#X#X#X#X#X#X#X#X#X#X#X#X#X#X#X#X#X#X#X#X#X#X#X#X#X#X#X#X#X#X#X#X#X#X#X#X#X+X@Xd t t s s s s s s s s s s t t t t t s s i i i p d d d d d d d d d p p i i i s s t t t t t t t t s s s s s s s s s s s s s s s s s s s s s t t t t i f x SX X+X+X@X#X#X#X#X#X#X#X#X#X#X#X#X#X#X#X#X#X#X#X#X#X#X#X#X#X#X#X#X#X#X#X#X#X#X#X#X#X#X#X#X#X#X#X#X#X#X#X#X#X#X#X#X#X#X#X#X#X#X#X#X#X#X#X#X#X#X#X",
"#X#X#X#X#X#X#X#X#X#X#X#X#X#X#X#X#X#X#X#X#X#X#X#X#X#X#X#X#X#X#X#X#X#X#X#X#X#X#X#X#X#X#X#X#X#X#X#X#X#X#X#X#X#X#X#X#X#X#X#X#X#X#X#X#X#X#X#X#X#X#X#X#X#X#X#X#X#X#X#X#X#X#X#X#X#X#X#X#X#X#X#X_ $XsXqXwX3X3X3XfXxXfXsXwX4X3X0XzXkXnXnXpXkXxXzXkXpXkXlXnXnXkXlXfXeXwXsXsXhXhXgXsXsXwX3X3XlXlXkXzXpXpXpXpXkXcXzXnXnXnXMXMXMXvXlXkXkXcXbXbXbXbXcXbXbXbXvXbXbXbXcXbXcXcXbXbXvXuXeXqX3X3X0XkXkXxXuXzXvXlXxXzX0XuX0XvXvXlXlXlXbXcXvX'.vXvXlXlXlXvXcXlXcXcXcXcXcXbXN.,X,X,Xf.n.b.m.B.m.m.w.w.G I.>X:XdX-X-X:X{.3.5.5.t.t.E E U Z.. #X_.#X#X#X#X#X#X#X#X#X#X#X#X#XBX$Xi.3.U +.8.0.s.i.p.i.i.y.i.y.i.i.i.8.i.8.=.7.3.3.+.3.| A.. ` 0.-.L.VXBX_.% #X#X#X#X#X#X#X#X#X#X#XBXW.9.@.6.p.-.s.p.L.+X+X. +X;.i.8.8.p.i.@.s.@X@X% #X#X+XC.@.G -.y.a.`.VX#X#X#X#X#X#X#X#X#X#X#X#X#X#X#X#X#X#X#X#X#X#X#X#X#X#X#X#X#X#X#X#X#X#X#X#X#X#X#X#X#X#X#X#X#X#X#X#X#X#X#X#X#X#X#X#X#X#X#X#X#X#X#X#X#X#X#X#X#X#X#X#X#X#X#X#X#X#X#X#X#X#X#X#X#X#X#X#X#X#X#X#X#X#X#X#X#X X+Xx s 9 t s s s s s s s s s s s s s s t t t t t t t t t t t t t t t t t t t t t s s s s s s s s s s s s s s s s s s s s s s s s s t t t t s p g v #X+X+X X@X#X#X#X#X#X#X#X#X#X#X#X#X#X#X#X#X#X#X#X#X#X#X#X#X#X#X#X#X#X#X#X#X#X#X#X#X#X#X#X#X#X#X#X#X#X#X#X#X#X#X#X#X#X#X#X#X#X#X#X#X#X#X#X#X#X#X#X#X#X#X",
"#X#X#X#X#X#X#X#X#X#X#X#X#X#X#X#X#X#X#X#X#X#X#X#X#X#X#X#X#X#X#X#X#X#X#X#X#X#X#X#X#X#X#X#X#X#X#X#X#X#X#X#X#X#X#X#X#X#X#X#X#X#X#X#X#X#X#X#X#X#X#X#X#X#X#X#X#X#X#X#X#X#X#X#X#X#X#X#X#X#X#X#X#XD jXqX4XwX2X2X4XxXfXsXwX3X3XuXnXnXzXuXkXzXnXzXkXkXkXkXkXlXlXcXlXqXeXwXsXgXsXsXfXsXqX3X3XkXlXkXkXlXkXkXpXpXlXlXzXkXlXlXvXMXvXlXlXlXlXcXbXbXcXbXvX'.J.h f.[.vXbXcXcXbXcXbXbXcXeXwX4X3XuXlXkXxXzXzXvXnXnXzXpX4XpXvXvXvXlXlXbXcXvXMXvXlXcXbXcXLXLXbXcXcXbXvX6X,X,X,X,X,Xg.b.b.w.B.m.m.m.w.w.w.Y.L.[ [ [ hX:Xl.+.3.5.5.t.5.U l.(.BX#X#X#X#X#X#X#X#X#X#X#X#XVX#X7X$X8.+.@.7.+.@.i.p.p.p.a.6.6.i.@.8.7.7.i.9.&.7.&.3.| 3.C.+X#X7X7X7X+X@X_.#X#X#X#X#X#X#X#X#X#X#X#XVX`.H.a.8.a.a.s.s.0.9.;.;./ ;.-.a.p.i.9.0.i.8.!.CXVX_.BXP 6.y.s.-.p.y.F.BX#X#X#X#X#X#X#X#X#X#X#X#X#X#X#X#X#X#X#X#X#X#X#X#X#X#X#X#X#X#X#X#X#X#X#X#X#X#X#X#X#X#X#X#X#X#X#X#X#X#X#X#X#X#X#X#X#X#X#X#X#X#X#X#X#X#X#X#X#X#X#X#X#X#X#X#X#X#X#X#X#X#X#X#X#X#X#X#X#X#X#X#X#X#X% #X#X#X@X+X#Xg s t t t s s s s s s s s s s s s s s s s s s s s s s s s s s s s s s s s s s s s s s s s s s s s s s s s s s s s t t t t t s p f e SX X+X+X@X#X#X#X#X#X#X#X#X#X#X#X#X#X#X#X#X#X#X#X#X#X#X#X#X#X#X#X#X#X#X#X#X#X#X#X#X#X#X#X#X#X#X#X#X#X#X#X#X#X#X#X#X#X#X#X#X#X#X#X#X#X#X#X#X#X#X#X#X#X#X#X#X#X#X",
"#X#X#X#X#X#X#X#X#X#X#X#X#X#X#X#X#X#X#X#X#X#X#X#X#X#X#X#X#X#X#X#X#X#X#X#X#X#X#X#X#X#X#X#X#X#X#X#X#X#X#X#X#X#X#X#X#X#X#X#X#X#X#X#X#X#X#X#X#X#X#X#X#X#X#X#X#X#X#X#X#X#X#X#X#X#X#X#X#X#X#X% #XAX_ yXtXwXwXeX2XsXgXsXwX3X3XuXkXxXzX4XeXxXnXzXkXlXkXkXkXkXzXgXxXdXrXwXeXsXsXfXsXsXwX3X2XkXcXkXkXlXkXkXpXpXlXcXvXvXvXcXvXvXnXlXlXcXlXcXbXbXvX'.G.l.v.c.v.=.v.f.'.cXbXbXbXbXbXkXfXuXpXvXvXzXxXuXpXMXMXnXpXpXuXpXcXcXvXlXcXbXcXMXvXlXlXbXbXbXbX<.,.LXbX,X,X,X,X,X,X>X,Xz.n.b.b.m.m.m.w.m.n.m.L.L.C.C.H.[ .Xk.| 7.*.*.3.5.5.O.=.#X@X#X#X#X#X#X#X#X#X#X#XVX` K.L.` K.+.+.+.H.-.y.a.a.6.C._.W.`.S.+.&.*.&.T 7.+.0.(.R.^ +XVX#X#XVX#X#X#X#X#X#X#X#X#X#X#X#X#X#XAXVX+XC.8.s.7.8.9.q.i.9.9.7.*...*.i.p.a.8.0.-.p.7.8.R.+X7X7X-.@.p.0.a.p.p.F.7X#X#X#X#X#X#X#X#X#X#X#X#X#X#X#X#X#X#X#X#X#X#X#X#X#X#X#X#X#X#X#X#X#X#X#X#X#X#X#X#X#X#X#X#X#X#X#X#X#X#X#X#X#X#X#X#X#X#X#X#X#X#X#X#X#X#X#X#X#X#X#X#X#X#X#X#X#X#X#X#X#X#X#X#X#X#X#X#X#X#X#X#X#X#X#X#X#X#XmX#X X+XSXg i s 9 t s s s s s s s s s s s s s s s s s s s s s s s s s s s s s s s s s s s s s s s s s s s s s t t t t t s i p f x `  X+X+X X#X#X#X#X#X#X#X#X#X#X#X#X#X#X#X#X#X#X#X#X#X#X#X#X#X#X#X#X#X#X#X#X#X#X#X#X#X#X#X#X#X#X#X#X#X#X#X#X#X#X#X#X#X#X#X#X#X#X#X#X#X#X#X#X#X#X#X#X#X#X#X#X#X#X#X#X#X#X",
"#X#X#X#X#X#X#X#X#X#X#X#X#X#X#X#X#X#X#X#X#X#X#X#X#X#X#X#X#X#X#X#X#X#X#X#X#X#X#X#X#X#X#X#X#X#X#X#X#X#X#X#X#X#X#X#X#X#X#X#X#X#X#X#X#X#X#X#X#X#X#X#X#X#X#X#X#X#X#X#X#X#X#X#X#X#X#X#X#X#X#X#X#X#X#X_ D }.mX*X%X%XsXsXwX3X4XkXzXzXpXqX%XdXnXkX0X4XxXpXkXpXiXCX. _ fXpXqXeXsXxXxXsXsX4X3XpXlXvXkXlXpXkXkXpXlXvXMXMX'.MXMXlXcXcXcXbXcXcXcXbXl...j.z.v.f.f.z.d.v.=.'.bXbXbXbXbXvX,X{.vXMXvXkXzX0XpXMXnXnXkXpXuXpXcXcXlXlXcX9XvXvXlXlXbXbXbX9XvX,X,X6X,X,X,X,X,X,X,X,X9Xj.g.g.n.n.m.m.b.b.n.B.C.H.S.S.S.S.[ w.1.t.+.7.&.3.3.5.| Z.CX#X#X#X#X#X#X#X#X#X#XVXL.L.C.H.`.` L.L.P V.8.9.=.3.&.(.. . `.*.3.*.*.&.7.8.` . +XBX#X_.#X#X#X#X#X#X#X#X#X#X#X#X#X#X#XSX7X7X7XCXm.s.s.8.q.i.9.0.0.a.8.*.E Y u.3.p.a.i.=.i.9.8.8.Y.BX7X9.@.p.i.p.p.y.F.BX#X#X#X#X#X#X#X#X#X#X#X#X#X#X#X#X#X#X#X#X#X#X#X#X#X#X#X#X#X#X#X#X#X#X#X#X#X#X#X#X#X#X#X#X#X#X#X#X#X#X#X#X#X#X#X#X#X#X#X#X#X#X#X#X#X#X#X#X#X#X#X#X#X#X#X#X#X#X#X#X#X#X#X#X#X#X#X#X#X#X#X#X#X#X#X#X#X#X#X#X#X#X X+X].N g i t t t t t s s s s s s s s s s s s s s s s s s s s s s s s s s s s s s s s s s t t t t t t s i p f j a #X X+X+X X@X#X#X#X#X#X#X#X#X#X#X#X#X#X#X#X#X#X#X#X#X#X#X#X#X#X#X#X#X#X#X#X#X#X#X#X#X#X#X#X#X#X#X#X#X#X#X#X#X#X#X#X#X#X#X#X#X#X#X#X#X#X#X#X#X#X#X#X#X#X#X#X#X#X#X#X#X#X#X#X#X#X",
"#X#X#X#X#X#X#X#X#X#X#X#X#X#X#X#X#X#X#X#X#X#X#X#X#X#X#X#X#X#X#X#X#X#X#X#X#X#X#X#X#X#X#X#X#X#X#X#X#X#X#X#X#X#X#X#X#X#X#X#X#X#X#X#X#X#X#X#X#X#X#X#X#X#X#X#X#X#X#X#X#X#X#X#X#X#X#X#X#X#X#X#X#X#X#X#X#XD D Z =X%XeXsXwX3X3XpXzXxXpX4X%X%X:X:X:X%X:X:X-X%X%X:X=XaX4X4X%XsXfXfXxXsXsXqX3X0XcXkXlXkXkXkXpXpXlXMXMXMXMXMXMXlXlXcX6XbXbXcXbXG.*.z.j.z.d.f.d.G.z.J.J.G.,X,XbXbX,X>X>X>X>XMXMXnXpXpXvXMXnXMXkXpXuXlXcXlXlXlXcXbXcXcXcXbXbXbX9XbXbX,X,X,X,X,X,X,X,X,X,X,Xh.G.v.f.f.z.g.S.m.w.n.B.S.V.B.B.B.B.B.S.g.X.r.r.&.7.*.3.O.;.CX#X#X#X#X#X#X#X#X#XVX_.Y.W F.S.U.. 7XY.5.=.c.u.5...O.:.Y.. 7X=.3.&.*.&.&.q.+XBX_.#X#X#X#X#X#X#X#X#X#X#X#X#X#X#X#X#X#XBX] m.-.Q n.L.H.q.i.=.i.0.a.i...M.l.l.=.&.8.p.v.T q.n.q.i.=.(.R.0.-.=.0.p.i.y.F.BX#X#X#X#X#X#X#X#X#X#X#X#X#X#X#X#X#X#X#X#X#X#X#X#X#X#X#X#X#X#X#X#X#X#X#X#X#X#X#X#X#X#X#X#X#X#X#X#X#X#X#X#X#X#X#X#X#X#X#X#X#X#X#X#X#X#X#X#X#X#X#X#X#X#X#X#X#X#X#X#X#X#X#X#X#X#X#X#X#X#X#X#X#X#X#X#X#X#X#X#X#X#X#X#X@X+X+X@XN g d i s t 9 t t t t t t s s s s s s s s s s s s s s s s s t t t t t t t t t s i i d f x v ]  X+X+X X@XVX#X#X#X#X#X#X#X#X#X#X#X#X#X#X#X#X#X#X#X#X#X#X#X#X#X#X#X#X#X#X#X#X#X#X#X#X#X#X#X#X#X#X#X#X#X#X#X#X#X#X#X#X#X#X#X#X#X#X#X#X#X#X#X#X#X#X#X#X#X#X#X#X#X#X#X#X#X#X#X#X#X#X#X#X#X",
"#X#X#X#X#X#X#X#X#X#X#X#X#X#X#X#X#X#X#X#X#X#X#X#X#X#X#X#X#X#X#X#X#X#X#X#X#X#X#X#X#X#X#X#X#X#X#X#X#X#X#X#X#X#X#X#X#X#X#X#X#X#X#X#X#X#X#X#X#X#X#X#X#X#X#X#X#X#X#X#X#X#X#X#X#X#X#X#X#X#X#X#X#X#X#X#X#X#X#X< Z &X:XsXsXqXqXuXxXzXuX-X:X-X:X:X:X-X:X:X%X:X:X%X:X:X%X%X%X-XfX0XsXsXsXqX3X4XlXkXlXlXMXnXkXkXlXvXcXvX'.MXMXvXkXcXbXvXbXcXzXJ.d.z.j.z.d.z.G.G.l.{.,X>X>X>X>X>X>X>X>X>X>X>XMXkXkXkXlXvXnXnXkXpXuXvXbXcXcXcXbXcXbXbX[.J.v.G.bXvXvX,X,X,X,X,X,X,X,X,X,XL h.j.c.J.z.G.G.v.G G m.m.S.V.V.B.B.B.m.V.C.S.j.,.r.@.7.| | '  X#X#X#XAX#X#X#X#X#X7XP S.K.L.H.Q ;.*.5.&.=.i.*.3...*.4.{ g.g.*.&.&.7.=.&.&.C.+X7X_.#X#X#X#X#X#X#X#X#X#X#X#X#X#X#XSX7X7Xb.+.@.y.i.=.b.T =.=.n.p.a.5.d.H.p.i.i.9.0.=.&.9.q.T 9.9.p.B.T 0.s.=.8.8.i.6.Q 7X#X#X#X#X#X#X#X#X#X#X#X#X#X#X#X#X#X#X#X#X#X#X#X#X#X#X#X#X#X#X#X#X#X#X#X#X#X#X#X#X#X#X#X#X#X#X#X#X#X#X#X#X#X#X#X#X#X#X#X#X#X#X#X#X#X#X#X#X#X#X#X#X#X#X#X#X#X#X#X#X#X#X#X#X#X#X#X#X#X#X#X#X#X#X#X#X#X#X#X% #X#X#X#X#X#X#X@X+X+X X#X` z g f p i i s s t t t t t t t t t t t t t t t t t s s i i d d g j e n ] 7X X+X+X X7X@X#X#X#X#X#X#X#X#X#X#X#X#X#X#X#X#X#X#X#X#X#X#X#X#X#X#X#X#X#X#X#X#X#X#X#X#X#X#X#X#X#X#X#X#X#X#X#X#X#X#X#X#X#X#X#X#X#X#X#X#X#X#X#X#X#X#X#X#X#X#X#X#X#X#X#X#X#X#X#X#X#X#X#X#X#X#X#X#X#X#X",
"#X#X#X#X#X#X#X#X#X#X#X#X#X#X#X#X#X#X#X#X#X#X#X#X#X#X#X#X#X#X#X#X#X#X#X#X#X#X#X#X#X#X#X#X#X#X#X#X#X#X#X#X#X#X#X#X#X#X#X#X#X#X#X#X#X#X#X#X#X#X#X#X#X#X#X#X#X#X#X#X#X#X#X#X#X#X#X#X#X#X#X#X#X#X#X#X#X#X#X#X< yX%XsXsXwXsXxXxXzXuXwX:X:X-X-X-X:X:X:X:X%X:X:X:X:X%X%X%XsXxX4XxXxXsXqX3X4XkXlXcXlXMXnXkXpXcXvXbXbXvXMXMXvXkXlXbXbXbXcX>Xc.l.G.z.f.f.z.G.f.z.x.j.X.x.,X,X>X>X>X>X>X>X>XpXvXkXkXkXkXMXnXkXpXpXcXcX'.9XbXbXbXvXd.T c.v.c.l.Y z.G.,X,X,X,X,X'.x.j.h.N.h.x.f.v.d.k.X.N.{.dXS.B.C.S.S.S.V.V.B.S.V.C.V.1.$.2.&.-.P @X#X#XBXVX@XVX#X_.#X@X_.H.S.C.H.C.L.V.3.&.7.*.&.7.7.*.*.*.4.} :.5.&.7.7.7.7.8.3.w.+XVX#X#X#X#X#X#X#X#X#X#X#X#X#X_.#XBX. V.3.i.i.0.a.&.b.0.=.8.9.p.p.4.8.o.p.p.p.y.y.i.T =.=.8.9.s.0.7.8.=.7.i.8.8.p.6.F.BX#X#X#X#X#X#X#X#X#X#X#X#X#X#X#X#X#X#X#X#X#X#X#X#X#X#X#X#X#X#X#X#X#X#X#X#X#X#X#X#X#X#X#X#X#X#X#X#X#X#X#X#X#X#X#X#X#X#X#X#X#X#X#X#X#X#X#X#X#X#X#X#X#X#X#X#X#X#X#X#X#X#X#X#X#X#X#X#X#X#X#X#X#X#X#X#X#X#X#X#X#X#X#X#X#X#X#X#X#X#XAX@X X X+X+X X#X8 N v x x x x x x x x x x x x x x x x v n ` _.@X7X+X+X+X X X X@X#X#X#X#X#X#X#X#X#X#X#X#X#X#X#X#X#X#X#X#X#X#X#X#X#X#X#X#X#X#X#X#X#X#X#X#X#X#X#X#X#X#X#X#X#X#X#X#X#X#X#X#X#X#X#X#X#X#X#X#X#X#X#X#X#X#X#X#X#X#X#X#X#X#X#X#X#X#X#X#X#X#X#X#X#X#X#X#X#X#X#X#X#X#X#X#X",
"#X#X#X#X#X#X#X#X#X#X#X#X#X#X#X#X#X#X#X#X#X#X#X#X#X#X#X#X#X#X#X#X#X#X#X#X#X#X#X#X#X#X#X#X#X#X#X#X#X#X#X#X#X#X#X#X#X#X#X#X#X#X#X#X#X#X#X#X#X#X#X#X#X#X#X#X#X#X#X#X#X#X#X#X#X#X#X#X#X#X#X#X#X#X#X#X#X#X#X#X).< =X:XsXsXwXfXxXuXqX%X%X%X:XSX=X-X%X%X:X:X:X:X:X:X:X:X&XsXgXhXxXfXsXqX3X4XzXlXcXlXnXkXkXcXcXMXMXbXbXMXMXlXlXkXcXbXbXcX[.q.v.d.l.f.d.d.v.J.L x.h.L F F {.>X{.>X>X>X>X>X>X>X>X>X>XnXnXnXkXpXpXcX[.l.z.'.{.h *.d.f.c.v.c.f.z.k.l.'.,X,X,XE ..d.d.x.h.L N.j.k.j.J.A .X-X,XJ.o.V.S.S.S.C.S.S.V.B.S.S.d.r.2.2.u . . BX@XW.Z.L.` @XBX+X. DXB.S.H.S.H.K.C.7.3.7.7.7.7.7.7.&.5.5.5.5.*.&.7.7.&.&.7.T | ;.. VXSX#X#X#X#X#X#X#X#X#XmX#XBX7X$XY.0.0.8.p.i.7.i.0.p.i.i.i.8...z.i.y.p.0.0.p.q.c.q.8.q.9.i.s.0.8.8.8.i.i.p.p.6.s.#XVX#X#X#X#X#X#X#X#X#X#X#X#X#X#X#X#X#X#X#X#X#X#X#X#X#X#X#X#X#X#X#X#X#X#X#X#X#X#X#X#X#X#X#X#X#X#X#X#X#X#X#X#X#X#X#X#X#X#X#X#X#X#X#X#X#X#X#X#X#X#X#X#X#X#X#X#X#X#X#X#X#X#X#X#X#X#X#X#X#X#X#X#X#X#X#X#X#X#X#X#X#X#X#X#X#X#X#X#X#X#X#X#X#X#X#X#X@X@X X X+X+X+X+X+X+X+X+X+X+X+X+X+X+X+X+X+X+X X X7X@X@X#X#X#X#X#X#X#X#X#X#X#X#X#X#X#X#X#X#X#X#X#X#X#X#X#X#X#X#X#X#X#X#X#X#X#X#X#X#X#X#X#X#X#X#X#X#X#X#X#X#X#X#X#X#X#X#X#X#X#X#X#X#X#X#X#X#X#X#X#X#X#X#X#X#X#X#X#X#X#X#X#X#X#X#X#X#X#X#X#X#X#X#X#X#X#X#X#X#X#X#X#X#X#X",
"#X#X#X#X#X#X#X#X#X#X#X#X#X#X#X#X#X#X#X#X#X#X#X#X#X#X#X#X#X#X#X#X#X#X#X#X#X#X#X#X#X#X#X#X#X#X#X#X#X#X#X#X#X#X#X#X#X#X#X#X#X#X#X#X#X#X#X#X#X#X#X#X#X#X#X#X#X#X#X#X#X#X#X#X#X#X#X#X#X#X#X#X#X#X#X#X#X#X#X_.mXD < =X2XfXqX0XpXfX:X%X:X%X%X=X=X%X:X:X:X:X:X:X:X:X:X&X&XdXxXgXxXxXsXqX4XqXxXkXcXvXnXkXlXcXvXMXvXcXcXvXMXMXlXkXlXbXbXcX0 q.v.d.d.v.J.f.v.x.h.h.N.L N.1.9X,X>X,X,X>X>X>X>X>X>X>X>X>XnXzXkXpXMXj...d.J.l.v.=.d.z.v.v.f.f.l.d.z.E {.,X,X'.E d.l.J.z.h.N.L <.x./.$X+X+Xg J 1.g.w.m.K.H.V.S.S.S.S.S.C.d.I E R 2.g.A.' R.B.B.B.K.VX(.Y.V.Y.S.S.S.S.S.C.K.9.&.7.i.y.8.&.&.&.&.5.t.4.5.*.&.&.*.&.&.T =.U A.+XAXmX#X#X#X#X#X#X#X#X#X7X!.K.S.+.s.s.i.a.9.=.8.i.p.i.i.8.&.u...p.a.p.9.9.0.s.b.9.9.q.i.p.i.i.p.p.p.p.p.0.i.y.W.BX#X#X#X#X#X#X#X#X#X#X#X#X#X#X#X#X#X#X#X#X#X#X#X#X#X#X#X#X#X#X#X#X#X#X#X#X#X#X#X#X#X#X#X#X#X#X#X#X#X#X#X#X#X#X#X#X#X#X#X#X#X#X#X#X#X#X#X#X#X#X#X#X#X#X#X#X#X#X#X#X#X#X#X#X#X#X#X#X#X#X#X#X#X#X#X#X#X#X#X#X#X#X#X#X#X#X#X#X#X#X#X#X#X#X#X#X#X#X#X#X#X#X#X#X#X#X#X#X#X#X#X#X#X#X#X#X#X#X#X#X#X#X#X#X#X#X#X#X#X#X#X#X#X#X#X#X#X#X#X#X#X#X#X#X#X#X#X#X#X#X#X#X#X#X#X#X#X#X#X#X#X#X#X#X#X#X#X#X#X#X#X#X#X#X#X#X#X#X#X#X#X#X#X#X#X#X#X#X#X#X#X#X#X#X#X#X#X#X#X#X#X#X#X#X#X#X#X#X#X#X#X#X#X#X#X#X#X#X#X#X#X#X#X#X#X#X#X",
"#X#X#X#X#X#X#X#X#X#X#X#X#X#X#X#X#X#X#X#X#X#X#X#X#X#X#X#X#X#X#X#X#X#X#X#X#X#X#X#X#X#X#X#X#X#X#X#X#X#X#X#X#X#X#X#X#X#X#X#X#X#X#X#X#X#X#X#X#X#X#X#X#X#X#X#X#X#X#X#X#X#X#X#X#X#X#X#X#X#X#X#X#X#X#X#X#X#X#X#X#X#X< D *X:X2X2XtXAX*X:X%X:X%X:X%X:X:X:X:X:X:X:X-X:X:X:X:X&XgXzXxXxXsXqX4X4XzXkXvXMXnXkXkXlXcXcXlXcXcXvXMXMXMXlXkXcXbXcX[.T f.z.z.f.l.n.Y $.F L L N.N.h.'.,X,X,X>X>X>X>X-X>X-X-X>X-XkXkXpXpXj.R z.J.d.f.f.f.z.G.J.c.J.z.z.d.z.z.x.6X8Xj.J.l.d.z.d.x.N.N.N.HX. +X#XCXQ.{ { X.n.C.K.m.w.B.V.S.C.C.B.%.2.4...5.} l.S.B.V.S.V.C.Y.q.3.3.T.Y.S.S.V.S.C.K.p.6.i.8.3.4.2.1.2.r.t.t.4.%.4.t.*.&.&.7.8.8.3.O.A.+X#X#X#X#X#X#X#X#XSXBXW.s.-.s.7.8.y.p.p.8.&.&.i.p.y.p.i.7.=.&.=.p.q.i.p.p.a.a.l.=.8.i.i.p.p.a.p.p.p.p.y.6.P.CX#X#X#X#X#X#X#X#X#X#X#X#X#X#X#X#X#X#X#X#X#X#X#X#X#X#X#X#X#X#X#X#X#X#X#X#X#X#X#X#X#X#X#X#X#X#X#X#X#X#X#X#X#X#X#X#X#X#X#X#X#X#X#X#X#X#X#X#X#X#X#X#X#X#X#X#X#X#X#X#X#X#X#X#X#X#X#X#X#X#X#X#X#X#X#X#X#X#X#X#X#X#X#X#X#X#X#X#X#X#X#X#X#X#X#X#X#X#X#X#X#X#X#X#X#X#X#X#X#X#X#X#X#X#X#X#X#X#X#X#X#X#X#X#X#X#X#X#X#X#X#X#X#X#X#X#X#X#X#X#X#X#X#X#X#X#X#X#X#X#X#X#X#X#X#X#X#X#X#X#X#X#X#X#X#X#X#X#X#X#X#X#X#X#X#X#X#X#X#X#X#X#X#X#X#X#X#X#X#X#X#X#X#X#X#X#X#X#X#X#X#X#X#X#X#X#X#X#X#X#X#X#X#X#X#X#X#X#X#X#X#X#X#X#X#X#X#X#X",
"#X#X#X#X#X#X#X#X#X#X#X#X#X#X#X#X#X#X#X#X#X#X#X#X#X#X#X#X#X#X#X#X#X#X#X#X#X#X#X#X#X#X#X#X#X#X#X#X#X#X#X#X#X#X#X#X#X#X#X#X#X#X#X#X#X#X#X#X#X#X#X#X#X#X#X#X#X#X#X#X#X#X#X#X#X#X#X#X#X#X#X#X#X#X#X#X#X#X#X#X#X#X#XAXD #X*X}.~.D D yX&X:X%X:X:X:X:XrX:X-X-XrX=XtX:X-X:X:XsXxXxXxXsXqX4XpXpXkXvXnXlXkXkXkXlXcXbXbXbXcXMXMXvXlXpXcXbXcX-Xf.l.d.G.d.f.f.{.{.{.x.h.x.N.x.{.,X>X>X>X>X-X-X-X-X-X-X-X-X>XkXkX,X{.k.z.z.J.f.l.z.J.d.G.d.J.J.J.z.z.G.h.>.>.j.z.z.G.G.z.x.N.h.J.@X@X#X#X#X. I.<.v.m.w.b.m.B.B.S.V.b.T.g.z.R r.O.I *.K.K.S.S.S.V.V.V.H.S.Y.H.S.H.H.H.H.K.V.7.8.u.>.#.#.1.#.>.<.#.%.4.4.4.t.*.&.&.&.8.T 7.U T 7X@X#X#X#X#X#X#X#X#XBXK.s.i.&.8.8.p.p.p.i.5...8.i.p.p.s.s.9.9.T 9.8.i.p.p.a.8.t.&.8.i.p.a.a.a.a.a.a.i.@.8.( BXBX_.#X#X#X#X#X#X#X#X#X#X#X#X#X#X#X#X#X#X#X#X#X#X#X#X#X#X#X#X#X#X#X#X#X#X#X#X#X#X#X#X#X#X#X#X#X#X#X#X#X#X#X#X#X#X#X#X#X#X#X#X#X#X#X#X#X#X#X#X#X#X#X#X#X#X#X#X#X#X#X#X#X#X#X#X#X#X#X#X#X#X#X#X#X#X#X#X#X#X#X#X#X#X#X#X#X#X#X#X#X#X#X#X#X#X#X#X#X#X#X#X#X#X#X#X#X#X#X#X#X#X#X#X#X#X#X#X#X#X#X#X#X#X#X#X#X#X#X#X#X#X#X#X#X#X#X#X#X#X#X#X#X#X#X#X#X#X#X#X#X#X#X#X#X#X#X#X#X#X#X#X#X#X#X#X#X#X#X#X#X#X#X#X#X#X#X#X#X#X#X#X#X#X#X#X#X#X#X#X#X#X#X#X#X#X#X#X#X#X#X#X#X#X#X#X#X#X#X#X#X#X#X#X#X#X#X#X#X#X#X#X#X#X#X#X#X#X",
"#X#X#X#X#X#X#X#X#X#X#X#X#X#X#X#X#X#X#X#X#X#X#X#X#X#X#X#X#X#X#X#X#X#X#X#X#X#X#X#X#X#X#X#X#X#X#X#X#X#X#X#X#X#X#X#X#X#X#X#X#X#X#X#X#X#X#X#X#X#X#X#X#X#X#X#X#X#X#X#X#X#X#X#X#X#X#X#X#X#X#X#X#X#X#X#X#X#X#X#X#X#X#X#X#XD D D _.#X#XD D iX:X:X:X&X:X:X:XrX*X_.D _ Z *X:X%X:XsXxXxXfXuXzXpXuXzXMXvXlXkXkXpXpXcXbXcXbXvXcXvXMXlXkXvXbXbX-Xg.d.v.v.J.z.G.{.-X{.x.x.j.h.9X,X,X>X{.>X>X>X-X-X-X-X-X-X-X{.6X9XN.N.G.z.z.f.f.J.J.z.x.9Xj.z.z.G.j.h.h.<.h.G.j.j.G.k.G.k.1.>.>.I.BXVX#X#X#X. FX>.v.V.b.w.m.V.S.S.m.n.B.Y.C.c.4...z.e.L.C.C.C.V.V.V.S.C.L.H.S.H.H.C.C.C.L.n.3.p.=.4.1.#.>.#.2.1.2.R u.R t.5.3.*.&.=.=.8.7.&.5.( +XSX#X#X#X#X#X#X7XW.B.o.7.8.7.7.i.8.8.5.t.=.q.T 9.p.-.-.y.p.p.i.i.i.p.a.p.3.*.=.8.7.&.7.&.5.8.8.3.&.*.l...c.`.CX+XBXBX@XSX#X#X#X#X#X#X#X#X#X#X#X#X#X#X#X#X#X#X#X#X#X#X#X#X#X#X#X#X#X#X#X#X#X#X#X#X#X#X#X#X#X#X#X#X#X#X#X#X#X#X#X#X#X#X#X#X#X#X#X#X#X#X#X#X#X#X#X#X#X#X#X#X#X#X#X#X#X#X#X#X#X#X#X#X#X#X#X#X#X#X#X#X#X#X#X#X#X#X#X#X#X#X#X#X#X#X#X#X#X#X#X#X#X#X#X#X#X#X#X#X#X#X#X#X#X#X#X#X#X#X#X#X#X#X#X#X#X#X#X#X#X#X#X#X#X#X#X#X#X#X#X#X#X#X#X#X#X#X#X#X#X#X#X#X#X#X#X#X#X#X#X#X#X#X#X#X#X#X#X#X#X#X#X#X#X#X#X#X#X#X#X#X#X#X#X#X#X#X#X#X#X#X#X#X#X#X#X#X#X#X#X#X#X#X#X#X#X#X#X#X#X#X#X#X#X#X#X#X#X#X#X#X#X#X#X#X#X#X#X#X#X",
"#X#X#X#X#X#X#X#X#X#X#X#X#X#X#X#X#X#X#X#X#X#X#X#X#X#X#X#X#X#X#X#X#X#X#X#X#X#X#X#X#X#X#X#X#X#X#X#X#X#X#X#X#X#X#X#X#X#X#X#X#X#X#X#X#X#X#X#X#X#X#X#X#X#X#X#X#X#X#X#X#X#X#X#X#X#X#X#X#X#X#X#X#X#X#X#X#X#X#X#X#X#X#X#X#X#X#X#X#X#X#X#XAXD }.tX=X:X:X=X*XD _ AX#X_.ZX7 `.iX&X:XeXeX:XsXnXxXxXpXkXzXpXpXpXlXlXcXlXcXMXvXcXvXMXlXkXvXbXbX2X<XT b.B.f.x.G.k.H h.x.k.x.X.{.,X,X'.G.'.>X>X>X-X-X-X-X>X{.F #.#.N.<.G.c.d.d.z.J.z.N.$.h.d.k.x.x.A A.X.$.j.j.k.j.j.x.z.M.>.1.w.VXBX_.#X@X@XVX+Xf...m.T.w.T.V.C.K.C.L.L.C.K.C.B.B.I.H.H.S.C.m.w.V.V.S.C.C.C.C.C.C.C.H.C.K.s.s.8.8.8.3.t.t.%.%.4.4.R t.%.4.t.3.*.*.&.=.T 7.&.| n.7XVX#X#X#X#X#X#X+XQ.0.-.7.&.3.7.i.i.=.r.u.c.q.8.7.9.p.p.a.a.p.p.8.8.9.p.i.7.7.7.i.*.l.*.3.5.5.1.1.5.u.t.l.*.w.$XZ.Y.Z.#X7XSX#X#X#X#X#X#X#X#X#X#X#X#X#X#X#X#X#X#X#X#X#X#X#X#X#X#X#X#X#X#X#X#X#X#X#X#X#X#X#X#X#X#X#X#X#X#X#X#X#X#X#X#X#X#X#X#X#X#X#X#X#X#X#X#X#X#X#X#X#X#X#X#X#X#X#X#X#X#X#X#X#X#X#X#X#X#X#X#X#X#X#X#X#X#X#X#X#X#X#X#X#X#X#X#X#X#X#X#X#X#X#X#X#X#X#X#X#X#X#X#X#X#X#X#X#X#X#X#X#X#X#X#X#X#X#X#X#X#X#X#X#X#X#X#X#X#X#X#X#X#X#X#X#X#X#X#X#X#X#X#X#X#X#X#X#X#X#X#X#X#X#X#X#X#X#X#X#X#X#X#X#X#X#X#X#X#X#X#X#X#X#X#X#X#X#X#X#X#X#X#X#X#X#X#X#X#X#X#X#X#X#X#X#X#X#X#X#X#X#X#X#X#X#X#X#X#X#X#X#X#X#X#X#X#X#X#X#X#X#X#X",
"#X#X#X#X#X#X#X#X#X#X#X#X#X#X#X#X#X#X#X#X#X#X#X#X#X#X#X#X#X#X#X#X#X#X#X#X#X#X#X#X#X#X#X#X#X#X#X#X#X#X#X#X#X#X#X#X#X#X#X#X#X#X#X#X#X#X#X#X#X#X#X#X#X#X#X#X#X#X#X#X#X#X#X#X#X#X#X#X#X#X#X#X#X#X#X#X#X#X#X#X#X#X#X#X#X#X#X#X#X#X#X#X#X#XD _ Z 1X$X< < AX_.#X#X#X#X#XD D 1X=X=X&X&X&XqXnXnXzXzXsXuXpXlXcXcXkXlXMXMXvXcXcXMXvXlXkXcXbX3X-X9.b.m.w.J.x.x.k.x.j.j.h.f.b.v.j.%.j.%.G.{.{.[.>X>X>X>XH x.L j.h.8Xj.v.l.z.z.f.G.N.N.x.l.d.k.k.@X. g.X.k.j.k.x.x.j.G.#.{ c.CX+X$XBX. BXVX. . . /.B.S.B.m.S.L.K.K.Y.S.Y.Y.Y.Y.V.T.m.V.C.C.V.m.V.S.S.C.C.K.K.K.K.K.L.L.T.H.-.5.&.9.b.s.p.&.2.2.2.r.4.4.4.4.5.*.5.3.&.=.&.&.*...DX+X#X#X#X#X#X#XBX' 3.7.8.*.8.0.s.s.q.q.9.9.9.9.7.9.0.p.a.y.i.i.8.7.7.8.p.a.i.6.3.m.[ &.8.8.*.r.4.3.5.5.l.f.*.=.=.=.7.m.#X@X#X#X#X#X#X#X#X#X#X#X#X#XSX#XBXBXBX7XAXSX#X#X#X#X#X#X#X#X#X#X#X#X#X#X#X#X#X#X#X#X#X#X#X#X#X#X#X#X#X#X#X#X#X#X#X#X#X#X#X#X#X#X#X#X#X#X#X#X#X#X#X#X#X#X#X#X#X#X#X#X#X#X#X#X#X#X#X#X#X#X#X#X#X#X#X#X#X#X#X#X#X#X#X#X#X#X#X#X#X#X#X#X#X#X#X#X#X#X#X#X#X#X#X#X#X#X#X#X#X#X#X#X#X#X#X#X#X#X#X#X#X#X#X#X#X#X#X#X#X#X#X#X#X#X#X#X#X#X#X#X#X#X#X#X#X#X#X#X#X#X#X#X#X#X#X#X#X#X#X#X#X#X#X#X#X#X#X#X#X#X#X#X#X#X#X#X#X#X#X#X#X#X#X#X#X#X#X#X#X#X#X#X#X#X#X#X#X#X#X#X#X#X#X#X#X#X#X#X#X#X#X#X#X#X#X#X#X#X#X#X",
"#X#X#X#X#X#X#X#X#X#X#X#X#X#X#X#X#X#X#X#X#X#X#X#X#X#X#X#X#X#X#X#X#X#X#X#X#X#X#X#X#X#X#X#X#X#X#X#X#X#X#X#X#X#X#X#X#X#X#X#X#X#X#X#X#X#X#X#X#X#X#X#X#X#X#X#X#X#X#X#X#X#X#X#X#X#X#X#X#X#X#X#X#X#X#X#X#X#X#X#X#X#X#X#X#X#X#X#X#X#X#X#X#X#X#X#XAX7 < AX_.#X#X#X#X#X#X#X#X#X7 D 1X*X*X*X*XxXnXnXzXsXfX4XlXlXpXpXuXnXvXMXvXcXvXMXkXkXvXcXMX9.b.b.w.B.w.c.z.j.k.j.h.z.n.b.v.j.k.j.j.j...=.....z.k.Y j.j.j.j.j.h.N.G.l.J.z.d.d.h.N.h.d.d.d...Z.( j.j.k.k.j.x.x.G.h.,.2.3.Q . +X@Xl j.h.l Q.. . S.v.w.V.S.C.C.V.V.S.C.C.C.S.Y.C.S.C.K.Y.V.V.V.S.H.K.C.K.K.L.L.K.b.n.c.m.w.c.V.;.;.;.S.0.O.#.2.4.t.t.4.%.t.3.*.*.*.=.7.&.&.| Y.CX#X#X#X#X#X#X7X` 7.@.8.=.0.0.0.9.T q.9.i.i.0.p.8.*.7.8.8.=.=.=.&.7.*.4.3.&.&.u.b.q.7.8.8.7.u.3.*.*.&.&...&.i.9.0.s.7.C.+X#X#X#X#X#X#X#X#X#X#X#X#X#XVX` R.^ ` VX#X#X#X#X#X#X#X#X#X#X#XAX#X#X#X#X#X#X#X#X#X#X#X#X#X#X#X#X#X#X#X#X#X#X#X#X#X#X#X#X#X#X#X#X#X#X#X#X#X#X#X#X#X#X#X#X#X#X#X#X#X#X#X#X#X#X#X#X#X#X#X#X#X#X#X#X#X#X#X#X#X#X#X#X#X#X#X#X#X#X#X#X#X#X#X#X#X#X#X#X#X#X#X#X#X#X#X#X#X#X#X#X#X#X#X#X#X#X#X#X#X#X#X#X#X#X#X#X#X#X#X#X#X#X#X#X#X#X#X#X#X#X#X#X#X#X#X#X#X#X#X#X#X#X#X#X#X#X#X#X#X#X#X#X#X#X#X#X#X#X#X#X#X#X#X#X#X#X#X#X#X#X#X#X#X#X#X#X#X#X#X#X#X#X#X#X#X#X#X#X#X#X#X#X#X#X#X#X#X#X#X#X#X#X#X#X#X#X#X#X#X",
"#X#X#X#X#X#X#X#X#X#X#X#X#X#X#X#X#X#X#X#X#X#X#X#X#X#X#X#X#X#X#X#X#X#X#X#X#X#X#X#X#X#X#X#X#X#X#X#X#X#X#X#X#X#X#X#X#X#X#X#X#X#X#X#X#X#X#X#X#X#X#X#X#X#X#X#X#X#X#X#X#X#X#X#X#X#X#X#X#X#X#X#X#X#X#X#X#X#X#X#X#X#X#X#X#X#X#X#X#X#X#X#X#X#X#X#X#X#X#X#X#X#X#X% #X#X#X#X#X#X#X#X).< D ~.OXuXuXzXuXqX4X0XkXuXuXuX0XpXlXlXcXcXvXMXlXkXcXlXMX=.b.b.b.b.w.T.m.d.j.j.z.c.v.c.v.j.z.G.x.x.z.d.z.z.j.k.k.k.j.j.h.x.x.N.j.l.d.z.d.f.h.N.N.d.f.l.f.l.k.k.G.z.z.j.x.x.#.#.#.>.>.... . j.J ,.,.,.<.z.y x.,.{ Y T.P.K.b.V.V.Y.L.C.H.K.K.K.C.C.L.Y.w.T.V.S.C.K.S.S.g.n.n.v.c.b.w.e.K.K.S.K.L.R.C.&.r.4.R 5.t.4.t.t.5.*.*.*.&.7.7.7.U v.VXVX#X#X#X#X#XVX X9.3.7.+.i.p.8.q.9.i.8.p.a.a.i.5...q.=.s.9.=.q.q.0...>.4.c.T *.5.*.8.8.8.*.t.&.7.*.=.*.7.-.0.8.9.s.6.V.7X#X#X#X#X#X#X#X#X#X#X#X#XBXW.8.@.i.i.Q 7X#X#X#X#X_.VXVX7XBXBX7XBX7XSX#X#X#X#X#X#X#X#X#X#X#X#X#X#X#X#X#X#X#X#X#X#X#X#X#X#X#X#X#X#X#X#X#X#X#X#X#X#X#X#X#X#X#X#X#X#X#X#X#X#X#X#X#X#X#X#X#X#X#X#X#X#X#X#X#X#X#X#X#X#X#X#X#X#X#X#X#X#X#X#X#X#X#X#X#X#X#X#X#X#X#X#X#X#X#X#X#X#X#X#X#X#X#X#X#X#X#X#X#X#X#X#X#X#X#X#X#X#X#X#X#X#X#X#X#X#X#X#X#X#X#X#X#X#X#X#X#X#X#X#X#X#X#X#X#X#X#X#X#X#X#X#X#X#X#X#X#X#X#X#X#X#X#X#X#X#X#X#X#X#X#X#X#X#X#X#X#X#X#X#X#X#X#X#X#X#X#X#X#X#X#X#X#X#X#X#X#X#X#X#X#X#X#X#X#X#X",
"#X#X#X#X#X#X#X#X#X#X#X#X#X#X#X#X#X#X#X#X#X#X#X#X#X#X#X#X#X#X#X#X#X#X#X#X#X#X#X#X#X#X#X#X#X#X#X#X#X#X#X#X#X#X#X#X#X#X#X#X#X#X#X#X#X#X#X#X#X#X#X#X#X#X#X#X#X#X#X#X#X#X#X#X#X#X#X#X#X#X#X#X#X#X#X#X#X#X#X#X#X#X#X#X#X#X#X#X#X#X#X#X#X#X#X#X#X#X#X#X#X#X#X#X#X#X#X#X#X#X#X#XAX#X).AXgXuXuX0X0X0X0XkXnXxXxXuX0X0XlXlXcXcXlXMXkXlXlXMXc.z.g.w.n.g.n.n.m.g.j.z.c.c.v.v.v.j.x.k.j.j.k.f.d.x.G.k.z.d.G.j.h.N.j.N.x.d.d.d.z.v.x.$.N.k.v.l.v.d.d.f.l.d.G.z.X.<.>.#.1.#.>.<.g.J.J #.%.%.X.#.,.,.,.2.M.%.n.L.V.I.V.S.S.S.V.Y.L.C.L.C.K.R.K.b.T.B.S.S.V.m.T.n.z.d.T.T.T.b.V.~ K.S.Y.L.K.Y.0.3.4.4.t.t.4.4.u.5.5...5.*.l.*.7.&.U /.CXmX#X#X#X#X_.+X!.+.7.8.8.9.q.i.8.i.p.a.a.p.7.B.L.S.8.i.8.8.B.9.p.8.z.l.7.7.&.7.7.7.7.&.t.t.7.7.&.=.&.T a.p.i.i.0.@.B.BX#X% #X#X#X#X#X#X#X#X#X#X7XC.s.p.y.6.H.CXCX+XBX7X7X@X`.`.^ C.S.H.`.BXSX#X#X#X#X#X#X#X#X#X#X#X#X#X#X#X#X#X#X#X#X#X#X#X#X#X#X#X#X#X#X#X#X#X#X#X#X#X#X#X#X#X#X#X#X#X#X#X#X#X#X#X#X#X#X#X#X#X#X#X#X#X#X#X#X#X#X#X#X#X#X#X#X#X#X#X#X#X#X#X#X#X#X#X#X#X#X#X#X#X#X#X#X#X#X#X#X#X#X#X#X#X#X#X#X#X#X#X#X#X#X#X#X#X#X#X#X#X#X#X#X#X#X#X#X#X#X#X#X#X#X#X#X#X#X#X#X#X#X#X#X#X#X#X#X#X#X#X#X#X#X#X#X#X#X#X#X#X#X#X#X#X#X#X#X#X#X#X#X#X#X#X#X#X#X#X#X#X#X#X#X#X#X#X#X#X#X#X#X#X#X#X#X#X#X#X#X#X#X#X#X#X#X#X#X#X",
"#X#X#X#X#X#X#X#X#X#X#X#X#X#X#X#X#X#X#X#X#X#X#X#X#X#X#X#X#X#X#X#X#X#X#X#X#X#X#X#X#X#X#X#X#X#X#X#X#X#X#X#X#X#X#X#X#X#X#X#X#X#X#X#X#X#X#X#X#X#X#X#X#X#X#X#X#X#X#X#X#X#X#X#X#X#X#X#X#X#X#X#X#X#X#X#X#X#X#X#X#X#X#X#X#X#X#X#X#X#X#X#X#X#X#X#X#X#X#X#X#X#X#X#X#X#X#X#X#X#X#X#X#X#X_ iXqXqX0X4X4X4XuXzXxXxXuXpXuX0XkXcXcXcXvXvXlXxXI.b.s.f.d.c.g.g.n.n.n.b.f.V.;.v.v.c.G.h.x.z.k.j.j.z.G.G.x.x.z.k.j.k.x.N.N.8XN.d.d.d.d.f.G.$.$.j.v.f.l.l.f.l.l.d.z.*.E h.#.1.1.1.2.r.<.J >.1.X.1.F $.#.>.%.S.K.H.b.b.Y.H.B.S.S.e.B.C.K.S.S.C.K.K.L.T.m.S.T.V.H.m.S.H.c.c.m.T.b.n.K.C.H.S.S.H.C.Y.B.&.u.t.r.%.r.2.O.t.5.5.5.5.E Y Y &.O.w.. . +X+XVX#X#XmX7X`.$X`.q.8.8.i.p.a.p.a.a.8.=.V.9.&.8.i.8.7.0.s.i.a.=...3.&.8.7.8.&.u.4.4.t.&.7.&.8.T 7.8.i.i.i.9.8.9.#XVX#X#X#X#X#X#X#X#X#XSX7X+Xs.0.9.8.6.L.SX;.S.Y.`.mXB.i.9.8.@.+.+.p.VX7X#X#X#X#X#X#X#X#X#X#X#X#X#X#X#X#X#XSX#X7XBXBX7X#XmX#X#X#X#X#X#X#X#X#X#X#X#X#X#X#X#X#X#X#X#X#X#X#X#X#X#X#X#X#X#X#X#X#X#X#X#X#X#X#X#X#X#X#X#X#X#X#X#X#X#X#X#X#X#X#X#X#X#X#X#X#X#X#X#X#X#X#X#X#X#X#X#X#X#X#X#X#X#X#X#X#X#X#X#X#X#X#X#X#X#X#X#X#X#X#X#X#X#X#X#X#X#X#X#X#X#X#X#X#X#X#X#X#X#X#X#X#X#X#X#X#X#X#X#X#X#X#X#X#X#X#X#X#X#X#X#X#X#X#X#X#X#X#X#X#X#X#X#X#X#X#X#X#X#X#X#X#X#X#X#X#X#X#X#X#X#X#X#X#X#X#X#X#X#X#X#X#X#X#X#X",
"#X#X#X#X#X#X#X#X#X#X#X#X#X#X#X#X#X#X#X#X#X#X#X#X#X#X#X#X#X#X#X#X#X#X#X#X#X#X#X#X#X#X#X#X#X#X#X#X#X#X#X#X#X#X#X#X#X#X#X#X#X#X#X#X#X#X#X#X#X#X#X#X#X#X#X#X#X#X#X#X#X#X#X#X#X#X#X#X#X#X#X#X#X#X#X#X#X#X#X#X#X#X#X#X#X#X#X#X#X#X#X#X#X#X#X#X#X#X#X#X#X#X#X#X#X#X#X#X#X#X#X#X#XAX_ rXqXrXeXqXsXsXsXxXxXzXzXuXuX0XzXcXbXcXcXcXbXjX[ c.b.I.z.z.g.n.g.g.n.n.c.Y.ZX] e.X.x.k.k.d.z.x.j.G.G.x.N.h.x.j.G.x.N.N.<.<.$.G.d.z.d.f.k.N.N.h.d.v.f.l.l.f.k.j.u.+.&...X.1.2.2.r.4.1.<.$.#.#.$.<.<.$.1.n.K.C.L.K.V.K.K.V.S.K.L.C.C.H.Y.S.S.K.L.K.S.S.V.b.B.B.S.S.Y.n.c.B.w.T.B.m.V.H.H.S.S.S.S.Y.q.5.*.4.2.r.#.M.&.5.5.u.4.u.u.E E E d.Y.!.R./ @XCX+X#X#X7X. ' 0.8.i.p.a.a.a.a.i.*...5.5.7.8.i.a.8.=.0.i.a.8.&.7.7.8.8.&.5.r.4.R %...7.8.q.8.7.&.&.8.8.8.9.T OX+X#X#X#X#X#X#X#X_.mX+X7X/ q.=.9.p.=.=.=.*.&.7.s.c.3.6.y.i.a.o.0.+.C.CX@XSX#X#X#X#X#X#X#X#X#X#X#X#X#X#XmXVXBXW.L.L.^ 7X#X#X#X#X#X#X#X#X#X#X#X#X#X#X#X#X#X#X#X#X#X#X#X#X#X#X#X#X#X#X#X#X#X#X#X#X#X#X#X#X#X#X#X#X#X#X#X#X#X#X#X#X#X#X#X#X#X#X#X#X#X#X#X#X#X#X#X#X#X#X#X#X#X#X#X#X#X#X#X#X#X#X#X#X#X#X#X#X#X#X#X#X#X#X#X#X#X#X#X#X#X#X#X#X#X#X#X#X#X#X#X#X#X#X#X#X#X#X#X#X#X#X#X#X#X#X#X#X#X#X#X#X#X#X#X#X#X#X#X#X#X#X#X#X#X#X#X#X#X#X#X#X#X#X#X#X#X#X#X#X#X#X#X#X#X#X#X#X#X#X#X#X#X#X#X#X#X#X#X#X#X",
"#X#X#X#X#X#X#X#X#X#X#X#X#X#X#X#X#X#X#X#X#X#X#X#X#X#X#X#X#X#X#X#X#X#X#X#X#X#X#X#X#X#X#X#X#X#X#X#X#X#X#X#X#X#X#X#X#X#X#X#X#X#X#X#X#X#X#X#X#X#X#X#X#X#X#X#X#X#X#X#X#X#X#X#X#X#X#X% #X#X#X#X#X#X#X#X#X#X#X#X#X#X#X#X#X#X#X#X#X#X#X#X#X#X#X#X#X#X#X#X#X#X#X#X#X#X#X#X#X#X#X#X#XAXAXhXsXdXeXwXsXqXqXsXxXxXxXuXpXkXeXO vXvXMXvXdXZXS.c.n.T.f.j.J.n.n.n.n.g.c.z.;.. k <.z.z.k.z.k.j.d.v.x.N.N.N.N.h.h.N.N.N.N.$.h.k.d.z.z.f.z.N.x.N.h.k.z.d.l.d.c.A w.| &.3.*.%.1.1.2.r.1.$.#.#.$.#.#.F 2.2.n.S.S.S.Y.K.Y.H.C.K.K.K.K.K.C.C.S.V.S.C.K.K.V.w.b.m.B.S.C.S.c.c.B.m.B.V.V.V.S.S.S.S.C.S.S.m.*.....2.4.1.M.B.5.t.5.t.t.t.E *.&.*.| 5.5.*.c.Y.DX+X+XBX`.s.s.8.8.i.p.a.a.*.4.r.u.E ..E ..&.p.6.=.8.i.p.8.&.7.7.7.3.t.4.r.%.X.#.t.i.q.q.9.8.8.8.i.8.8.9.=.Z.. SX#X#X#X#X#XVX@X. DXm.=.=.=.i.0.&.=.7.=.=.=.9.8.t...p.a.i.[ o.@.7.C.BXVX#X#X#X#X#X#X#X#X#X#X#X#X#X_.VX+XQ 6.a.y.6.` +XSX#X#X#X#X#X#X#X#X#X#X#X#X#X#X#X#X#X#X#X#X#X#X#X#X#X#X#X#X#X#X#X#X#X#X#X#X#X#X#X#X#X#X#X#X#X#X#X#X#X#X#X#X#X#X#X#X#X#X#X#X#X#X#X#X#X#X#X#X#X#X#X#X#X#X#X#X#X#X#X#X#X#X#X#X#X#X#X#X#X#X#X#X#X#X#X#X#X#X#X#X#X#X#X#X#X#X#X#X#X#X#X#X#X#X#X#X#X#X#X#X#X#X#X#X#X#X#X#X#X#X#X#X#X#X#X#X#X#X#X#X#X#X#X#X#X#X#X#X#X#X#X#X#X#X#X#X#X#X#X#X#X#X#X#X#X#X#X#X#X#X#X#X#X#X#X#X#X#X#X",
"#X#X#X#X#X#X#X#X#X#X#X#X#X#X#X#X#X#X#X#X#X#X#X#X#X#X#X#X#X#X#X#X#X#X#X#X#X#X#X#X#X#X#X#X#X#X#X#X#X#X#X#X#X#X#X#X#X#X#X#X#X#X#X#X#X#X#X#X#X#X#X#X#X#X#X#X#X#X#X#X#X#X#X#X#X#X#X#X#X#X#X#X#X#X#X#X#X#X#X#X#X#X#X#X#X#X#X#X#X#X#X#X#X#X#X#X#X#X#X#X#X#X#X#X#X#X#X#X#X#X#X#X#XAXD dXqXwXwXeXeXwX4XuXfXzXzXzXpXkXjX. AX1X#XZXCXAXn.c.g.b.f.z.d.g.n.g.v.c.c.d.w.A #.j.k.j.z.z.k.G.f.z.N.N.$.x.g.g.x.,.N.h.N.h.L j.z.z.k.l.l.N.h.x.$.N.h.L h.$.1 . CX*.>.#.#.#.1.>.$.$.#.2.2.X.F 1.1.1.>.z.L.C.S.C.m.S.C.Y.C.C.C.K.L.K.H.V.V.B.V.S.T.T.B.S.b.T.V.Y.S.n.v.v.m.V.V.S.Y.C.Y.S.S.H.C.S.B.V.=.t.Y 2.t.O.<.m.K.r.4.5.3.5.3.*.&.&.7.7.&.+.U U *.V.DX+X`.8.8.8.=.8.7.6.5.2.r.u.........5.3.7.7.q.8.i.p.8.5.4.4.X.2.4.4.r.X.%.2.5.i.i.p.p.p.p.i.8.8.i.p.=.w.VX@X#X#X_.7XBXVX#XQ.b.s.7.=.T 8.9.q.9.=.=.&.l.c.9.*.k...y.6.@.i.p.8.+.Z.. BX+XBX7XVXAXSX#X#X#X#X#X#XAX+XR.a.-.-.a.6.s.SX@X#X#X#X#X#X#X#X#X#X#X#X#X#X#X#X#X#X#X#X#X#X#X#X#X#X#X#X#X#X#X#X#X#X#X#X#X#X#X#X#X#X#X#X#X#X#X#X#X#X#X#X#X#X#X#X#X#X#X#X#X#X#X#X#X#X#X#X#X#X#X#X#X#X#X#X#X#X#X#X#X#X#X#X#X#X#X#X#X#X#X#X#X#X#X#X#X#X#X#X#X#X#X#X#X#X#X#X#X#X#X#X#X#X#X#X#X#X#X#X#X#X#X#X#X#X#X#X#X#X#X#X#X#X#X#X#X#X#X#X#X#X#X#X#X#X#X#X#X#X#X#X#X#X#X#X#X#X#X#X#X#X#X#X#X#X#X#X#X#X#X#X#X#X#X#X#X#X#X#X",
"#X#X#X#X#X#X#X#X#X#X#X#X#X#X#X#X#X#X#X#X#X#X#X#X#X#X#X#X#X#X#X#X#X#X#X#X#X#X#X#X#X#X#X#X#X#X#X#X#X#X#X#X#X#X#X#X#X#X#X#X#X#X#X#X#X#X#X#X#X#X#X#X#X#X#X#X#X#X#X#X#X#X#X#X#X#X#X#X#X#X#X#X#X#X#X#X#X#X#X#X#X#X#X#X#X#X#X#X#X#X#X#X#X#X#X#X#X#X#X#X#X#X#X#X#X#X#X#X#X#X#X#X#X#X_ aXgXsXeXeXwXsXqX4X0XpXpXpXkXeX_ #XZX~.@X).@X#Xe.v.c.n.f.z.d.J.c.c.v.v.f.f.v.d.d.z.k.j.k.x.x.k.x.x.L N.f.L.P.D.K.h.<.h.h.j.j.j.z.z.k.z.f.x.N.j.N.N.h.x.N.,.e.CX#XN.J <.$.$.#.$.<.<.#.%.%.2.2.1.#.<.>.B.L.C.C.L.b.c.S.Y.S.S.S.C.Y.V.B.m.V.S.S.K.b.v.B.B.V.V.S.H.g.v.v.d.b.H.S.S.C.K.K.S.S.H.Y.S.B.T.I...R M.4.t.{ 1.~ m.>.4.5.*.*.7.7.7.7.7.7.7.8.7.+.U *.b.m.8.8.8.7.7.*...5.3.&.&.*...*.*.u.*.+.S.s.7.i.p.7.4.1.#.2.%.X.2.2.t.3.t.*.p.9.p.p.0.a.i.8.6.p.i.8.5.( CX#XVX+XDXB.s.9.3.8.p.8.b.i.i.9.p.*...b.0.7.=.=.c.d.j...W -.9.0.8.8.q.Q.(.Q.!.`.#X7XVX_.#X#X#X#X#X7XL.6.a.-.6.-.-.@.L.BX#X#X#X#X#X#X#X#X#X#X#X#X#X#X#X#X#X#X#X#X#X#X#X#X#X#X#X#X#X#X#X#X#X#X#X#X#X#X#X#X#X#X#X#X#X#X#X#X#X#X#X#X#X#X#X#X#X#X#X#X#X#X#X#X#X#X#X#X#X#X#X#X#X#X#X#X#X#X#X#X#X#X#X#X#X#X#X#X#X#X#X#X#X#X#X#X#X#X#X#X#X#X#X#X#X#X#X#X#X#X#X#X#X#X#X#X#X#X#X#X#X#X#X#X#X#X#X#X#X#X#X#X#X#X#X#X#X#X#X#X#X#X#X#X#X#X#X#X#X#X#X#X#X#X#X#X#X#X#X#X#X#X#X#X#X#X#X#X#X#X#X#X#X#X#X#X#X#X#X",
"#X#X#X#X#X#X#X#X#X#X#X#X#X#X#X#X#X#X#X#X#X#X#X#X#X#X#X#X#X#X#X#X#X#X#X#X#X#X#X#X#X#X#X#X#X#X#X#X#X#X#X#X#X#X#X#X#X#X#X#X#X#X#X#X#X#X#X#X#X#X#X#X#X#X#X#X#X#X#X#X#X#X#X#X#X#X#X#X#X#X#X#X#X#X#X#X#X#X#X#X#X#X#X#X#X#X#X#X#X#X#X#X#X#X#X#X#X#X#X#X#X#X#X#X#X#X#X#X#X#X#X#X#X#X#X_ dXzXfXfXxXxXqX0XkXpX0X0XkXeX_ _.#X#X#X+X. +Xe.c.q.n.J.d.J.d.J.f.v.v.J.d.J.v.g.f.l.k.N.x.z.G.h.x.h.g.! F.L.U.! I.,.$.x.k.Y j.z.k.k.z.f.z.N.N.$.N.N.x.N.<.XXDXN.J <.$.#.#.<.<.<.<.#.%.2.#.1.#.{ k.n.C.V.S.K.C.T.m.S.Y.Y.S.m.T.S.V.V.V.V.K.H.Y.K.b.T.V.S.S.Y.T.c.l.z.k.b.C.H.H.K.L.L.C.H.H.S.S.B.b.b.v.U ..R t.t.<.v.! r.4.2.2.5.3.&.7.7.7.8.i.8.8.7.7.7.+.&.i.8.8.=.7.&.*.&.i.9.p.=.*.u.4.r.t.*.s.T 7.i.p.&.2.#.1.R R r.4.&.8.8.7.8.0.p.p.0.a.0.7.6.i.i.i.8.5.b.. +X@X$X0.+.6.7.i.i.8.q.0.i.p.p.a.&.*.i.p.8.8.7.9.v.j.X.Y.-.s.-.8.i.8.&.q.T 7.T T ;.+XVX_.#X#XSXBX`.i.p.p.p.y.[ -.@.o.@X#X#X#X#X#X#X#X#X#X#X#X#X#X#X#X#X#X#X#X#X#X#X#X#X#X#X#X#X#X#X#X#X#X#X#X#X#X#X#X#X#X#X#X#X#X#X#X#X#X#X#X#X#X#X#X#X#X#X#X#X#X#X#X#X#X#X#X#X#X#X#X#X#X#X#X#X#X#X#X#X#X#X#X#X#X#X#X#X#X#X#X#X#X#X#X#X#X#X#X#X#X#X#X#X#X#X#X#X#X#X#X#X#X#X#X#X#X#X#X#X#X#X#X#X#X#X#X#X#X#X#X#X#X#X#X#X#X#X#X#X#X#X#X#X#X#X#X#X#X#X#X#X#X#X#X#X#X#X#X#X#X#X#X#X#X#X#X#X#X#X#X#X#X#X#X#X#X#X#X",
"#X#X#X#X#X#X#X#X#X#X#X#X#X#X#X#X#X#X#X#X#X#X#X#X#X#X#X#X#X#X#X#X#X#X#X#X#X#X#X#X#X#X#X#X#X#X#X#X#X#X#X#X#X#X#X#X#X#X#X#X#X#X#X#X#X#X#X#X#X#X#X#X% #X#X#X#X#X#X#X#X#X#X#X#X#X#X#X#X#X#X#X#X#X#X#X#X#X#X#X#X#X#X#X#X#X#X#X#X#X#X#X#X#X#X#X#X#X#X#X#X#X#X#X#X#X#X#X#X#X#X#X#X#X#X_ hXuXfXfXxXfXuXkXzXpXpX0XpXfXD ).#X#XCX' ) I.G.J.g.v.G.d.l.f.z.J.c.f.f.d.d.l.f.v.J.x.G.J.j.h.l.d.x.V.! U.K.L.F.K.d.J.d.x.h.h.j.z.z.d.z.z.j.x.h.N.h.h.x.$.L <.^.<.N.$.,.,.<.,.<.$.#.1.r.2.#.$.c.K.S.B.S.K.S.V.S.S.S.C.H.m.w.V.B.H.C.H.V.S.S.H.K.b.T.S.Y.H.T.c.l.l.n.c.b.K.Y.C.K.K.C.V.w.S.S.B.m.b.b.w.d.O.R 4.5.t.2...*...%.2.r.R t.5.5.t.5.&.y.i.i.q.n.=.7.8.y.i.8.8.7.&.0.s.i.i.8.&...u.u...T &.&.8.p.y.1.>.1.2.u.4.4.-.-.8.8.8.a.0.i.p.a.s.8.O.*.8.8.7.=.&...Y.Y.0.9.9.i.i.p.p.a.8.&.7.p.i.a.p.t.3.7.p.p.8.8.8.&.z.j.3.y.i.p.p.p.p.6.0.-.8.7.l.*.Z.7X#X#X#XAX+XC.p.a.a.p.i.-.a.6.-.#XVX#X#X#X#X#X#X#X#X#X#X#X#X#X#X#X#X#X#X#X#X#X#X#X#X#X#X#X#X#X#X#X#X#X#X#X#X#X#X#X#X#X#X#X#X#X#X#X#X#X#X#X#X#X#X#X#X#X#X#X#X#X#X#X#X#X#X#X#X#X#X#X#X#X#X#X#X#X#X#X#X#X#X#X#X#X#X#X#X#X#X#X#X#X#X#X#X#X#X#X#X#X#X#X#X#X#X#X#X#X#X#X#X#X#X#X#X#X#X#X#X#X#X#X#X#X#X#X#X#X#X#X#X#X#X#X#X#X#X#X#X#X#X#X#X#X#X#X#X#X#X#X#X#X#X#X#X#X#X#X#X#X#X#X#X#X#X#X#X#X#X#X#X#X#X#X#X#X#X",
"#X#X#X#X#X#X#X#X#X#X#X#X#X#X#X#X#X#X#X#X#X#X#X#X#X#X#X#X#X#X#X#X#X#X#X#X#X#X#X#X#X#X#X#X#X#X#X#X#X#X#X#X#X#X#X#X#X#X#X#X#X#X#X#X#X#X#X#X#X#X#X#X#X#X#X#X#X#X#X#X#X#X#X#X#X#X#X#X#X#X#X#X#X#X#X#X#X#X#X#X#X#X#X#X#X#X#X#X#X#X#X#X#X#X#X#X#X#X#X#X#X#X#X#X#X#X#X#X#X#X#X#X#X#X#X_ jXuXeXfXzXqXzXnXnXzXpXpXpXuX1X_ #XCX/.z.N.x.G.k.J.G.k.d.f.v.z.G.z.J.f.f.d.d.f.c.z.G.j.x.h.g.K.C.m.S.L.L.K.L.L.U.C.S.C.v.h.h.h.k.z.k.k.j.k.k.k.k.k.G.d.N.^.J ,.<.<.<.$.$.,.<.$.$.#.#.#.X.h.z.V.S.B.V.K.F.S.V.V.S.K.C.H.T.b.V.m.S.C.L.V.H.S.S.K.V.V.B.T.n.v.l.v.B.C.S.S.K.K.C.K.Y.b.T.n.n.m.m.b.b.n.b.c.4.l.n.w.b...{ u.u.E E R 4.r.4.5.4.4.O.5.7.=.v.f.l.7.8.7.p.p.i.i.8.i.p.i.7.*.=.=.=...q.H.&.7.i.p.t.<.>.#.1.2.#.t.-.0.7.7.8.-.-.i.p.s.9.&.5.4.5.7.*.&.=.5.O...&.8.9.i.8.i.p.a.&.*.7.i.i.p.5.2...*.8.i.i.y.6.5.4.l.p.y.p.p.y.p.p.i.6.@.8.c.q.q.q.`.7X_.7X. !.i.9.i.i.i.8.7.i.y.-.VXVX#X#X#X#X#X#X#X#X#X#X#X#X#X#X#X#X#X#X#X#X#X#X#X#X#X#X#X#X#X#X#X#X#X#X#X#X#X#X#X#X#X#X#X#X#X#X#X#X#X#X#X#X#X#X#X#X#X#X#X#X#X#X#X#X#X#X#X#X#X#X#X#X#X#X#X#X#X#X#X#X#X#X#X#X#X#X#X#X#X#X#X#X#X#X#X#X#X#X#X#X#X#X#X#X#X#X#X#X#X#X#X#X#X#X#X#X#X#X#X#X#X#X#X#X#X#X#X#X#X#X#X#X#X#X#X#X#X#X#X#X#X#X#X#X#X#X#X#X#X#X#X#X#X#X#X#X#X#X#X#X#X#X#X#X#X#X#X#X#X#X#X#X#X#X#X#X#X#X",
"#X#X#X#X#X#X#X#X#X#X#X#X#X#X#X#X#X#X#X#X#X#X#X#X#X#X#X#X#X#X#X#X#X#X#X#X#X#X#X#X#X#X#X#X#X#X#X#X#X#X#X#X#X#X#X#X#X#X#X#X#X#X#X#X#X#X#X#X#X#X#X#X#X#X#X#X#X#X#X#X#X#X#X#X#X#X#X#X#X#X#X#X#X#X#X#X#X#X#X#X#X#X#X#X#X#X#X#X#X#X#X#X#X#X#X#X#X#X#X#X#X#X#X#X#X#X#X#X#X#X#X#X#X#X#X_ 1XqXuXnXkXzXnXnXxXxXuX0X0XkXrX. . SXz.j.z.k.k.G.J.k.k.d.f.v.G.x.h.x.k.J.c.v.J.G.j.L N.$.J.U.C.C.K.K.C.K.K.L.U.L.C.B.C.C.d.h.N.x.k.j.x.j.k.k.k.k.k.k.z.z.x.$.<.J ,.,.<.$.<.<.<.<.<.<.^.j.z.k.b.V.B.Y.C.S.H.Y.C.K.K.K.V.V.U.w.n.m.S.K.S.S.S.S.K.C.S.g.d.d.d.l.Y.L.B.S.C.C.C.H.C.K.V.B.S.m.n.n.b.n.n.v.c.g.b.w.m.S.c.:.r.t.u.t.4.4.r.%.O.t.E &.&.l.l.d.v.v.*.7.u.*.i.y.i.8.i.i.&.&.q.9.i.i.&...&.=.8.a.5.J #.#.<.$.<.<.5.i.7.=.&.8.p.0.p.p.0.i.=.9.7.4.5.+.*.&.5.t.l.l.T i.i.8.i.7.3.*.*.7.8.i.8.} l.T 4...&.6.i.3.E ..&.p.p.p.p.p.p.p.p.9.i.c.q.i.p.i.W.CX+XSXA.i.7.i.i.8.=.8.8.i.6.-.7X#X#X#X#X#X#X#X#X#X#X#X#X#X#X#X#X#X#X#X#X#X#X#X#X#X#X#X#X#X#X#X#X#X#X#X#X#X#X#X#X#X#X#X#X#X#X#X#X#X#X#X#X#X#X#X#X#X#X#X#X#X#X#X#X#X#X#X#X#X#X#X#X#X#X#X#X#X#X#X#X#X#X#X#X#X#X#X#X#X#X#X#X#X#X#X#X#X#X#X#X#X#X#X#X#X#X#X#X#X#X#X#X#X#X#X#X#X#X#X#X#X#X#X#X#X#X#X#X#X#X#X#X#X#X#X#X#X#X#X#X#X#X#X#X#X#X#X#X#X#X#X#X#X#X#X#X#X#X#X#X#X#X#X#X#X#X#X#X#X#X#X#X#X#X#X#X#X#X#X",
"#X#X#X#X#X#X#X#X#X#X#X#X#X#X#X#X#X#X#X#X#X#X#X#X#X#X#X#X#X#X#X#X#X#X#X#X#X#X#X#X#X#X#X#X#X#X#X#X#X#X#X#X#X#X#X#X#X#X#X#X#X#X#X#X#X#X#X#X#X#X#X#X#X#X#X#X#X#X#X#X#X#X#X#X#X#X#X#X#X#X#X#X#X#X#X#X#X#X#X#X#X#X#X#X#X#X#X#X#X#X#X#X#X#X#X#X#X#X#X#X#X#X#X#X#X#X#X#X#X#X#X#X#X#X#XmX_ yXzXkXxXuXnXnXnXnXxXpX0XkXiXCX) f.z.f.f.k.j.d.J.z.z.f.f.v.G.x.x.h.x.j.J.I.d.N.N.$.N.N.g.L.C.V.B.C.C.C.C.K.L.K.V.V.V.V.b.c.k.x.k.k.x.k.k.k.k.k.z.z.k.z.l.d.k.x.h.h.N.$.#.N.h.N.h.j.j.d.J.d.T.V.m.S.Y.K.C.C.K.K.L.C.T.C.Y.v.v.n.T.V.S.Y.B.S.K.S.c.d.d.l.l.n.K.C.m.m.C.K.H.H.C.K.S.V.S.C.n.c.b.n.c.v.v.c.n.n.g.e.n.r.u.t.t.u.4.4.2.2.5.=.s.p.0.9.t.u.f.v...n.c.O.*.*.*.8.p.i.7.=.s.0.8.8.=.*.&.8.i.a.1.,.$.<.<.$.#.$.u.y.8.8.7.7.i.y.p.p.p.i.=.i.9.5.t.&.3.3.u.t.*.&.*.=.8.i.7.t.r.5.&.7.8.8.7.r.H.q.4.5.3.i.i.=.=.9.9.q.i.8.6.8.6.s.s.p.9.p.9.i.i.6.B.BX' T +.8.i.i.i.i.i.i.9.0.@.H.7X#X#X#X#X#X#X#X#X#X#X#X#X#X#X#X#X#X#X#X#X#X#X#X#X#X#X#X#X#X#X#X#X#X#X#X#X#X#X#X#X#X#X#X#X#X#X#X#X#X#X#X#X#X#X#X#X#X#X#X#X#X#X#X#X#X#X#X#X#X#X#X#X#X#X#X#X#X#X#X#X#X#X#X#X#X#X#X#X#X#X#X#X#X#X#X#X#X#X#X#X#X#X#X#X#X#X#X#X#X#X#X#X#X#X#X#X#X#X#X#X#X#X#X#X#X#X#X#X#X#X#X#X#X#X#X#X#X#X#X#X#X#X#X#X#X#X#X#X#X#X#X#X#X#X#X#X#X#X#X#X#X#X#X#X#X#X#X#X#X#X#X#X#X#X#X#X#X#X#X",
"#X#X#X#X#X#X#X#X#X#X#X#X#X#X#X#X#X#X#X#X#X#X#X#X#X#X#X#X#X#X#X#X#X#X#X#X#X#X#X#X#X#X#X#X#X#X#X#X#X#X#X#X#X#X#X#X#X#X#X#X#X#X#X#X#X#X#X#X#X#X% #X#X#X#X#X#X#X#X#X#X#X#X#X#X#X#X#X#X#X#X#X#X#X#X#X#X#X#X#X#X#X#X#X#X#X#X#X#X#X#X#X#X#X#X#X#X#X#X#X#X#X#X#X#X#X#X#X#X#X#X#X#X#X#X#X#X_ % xXzXxXuXnXnXnXxXzX0X4XS v.G.d.f.v.J.j.z.f.f.J.d.l.f.f.j.x.h.h.h.x.x.k.j.N.$.j.T.Y.K.H.V.T.g.n.K.C.H.K.K.K.Q K.V.V.H.K.H.j.h.x.j.j.k.j.k.k.k.z.d.d.z.z.d.l.d.z.z.j.x.j.G.d.d.l.v.v.c.c.w.B.m.T.L.L.S.C.K.U.K.l.l.l.d.v.c.n.n.T.m.B.B.S.K.B.l.d.l.f.v.T.H.B.V.m.m.H.C.H.C.C.H.S.S.C.T.v.n.n.c.c.v.l.c.b.n.n.v.e.).w.:.5.5.O.v.w.&.8.W s.7.=.%...9.q.=.v.u.4.*.5...7.i.i.8.i.i.8.8.8.8.7.&.8.p.*.1.2.>.<.<.<.#.#.1.7.p.8.8.7.i.p.i.p.p.i.i.i.i.5.t.*.3.5.t.r.&.7.&.*.7.i.7.4.4.5.5.&.7.8.5...q.R E *.o.-.i.9.i.q.q.q.q.&.*.7.8.s.s.i.a.p.a.9.p.a.=.v.&.7.i.i.p.p.i.p.p.p.i.i.0.SX@X#X#X#X#X#X#X#X#X#X#X#X#X#X#X#X#X#X#X#X#X#X#X#X#X#X#X#X#X#X#X#X#X#X#X#X#X#X#X#X#X#X#X#X#X#X#X#X#X#X#X#X#X#X#X#X#X#X#X#X#X#X#X#X#X#X#X#X#X#X#X#X#X#X#X#X#X#X#X#X#X#X#X#X#X#X#X#X#X#X#X#X#X#X#X#X#X#X#X#X#X#X#X#X#X#X#X#X#X#X#X#X#X#X#X#X#X#X#X#X#X#X#X#X#X#X#X#X#X#X#X#X#X#X#X#X#X#X#X#X#X#X#X#X#X#X#X#X#X#X#X#X#X#X#X#X#X#X#X#X#X#X#X#X#X#X#X#X#X#X#X#X#X#X#X#X#X#X#X#X",
"#X#X#X#X#X#X#X#X#X#X#X#X#X#X#X#X#X#X#X#X#X#X#X#X#X#X#X#X#X#X#X#X#X#X#X#X#X#X#X#X#X#X#X#X#X#X#X#X#X#X#X#X#X#X#X#X#X#X#X#X#X#X#X#X#X#X#X#X#X#X#X#X#X#X#X#X#X#X#X#X#X#X#X#X#X#X#X#X#X#X#X#X#X#X#X#X#X#X#X#X#X#X#X#X#X#X#X#X#X#X#X#X#X#X#X#X#X#X#X#X#X#X#X#X#X#X#X#X#X#X#X#X#X#X#X#X#X#X_ Z xXnXfXxXnXnXnXxXuX4X{.E f.f.J.z.d.z.J.f.v.c.v.J.f.f.k.k.x.N.N.h.x.j.j.h.J.K.P.F.Y.B.V.m.f.w.C.S.H.C.K.K.L.K.C.C.C.C.L.v.<.N.N.$.h.x.h.h.j.k.z.d.d.z.d.z.z.z.k.j.h.x.k.d.V.m.J.v.n.v.I.m.T.S.U.w.T.B.Y.L.c.d.c.n.n.c.v.c.c.B.B.w.V.C.K.T.c.z.d.l.d.d.S.S.S.B.b.m.C.C.H.C.S.S.K.K.l.z.f.v.c.g.n.n.n.b.b.c.n.AX. w.:.3.3.5.=.9.7.3.B.S.3.*.=.9.a.p.i.l.2.r.....*.&.7.8.&.7.i.i.8.8.8.i.&.7.*.#.2.#.<.<.>.#.#.1.F 2.8.y.i.8.8.p.p.i.i.i.9.p.8.%.%.5.5.5...E 5.7.=.*.7.8.&.%.4.5.u.&.7.7.r.u.u.E 5.8.s.0.p.i.=.&.7.8.i.=.c.9.9.9.i.p.a.a.a.p.i.a.&.O.&.8.i.p.a.p.a.p.p.p.y.8.^ +X#X#X#X#X#X#X#X#X#X#X#X#X#X#X#X#X#X#X#X#X#X#X#X#X#X#X#X#X#X#X#X#X#X#X#X#X#X#X#X#X#X#X#X#X#X#X#X#X#X#X#X#X#X#X#X#X#X#X#X#X#X#X#X#X#X#X#X#X#X#X#X#X#X#X#X#X#X#X#X#X#X#X#X#X#X#X#X#X#X#X#X#X#X#X#X#X#X#X#X#X#X#X#X#X#X#X#X#X#X#X#X#X#X#X#X#X#X#X#X#X#X#X#X#X#X#X#X#X#X#X#X#X#X#X#X#X#X#X#X#X#X#X#X#X#X#X#X#X#X#X#X#X#X#X#X#X#X#X#X#X#X#X#X#X#X#X#X#X#X#X#X#X#X#X#X#X#X#X#X#X",
"#X#X#X#X#X#X#X#X#X#X#X#X#X#X#X#X#X#X#X#X#X#X#X#X#X#X#X#X#X#X#X#X#X#X#X#X#X#X#X#X#X#X#X#X#X#X#X#X#X#X#X#X#X#X#X#X#X#X#X#X#X#X#X#X#X#X#X#X#X#X#X#X#X#X#X#X#X#X#X#X#X#X#X#X#X#X#X#X#X#X#X#X#X#X#X#X#X#X#X#X#X#X#X#X#X#X#X#X#X#X#X#X#X#X#X#X#X#X#X#X#X#X#X#X#X#X#X#X#X#X#X#X#X#X#X#X#X#X#XCXFXvXzXnXnXnXnXxXxX0X4XnX*.J.J.J.f.g.f.f.g.n.c.f.f.f.j.j.k.j.h.h.h.j.h.z.L.F.C.S.S.H.H.n.f.B.S.B.S.C.K.K.C.K.K.K.K.K.C.w.g.I.v.f.n.I.g.j.N.x.j.k.z.k.d.z.k.k.k.j.x.j.z.n.C.C.n.n.T.f.l.T.m.Y.P.C.b.b.n.n.n.S.C.C.V.c.v.c.n.S.V.m.S.K.Y.T.J.j.k.z.h.j.S.K.C.C.Y.S.S.C.C.C.C.K.K.n.k.d.l.v.v.c.n.n.b.w.w.q.n.#X. Y.:.3...*.3.7.8.&.&.0.*.=.9.q.8.p.a.&.1.2.*.5.u.*.7.*...*.8.i.i.i.8.i.8.&.3.1.<.<.<.$.$.$.2.#.%.$.<.t.&.i.7.i.p.i.p.p.p.a...%.E E E *.&.=.&.7.7.3.5.8.7.t.%.t...&.7.7.t.%.u.E u.8.8.y.p.i.8.q.*.=.n.9.0.9.i.0.0.p.a.p.p.i.i.i.3.+.=.8.8.7.8.7.&.p.a.p.6.C.BX#X#X#X#X#X#X#X#X#X#X#X#X#X#X#X#X#X#X#X#X#X#X#X#X#X#X#X#X#X#X#X#X#X#X#X#X#X#X#X#X#X#X#X#X#X#X#X#X#X#X#X#X#X#X#X#X#X#X#X#X#X#X#X#X#X#X#X#X#X#X#X#X#X#X#X#X#X#X#X#X#X#X#X#X#X#X#X#X#X#X#X#X#X#X#X#X#X#X#X#X#X#X#X#X#X#X#X#X#X#X#X#X#X#X#X#X#X#X#X#X#X#X#X#X#X#X#X#X#X#X#X#X#X#X#X#X#X#X#X#X#X#X#X#X#X#X#X#X#X#X#X#X#X#X#X#X#X#X#X#X#X#X#X#X#X#X#X#X#X#X#X#X#X#X#X#X#X#X#X#X#X",
"#X#X#X#X#X#X#X#X#X#X#X#X#X#X#X#X#X#X#X#X#X#X#X#X#X#X#X#X#X#X#X#X#X#X#X#X#X#X#X#X#X#X#X#X#X#X#X#X#X#X#X#X#X#X#X#X#X#X#X#X#X#X#X#X#X#X#X#X#X#X#X#X#X#X#X#X#X#X#X#X#X#X#X#X#X#X#X#X#X#X#X#X#X#X#X#X#X#X#X#X#X#X#X#X#X#X#X#X#X#X#X#X#X#X#X#X#X#X#X#X#X#X#X#X#X#X#X#X#X#X#X#X#X#X#X#X#X#X#XAXCXhXkXxXMXnXnXnXnXfX0X4X[.d.J.g.g.g.c.c.g.c.v.f.v.v.x.h.j.k.G.x.h.h.h.g.L.S.V.S.C.Y.V.c.I.K.K.V.H.C.K.K.K.L.L.L.L.K.B.T.K.S.S.S.V.B.V.V.d.h.N.N.x.x.j.z.z.k.k.x.j.j.f.B.b.g.T.T.V.n.z.I.S.V.S.C.B.w.n.c.K.L.H.S.T.T.B.m.b.w.m.V.H.K.b.z.z.j.X.X.x.c.n.b.S.S.H.S.S.C.K.C.K.K.v.M.d.l.l.v.c.c.c.n.c.n.w.b.d.e.. +Xl.| 3.3.*.&.8.7.5.q.=.*.n.9.8.i.a.8.1.1.u.5.u...5.t.5.*.7.i.p.p.8.8.8.&.7.r.<.#.<.$.$.J #.1.2.X.$.1.2.5.6.i.y.p.p.a.7.4.2.R E E E *.*.&.=.7.7.3.4.*.i.3.2.t.*.&.7.8.t.%.u.u.t.7.8.i.i.8.3.=.=.9.9.9.i.9.0.a.a.8.&.7.7.=.=.=.=.7.7.&.5.4.5.t.4.8.a.6.i.@X+X_.#X#X#X#X#X#X#X#X#X#X#X#X#X#X#X#X#X#X#X#X#X#X#X#X#X#X#X#X#X#X#X#X#X#X#X#X#X#X#X#X#X#X#X#X#X#X#X#X#X#X#X#X#X#X#X#X#X#X#X#X#X#X#X#X#X#X#X#X#X#X#X#X#X#X#X#X#X#X#X#X#X#X#X#X#X#X#X#X#X#X#X#X#X#X#X#X#X#X#X#X#X#X#X#X#X#X#X#X#X#X#X#X#X#X#X#X#X#X#X#X#X#X#X#X#X#X#X#X#X#X#X#X#X#X#X#X#X#X#X#X#X#X#X#X#X#X#X#X#X#X#X#X#X#X#X#X#X#X#X#X#X#X#X#X#X#X#X#X#X#X#X#X#X#X#X#X#X#X#X#X",
"#X#X#X#X#X#X#X#X#X#X#X#X#X#X#X#X#X#X#X#X#X#X#X#X#X#X#X#X#X#X#X#X#X#X#X#X#X#X#X#X#X#X#X#X#X#X#X#X#X#X#X#X#X#X#X#X#X#X#X#X#X#X#X#X#X#X#X#X#X#X#X#X#X#X#X#X#X#X#X#X#X#X#X#X#X#X#X#X#X#X#X#X#X#X#X#X#X#X#X#X#X#X#X#X#X#X#X#X#X#X#X#X#X#X#X#X#X#X#X#X#X#X#X#X#X#X#X#X#X#X#X#X#X#X#X#X#X#X#X#XD D gXzXzXMXnXnXnXxXuX0XfX=.v.c.c.v.g.v.v.g.c.v.g.l.x.x.h.x.j.z.G.j.h.c.C.B.S.K.H.V.S.S.C.L.C.H.C.C.K.K.K.K.K.K.K.S.w.B.S.V.V.S.V.T.b.V.n.h.N.h.k.x.h.j.z.x.N.h.N.<.N.m.H.V.V.S.H.J.j.n.B.V.B.m.V.B.T.V.C.C.S.b.B.C.Y.S.T.b.V.H.L.V.x.#.k.j.h.X.d.f.d.z.k.l.v.T.S.S.C.C.C.c.M.d.d.d.l.v.c.q.n.n.c.c.b.b.c.z.e.. B.:.*.&.&.3.5.5.O.b.B.3.9.T 8.7.y.i.M.2.4.u.4.E 4.4...*.&.8.&.8.y.8.8.7.7.4.>.#.#.<.,.,.,.$.#.F %.t.%.%.3.7.8.i.p.*.>.#.2.%.4.4.u.*.&.&.&.&.7.3.u...*.u.r.u.*.5.5.4.r.u...4.5.&.&.8.i.8.5.&.9.i.8.p.p.p.a.a.p.&...*.&.&.&.&.=.T 8.*.%.Y *.*.=.u.U 3.t.A CXVX#XVXAX#X#X#X#X#X#X#X#X#X#X#X#X#X#X#X#X#X#X#X#X#X#X#X#X#X#X#X#X#X#X#X#X#X#X#X#X#X#X#X#X#X#X#X#X#X#X#X#X#X#X#X#X#X#X#X#X#X#X#X#X#X#X#X#X#X#X#X#X#X#X#X#X#X#X#X#X#X#X#X#X#X#X#X#X#X#X#X#X#X#X#X#X#X#X#X#X#X#X#X#X#X#X#X#X#X#X#X#X#X#X#X#X#X#X#X#X#X#X#X#X#X#X#X#X#X#X#X#X#X#X#X#X#X#X#X#X#X#X#X#X#X#X#X#X#X#X#X#X#X#X#X#X#X#X#X#X#X#X#X#X#X#X#X#X#X#X#X#X#X#X#X#X#X#X#X#X#X",
"#X#X#X#X#X#X#X#X#X#X#X#X#X#X#X#X#X#X#X#X#X#X#X#X#X#X#X#X#X#X#X#X#X#X#X#X#X#X#X#X#X#X#X#X#X#X#X#X#X#X#X#X#X#X#X#X#X#X#X#X#X#X#X#X#X#X#X#X#X#X#X#X#X#X#X#X#X#X#X#X#X#X#X#X#X#X#X#X#X#X#X#X#X#X#X#X#X#X#X#X#X#X#X#X#X#X#X#X#X#X#X#X#X#X#X#X#X#X#X#X#X#X#X#X#X#X#X#X#X#X#X#X#X#X#X#X#X#X#X#X#XCXO zXfXnXMXnXnXnXfX0X4X<X=.J.J.v.g.v.v.g.c.g.d.N.h.x.j.k.j.j.k.z.x.J.S.S.H.S.C.K.Y.S.H.S.H.C.C.C.L.Y.m.m.m.V.Y.B.n.b.b.B.V.S.V.b.n.b.b.j.x.j.Y z.j.k.j.h.h.h.<.J $.z.I.T.T.g.d.N.k.g.c.m.C.S.S.H.S.H.S.H.B.m.C.K.B.S.S.m.m.S.K.l.h.j.M.x.h.M.J.v.l.z.j.J.l.l.n.T.m.m.V.v.X.z.z.d.l.l.v.g.b.c.c.v.n.b.c.d.X./.Q.:.=.=.*.5.t.u.5.l.q.&.8.=.8.7.*.5.u.*.4.4.4.%.2.4...&.=.i.5.2.7.8.7.7.&.u.#.>.#.1.<.,.<.#.2.X.2.d.4.u.t.5.3.7.8.1.$.2.2.r.r.4.t.*.&.*.&.*.&.*.......u.%.u.3.5.2.#.r.u...t.5.&.&.8.i.7.*.8.-.i.8.i.9.a.a.p.=.*.*.*.=.=.8.8.=.=.=.q.=.E ..=.8.5.2.t.:.O.OX. +XVX@XBXVXSX#X#X#X#X#X#X#X#X#X#X#X#X#X#X#X#X#X#X#X#X#X#X#X#X#X#X#X#X#X#X#X#X#X#X#X#X#X#X#X#X#X#X#X#X#X#X#X#X#X#X#X#X#X#X#X#X#X#X#X#X#X#X#X#X#X#X#X#X#X#X#X#X#X#X#X#X#X#X#X#X#X#X#X#X#X#X#X#X#X#X#X#X#X#X#X#X#X#X#X#X#X#X#X#X#X#X#X#X#X#X#X#X#X#X#X#X#X#X#X#X#X#X#X#X#X#X#X#X#X#X#X#X#X#X#X#X#X#X#X#X#X#X#X#X#X#X#X#X#X#X#X#X#X#X#X#X#X#X#X#X#X#X#X#X#X#X#X#X#X#X#X#X#X#X",
"#X#X#X#X#X#X#X#X#X#X#X#X#X#X#X#X#X#X#X#X#X#X#X#X#X#X#X#X#X#X#X#X#X#X#X#X#X#X#X#X#X#X#X#X#X#X#X#X#X#X#X#X#X#X#X#X#X#X#X#X#X#X#X#X#X#X#X#X#X#X#X#X#X#X#X#X#X#X#X#X#X#X#X#X#X#X#X#X#X#X#X#X#X#X#X#X#X#X#X#X#X#X#X#X#X#X#X#X#X#X#X#X#X#X#X#X#X#X#X#X#X#X#X#X#X#X#X#X#X#X#X#X#X#X#X#X#X#X#X#X#XAX_ gXkXxXnXMXnXnXxXxX0X4Xw.T f.J.l.c.v.f.f.c.f.j.N.N.h.x.j.x.x.z.z.v.U.K.V.V.K.K.S.S.S.C.C.C.C.C.K.m.c.n.B.S.H.Y.S.v.l.n.B.S.B.n.v.g.b.z.x.j.z.d.k.k.x.h.j.x.$.$.x.h.k.z.k.h.h.j.T.T.g.n.V.K.L.K.K.C.S.C.S.S.H.V.S.S.S.S.B.B.B.k.j.G.k.h.X.j.z.f.d.d.k.d.v.v.c.n.n.b.S.f.X.k.z.z.d.d.l.v.c.n.c.v.v.n.n.l.M.I.DXt.-.s.5.5.u.*.*.t...8.8.s.i.8.&.3.3.8.&.2.%.2.%.4.*.=.7.p.5.<.O.3.&.3.3.u.#.1.r.4.4.#.<.1.R %.>.1.t.t.t.5.*.8.M.F X.2.2.r.%.4.5.*.*.&.&.5...*.*...*.u.4.3...*.4.2.4.u.5.5...*.&.=.7.8.&.8.p.9.8.8.9.7.*.5.......*.&.=.8.8.8.i.7.7.9.=.*.7.8.5.E *.*.5.*.GX!.b.B./ 7X+XmX_.#X#X#X#X#X#X#X#X#X#X#X#X#X#X#X#X#X#X#X#X#X#X#X#X#X#X#X#X#X#X#X#X#X#X#X#X#X#X#X#X#X#X#X#X#X#X#X#X#X#X#X#X#X#X#X#X#X#X#X#X#X#X#X#X#X#X#X#X#X#X#X#X#X#X#X#X#X#X#X#X#X#X#X#X#X#X#X#X#X#X#X#X#X#X#X#X#X#X#X#X#X#X#X#X#X#X#X#X#X#X#X#X#X#X#X#X#X#X#X#X#X#X#X#X#X#X#X#X#X#X#X#X#X#X#X#X#X#X#X#X#X#X#X#X#X#X#X#X#X#X#X#X#X#X#X#X#X#X#X#X#X#X#X#X#X#X#X#X#X#X#X#X",
"#X#X#X#X#X#X#X#X#X#X#X#X#X#X#X#X#X#X#X#X#X#X#X#X#X#X#X#X#X#X#X#X#X#X#X#X#X#X#X#X#X#X#X#X#X#X#X#X#X#X#X#X#X#X#X#X#X#X#X#X#X#X#X#X#X#X#X#X#X#X#X#X#X#X#X#X#X#X#X#X#X#X#X#X#X#X#X#X#X#X#X#X#X#X#X#X#X#X#X#X#X#X#X#X#X#X#X#X#X#X#X#X#X#X#X#X#X#X#X#X#X#X#X#X#X#X#X#X#X#X#X#X#X#X#X#X#X#X#X#X#X#X_ O zXzXxXnXnXnXzXxXfX0XsXT c.v.J.f.v.c.f.f.g.b.k.h.x.x.k.d.J.d.d.e.L.Y.S.H.C.Y.H.C.C.C.K.K.H.m.n.g.m.S.K.K.C.C.K.C.n.v.T.V.b.c.c.n.T.l.j.k.Y j.k.z.j.k.z.k.j.j.j.z.d.f.z.k.z.c.K.m.n.T.T.T.T.S.S.B.Y.C.S.S.C.C.H.H.S.S.S.B.B.g.j.j.j.x.h.X.h.l.z.z.d.d.v.v.c.n.T.S.n.x.j.M.k.z.z.d.d.l.v.v.c.v.j.d.n.v.Y w.CXc.t.&.*...5.3.&.t.u.=.8.0.8.8.7.7.7.i.8.2.r.4.4...&.7.y.8.<.$.4.4.5.3.5.2.1.2.4.Y %.4.r.2.%.M.u.3.&.5.4.3.&.u.F F X.X.1.2.r.%.t.3.3.&.&.5.E ..*...5.t.t.5.3.5.2.1.4.5.3.*...5.5.&.=.8.&.7.i.8.8.=.i.5.2.4.u.u.u.....&.8.8.7.7.0.8.i.q.5.7.+.u.5.&.&.&.*.&.v.&.8.=.m.` 7X#X#X#X#X#X#X#X#X#X#X#X#X#X#X#X#X#X#X#X#X#X#X#X#X#X#X#X#X#X#X#X#X#X#X#X#X#X#X#X#X#X#X#X#X#X#X#X#X#X#X#X#X#X#X#X#X#X#X#X#X#X#X#X#X#X#X#X#X#X#X#X#X#X#X#X#X#X#X#X#X#X#X#X#X#X#X#X#X#X#X#X#X#X#X#X#X#X#X#X#X#X#X#X#X#X#X#X#X#X#X#X#X#X#X#X#X#X#X#X#X#X#X#X#X#X#X#X#X#X#X#X#X#X#X#X#X#X#X#X#X#X#X#X#X#X#X#X#X#X#X#X#X#X#X#X#X#X#X#X#X#X#X#X#X#X#X#X#X#X#X#X#X#X",
"#X#X#X#X#X#X#X#X#X#X#X#X#X#X#X#X#X#X#X#X#X#X#X#X#X#X#X#X#X#X#X#X#X#X#X#X#X#X#X#X#X#X#X#X#X#X#X#X#X#X#X#X#X#X#X#X#X#X#X#X#X#X#X#X#X#X#X#X#X#X#X#X#X#X#X#X#X#X#X#X#X#X#X#X#X#X#X#X#X#X#X#X#X#X#X#X#X#X#X#X#X#X#X#X#X#X#X#X#X#X#X#X#X#X#X#X#X#X#X#X#X#X#X#X#X#X#X#X#X#X#X#X#X#X#X#X#X#X#X#X#X#X).D gXzXfXzXvXnXnXzXxXuX0X<XK g.g.f.d.f.c.v.f.v.v.z.z.d.f.f.f.g.n.V.T.S.K.K.V.V.K.C.K.L.L.L.H.n.v.n.V.C.C.L.K.C.K.L.C.T.g.c.c.n.n.n.T.l.k.X.j.v.B.S.n.j.j.k.j.x.b.n.f.l.f.v.v.I.b.T.T.B.e.c.f.n.v.v.Y.H.V.T.H.K.K.C.C.S.H.V.B.V.l.x.M.j.j.h.<.N.d.f.v.T.m.T.n.n.b.n.j.x.x.X.x.k.l.d.l.v.v.v.v.d.x.k.l.v.l.g.CX;.:.q.m.5.5.t.t.*.=.v.=.8.i.i.i.i.i.y.8.2.2.t.4.*.7.i.i.>.J $.F #.1.t.4.r.4.R R M.5.7.7.*.4.*.i.8.7.8.u.1.X.F X.%.X.#.2.t.4.R u.3.*.&.5.4.5.5...5.u.r.4.u.t.u.r.r.4.5.*.M.M.5.5.7.7.8.&.&.i.7.8.8.=.=.*...*.d.u.4.t.3.y.p.@.=.s.=.i.8.5.5.4.4.*.7.7.7.=.=.=.=.=.6.+.9.VXVX#X#X#X#X#X#X#X#X#X#X#X#X#X#X#X#X#X#X#X#X#X#X#X#X#X#X#X#X#X#X#X#X#X#X#X#X#X#X#X#X#X#X#X#X#X#X#X#X#X#X#X#X#X#X#X#X#X#X#X#X#X#X#X#X#X#X#X#X#X#X#X#X#X#X#X#X#X#X#X#X#X#X#X#X#X#X#X#X#X#X#X#X#X#X#X#X#X#X#X#X#X#X#X#X#X#X#X#X#X#X#X#X#X#X#X#X#X#X#X#X#X#X#X#X#X#X#X#X#X#X#X#X#X#X#X#X#X#X#X#X#X#X#X#X#X#X#X#X#X#X#X#X#X#X#X#X#X#X#X#X#X#X#X#X#X#X#X#X#X#X#X#X",
"#X#X#X#X#X#X#X#X#X#X#X#X#X#X#X#X#X#X#X#X#X#X#X#X#X#X#X#X#X#X#X#X#X#X#X#X#X#X#X#X#X#X#X#X#X#X#X#X#X#X#X#X#X#X#X#X#X#X#X#X#X#X#X#X#X#X#X#X#X#X#X#X#X#X#X#X#X#X#X#X#X#X#X#X#X#X#X#X#X#X#X#X#X#X#X#X#X#X#X#X#X#X#X#X#X#X#X#X#X#X#X#X#X#X#X#X#X#X#X#X#X#X#X#X#X#X#X#X#X#X#X#X#X#X#X#X#X#X#X#X#X#X#X_ jXzXfXsXnXnXxXnXxXxX0XqXg.c.g.g.f.z.l.v.v.f.f.d.z.z.z.l.V.U.L.V.H.S.K.S.T.S.K.K.K.C.m.b.B.b.n.m.H.C.K.L.K.K.K.H.S.S.b.c.l.l.c.T.n.d.k.k.b.S.H.C.L.n.x.z.%.m.L.f.n.T.V.V.n.g.b.T.V.V.T.g.v.v.v.z.n.H.T.n.n.B.Y.K.K.C.S.H.S.S.c.x.M.k.v.f.k.j.l.v.T.H.V.S.S.c.M.z.z.j.h.x.x.k.d.l.l.l.l.f.z.k.M.k.f.g.l.{ /._.O.9.=.u.*.t.*.9.0.p.7.8.i.i.8.i.i.y.7.2.2.4.3.&.7.&.O.4.r.#.2.4.4.4.2.2.t.%.%.*.8.=.=.*...7.=.7.7.9.i.1.2.%.h.X.1.#.1.2.2.r.4.4.u.t.2.r.3.*.7.7.*.u.%.4.4.4.4.r.%.t.t.c.v.O.u.&.7.8.7.5.7.8.=.7.8.=.*...=.8.8...t.*.8.8.3.s.-.3.9.i.t.r.r.t.+.7.7.8.=.7.T =.&.i.y.7.P +X#X#X#X#X#X#X#X#X#X#X#X#X#X#X#X#X#X#X#X#X#X#X#X#X#X#X#X#X#X#X#X#X#X#X#X#X#X#X#X#X#X#X#X#X#X#X#X#X#X#X#X#X#X#X#X#X#X#X#X#X#X#X#X#X#X#X#X#X#X#X#X#X#X#X#X#X#X#X#X#X#X#X#X#X#X#X#X#X#X#X#X#X#X#X#X#X#X#X#X#X#X#X#X#X#X#X#X#X#X#X#X#X#X#X#X#X#X#X#X#X#X#X#X#X#X#X#X#X#X#X#X#X#X#X#X#X#X#X#X#X#X#X#X#X#X#X#X#X#X#X#X#X#X#X#X#X#X#X#X#X#X#X#X#X#X#X#X#X#X#X#X#X",
"#X#X#X#X#X#X#X#X#X#X#X#X#X#X#X#X#X#X#X#X#X#X#X#X#X#X#X#X#X#X#X#X#X#X#X#X#X#X#X#X#X#X#X#X#X#X#X#X#X#X#X#X#X#X#X#X#X#X#X#X#X#X#X#X#X#X#X#X#X#X#X#X#X#X#X#X#X#X#X#X#X#X#X#X#X#X#X#X#X#X#X#X#X#X#X#X#X#X#X#X#X#X#X#X#X#X#X#X#X#X#X#X#X#X#X#X#X#X#X#X#X#X#X#X#X#X#X#X#X#X#X#X#X#X#X#X#X#X#X#X#X#X#X).D gXzXfXxXkXnXnXnXxXuX0XxX=.l.g.g.f.d.d.l.l.z.d.z.z.j.I.D.L.S.V.K.K.K.C.B.V.K.K.b.c.v.z.c.b.V.L.C.C.K.L.L.K.C.C.S.B.T.m.c.k.v.B.d.z.v.B.Y.V.V.S.S.C.f.X.v.P.I.c.B.K.K.Y.S.T.g.n.T.m.n.I.f.J.c.l.k.n.T.c.c.b.S.V.v.S.C.S.B.T.n.k.v.S.n.v.B.V.n.b.F.S.m.m.H.V.z.v.n.v.j.j.k.j.h.x.x.j.z.z.d.z.k.z.c.l.} } GXCX=.:.4.3.&.*.i.s.p.8.8.8.8.3...7.*...5.r.2.#.2.*.5.4.0.a.p.7.&.&.7.&.r.2.3.R R *.&.&.7.&.*.&.=.&.&.8.7.u.5.3.r.#.#.X.F <.#.1.X.#.>.1.r.R 8.p.6.8.*.5...5.4.r.4.2.2.4...s.&.r.t.*.7.&.3.5.4.8.i.8.8.7.5.9.s.7.9.i.u.u.5.5.5.9.q.&.p.8.1.1.r.r.%.*.@.7.8.i.T q.=.7.i.+.B.BX#X#X#X#X#X#X#X#X#X#X#X#X#X#X#X#X#X#X#X#X#X#X#X#X#X#X#X#X#X#X#X#X#X#X#X#X#X#X#X#X#X#X#X#X#X#X#X#X#X#X#X#X#X#X#X#X#X#X#X#X#X#X#X#X#X#X#X#X#X#X#X#X#X#X#X#X#X#X#X#X#X#X#X#X#X#X#X#X#X#X#X#X#X#X#X#X#X#X#X#X#X#X#X#X#X#X#X#X#X#X#X#X#X#X#X#X#X#X#X#X#X#X#X#X#X#X#X#X#X#X#X#X#X#X#X#X#X#X#X#X#X#X#X#X#X#X#X#X#X#X#X#X#X#X#X#X#X#X#X#X#X#X#X#X#X#X#X#X#X#X#X#X",
"#X#X#X#X#X#X#X#X#X#X#X#X#X#X#X#X#X#X#X#X#X#X#X#X#X#X#X#X#X#X#X#X#X#X#X#X#X#X#X#X#X#X#X#X#X#X#X#X#X#X#X#X#X#X#X#X#X#X#X#X#X#X#X#X#X#X#X#X#X#X#X#X#X#X#X#X#X#X#X#X#X#X#X#X#X#X#X#X#X#X#X#X#X#X#X#X#X#X#X#X#X#X#X#X#X#X#X#X#X#X#X#X#X#X#X#X#X#X#X#X#X#X#X#X#X#X#X#X#X#X#X#X#X#X#X#X#X#X#X#X#X#X% #X_ hXzXsXsXnXkXnXxXnXxX0X4Xg.&.v.n.c.J.d.d.d.z.z.z.z.k.I.F.K.S.V.K.L.K.L.S.T.V.V.B.T.B.c.c.B.K.L.H.H.Y.H.Y.S.S.V.V.B.m.T.b.f.l.I.f.d.b.b.n.T.B.m.T.B.n.k.V.V.c.n.V.S.V.B.B.V.n.T.Y.V.I.c.J.d.c.v.z.d.c.n.b.m.H.V.h.l.b.b.b.b.n.v.c.P.V.n.V.B.b.T.C.V.B.m.V.S.n.c.b.T.c.k.j.N.N.N.h.h.j.X.x.k.d.c.l.r.{ d.7X. V.} 5.u.3.8.6.0.K.s.8.i.=.&.&.&.5.t.t.4.$.<.$.2.2.7.[ s.i.i.8.=.&...t.&.p.p.8.&.&.&.=.=.7.7.7.7.&.=.*.u.3.&.*.2.1.1.<.$.%.%.R #.#.4.u.E r.q.9.3.3.3.*.u.u.u.%.1.M.l...5.t.r.u.*.&.*.r.t.r.3.8.6.i.7.3.8.q.7.i.8...O.4.r.t.&.&.=.p.*.#.r.2.$.>.2.5.&.8.i.i.i.q.8.8.@.9.#XVX#X#X#X#X#X#X#X#X#X#X#X#X#X#X#X#X#X#X#X#X#X#X#X#X#X#X#X#X#X#X#X#X#X#X#X#X#X#X#X#X#X#X#X#X#X#X#X#X#X#X#X#X#X#X#X#X#X#X#X#X#X#X#X#X#X#X#X#X#X#X#X#X#X#X#X#X#X#X#X#X#X#X#X#X#X#X#X#X#X#X#X#X#X#X#X#X#X#X#X#X#X#X#X#X#X#X#X#X#X#X#X#X#X#X#X#X#X#X#X#X#X#X#X#X#X#X#X#X#X#X#X#X#X#X#X#X#X#X#X#X#X#X#X#X#X#X#X#X#X#X#X#X#X#X#X#X#X#X#X#X#X#X#X#X#X#X#X#X#X#X#X",
"#X#X#X#X#X#X#X#X#X#X#X#X#X#X#X#X#X#X#X#X#X#X#X#X#X#X#X#X#X#X#X#X#X#X#X#X#X#X#X#X#X#X#X#X#X#X#X#X#X#X#X#X#X#X#X#X#X#X#X#X#X#X#X#X#X#X#X#X#X#X#X#X#X#X#X#X#X#X#X#X#X#X#X#X#X#X#X#X#X#X#X#X#X#X#X#X#X#X#X#X#X#X#X#X#X#X#X#X#X#X#X#X#X#X#X#X#X#X#X#X#X#X#X#X#X#X#X#X#X#X#X#X#X#X#X#X#X#X#X#X#X#X#X#X_ aXzXfXsXsXzXlXnXxXxXfX0XfXq.q.g.v.f.z.z.d.z.G.d.z.k.B.L.C.C.K.C.K.K.L.L.V.b.m.S.S.B.n.n.V.L.C.C.S.S.S.S.B.B.m.w.m.m.b.T.n.n.T.e.b.b.I.b.n.n.n.n.b.g.e.U.v.Y.V.B.S.m.T.T.T.V.S.S.Y.K.T.z.z.v.c.l.z.d.b.B.B.Y.H.l.d.v.v.g.b.c.c.g.n.b.m.T.m.B.T.m.S.V.B.m.B.B.g.c.n.T.n.X.h.N.N.h.X.k.X.h.d.v.v.c.%.,.g.. . C.:.5.u.4.&.p.8.0.s.i.i.8.8.8.=.7.*.5.5.1.#.4.1.r.i.y.i.i.i.i.8.&...q.8.s.9.8.8.7.=.8.8.i.8.=.8.7.=.=.&.*.*.7.E H #.<.$.1.2.%.1.4.t.E E 2.h.M.2.%.u.r.1.1.%.%.2...z.u...M.r.4...&.5.2.%.t.5.5.&.8.8.7.&.7.8.i.&...=.&.u...&.&.=.i.4.2.4.r.2.2.r.1.r.*.7.i.i.9.9.9.8.7.W.BX#X#X#X#X#X#X#X#X#X#X#X#X#X#X#X#X#X#X#X#X#X#X#X#X#X#X#X#X#X#X#X#X#X#X#X#X#X#X#X#X#X#X#X#X#X#X#X#X#X#X#X#X#X#X#X#X#X#X#X#X#X#X#X#X#X#X#X#X#X#X#X#X#X#X#X#X#X#X#X#X#X#X#X#X#X#X#X#X#X#X#X#X#X#X#X#X#X#X#X#X#X#X#X#X#X#X#X#X#X#X#X#X#X#X#X#X#X#X#X#X#X#X#X#X#X#X#X#X#X#X#X#X#X#X#X#X#X#X#X#X#X#X#X#X#X#X#X#X#X#X#X#X#X#X#X#X#X#X#X#X#X#X#X#X#X#X#X#X#X#X#X",
"#X#X#X#X#X#X#X#X#X#X#X#X#X#X#X#X#X#X#X#X#X#X#X#X#X#X#X#X#X#X#X#X#X#X#X#X#X#X#X#X#X#X#X#X#X#X#X#X#X#X#X#X#X#X#X#X#X#X#X#X#X#X#X#X#X#X#X#X#X#X#X#X#X#X#X#X#X#X#X#X#X#X#X#X#X#X#X#X#X#X#X#X#X#X#X#X#X#X#X#X#X#X#X#X#X#X#X#X#X#X#X#X#X#X#X#X#X#X#X#X#X#X#X#X#X#X#X#X#X#X#X#X#X#X#X#X#X#X#X#X#X#X#X#X).#XgXzXsXsXxXlXkXxXnXxXzX0XxX9.v.g.n.d.z.d.d.d.f.z.c.C.C.K.K.S.S.C.K.L.L.K.T.m.V.S.V.b.T.m.C.L.C.S.S.C.H.S.S.B.m.m.m.m.b.b.V.S.B.Y.C.S.S.B.n.c.n.g.c.P.Y.n.C.S.V.V.I.b.w.T.T.B.V.V.K.L.c.z.z.c.l.M.l.n.B.V.C.Y.k.X.z.z.l.c.J.n.T.b.T.m.m.m.B.V.H.S.S.V.B.m.m.m.b.n.b.B.l.h.h.N.N.h.k.h.j.v.l.l.f.M.z.(.. . V.:.t.t.t.&.p.a.p.i.p.i.i.8.8.7.=.&.*.*.3.%.2.r.4.8.p.i.i.p.i.=.*...v.7.8.8.8.8.8.8.8.i.7.3.8.8.=.&.&.=.&.*.&.q.E <.<.1.1.X.1.2.t.u.E 4.u.4.2.1.#.1.$.#.2.2.#.1.z.Y *.*...t.2.M...5.1.2.u.t.u.*.5.&.&.7.8.8.8.5.q.0.8.=...*.*.T 8.1.1.4.u.5.3...*.E 4.7.i.i.p.9.s.8.8.`.7X#X#X#X#X#X#X#X#X#X#X#X#X#X#X#X#X#X#X#X#X#X#X#X#X#X#X#X#X#X#X#X#X#X#X#X#X#X#X#X#X#X#X#X#X#X#X#X#X#X#X#X#X#X#X#X#X#X#X#X#X#X#X#X#X#X#X#X#X#X#X#X#X#X#X#X#X#X#X#X#X#X#X#X#X#X#X#X#X#X#X#X#X#X#X#X#X#X#X#X#X#X#X#X#X#X#X#X#X#X#X#X#X#X#X#X#X#X#X#X#X#X#X#X#X#X#X#X#X#X#X#X#X#X#X#X#X#X#X#X#X#X#X#X#X#X#X#X#X#X#X#X#X#X#X#X#X#X#X#X#X#X#X#X#X#X#X#X#X#X#X#X",
"#X#X#X#X#X#X#X#X#X#X#X#X#X#X#X#X#X#X#X#X#X#X#X#X#X#X#X#X#X#X#X#X#X#X#X#X#X#X#X#X#X#X#X#X#X#X#X#X#X#X#X#X#X#X#X#X#X#X#X#X#X#X#X#X#X#X#X#X#X#X#X#X#X#X#X#X#X#X#X#X#X#X#X#X#X#X#X#X#X#X#X#X#X#X#X#X#X#X#X#X#X#X#X#X#X#X#X#X#X#X#X#X#X#X#X#X#X#X#X#X#X#X#X#X#X#X#X#X#X#X#X#X#X#X#X#X#X#X#X#X#X#X#X#XAX_ jXuXfXsXwXfXkXkXnXxXxXuX0X<Xq.n.b.b.w.c.d.d.f.l.e.K.H.K.S.V.S.H.K.K.L.C.b.B.S.C.S.T.m.S.V.V.K.C.H.C.C.H.S.V.B.m.B.m.b.T.m.m.K.C.H.S.C.H.B.I.n.c.g.V.b.m.S.V.S.S.T.T.b.m.V.V.V.B.Y.B.g.T.c.J.f.f.v.n.T.V.C.c.h.d.c.n.b.g.v.B.C.C.V.V.V.S.S.C.Y.S.C.S.B.m.m.m.m.b.n.Y.I.h.X.h.N.h.X.h.k.v.v.f.M.e.. . 7XC.U 5.5.5.t.3.8.p.a.a.0.p.i.i.8.8.7.&.&.*.+.u.2.4.4.*.a.a.p.i.8.8.7.*.t.&.i.p.i.8.p.i.p.p.r.r.&.8.7.&.&.&.=.*.&.9...$.#.2.1.1.$.2.5.R 4.r.4.E 4.1.<.$.X.1.2.2.$.X.Y E u.E d.E 2.4.5.u.#.2.t.r.4...%.t.&.&.7.7.&.*.p.9.7.8.=.*.=.i.&.$.,.2.&.7.&.&.=.=.*.*.6.p.p.p.s.i.s.VXVX#X#X#X#X#X#X#X#X#X#X#X#X#X#X#X#X#X#X#X#X#X#X#X#X#X#X#X#X#X#X#X#X#X#X#X#X#X#X#X#X#X#X#X#X#X#X#X#X#X#X#X#X#X#X#X#X#X#X#X#X#X#X#X#X#X#X#X#X#X#X#X#X#X#X#X#X#X#X#X#X#X#X#X#X#X#X#X#X#X#X#X#X#X#X#X#X#X#X#X#X#X#X#X#X#X#X#X#X#X#X#X#X#X#X#X#X#X#X#X#X#X#X#X#X#X#X#X#X#X#X#X#X#X#X#X#X#X#X#X#X#X#X#X#X#X#X#X#X#X#X#X#X#X#X#X#X#X#X#X#X#X#X#X#X#X#X#X#X#X#X#X",
"#X#X#X#X#X#X#X#X#X#X#X#X#X#X#X#X#X#X#X#X#X#X#X#X#X#X#X#X#X#X#X#X#X#X#X#X#X#X#X#X#X#X#X#X#X#X#X#X#X#X#X#X#X#X#X#X#X#X#X#X#X#X#X#X#X#X#X#X#X#X#X#X#X#X#X#X#X#X#X#X#X#X#X#X#X#X#X#X#X#X#X#X#X#X#X#X#X#X#X#X#X#X#X#X#X#X#X#X#X#X#X#X#X#X#X#X#X#X#X#X#X#X#X#X#X#X#X#X#X#X#X#X#X#X#X#X#X#X#X#X#X#X#X#X#X_ 1XzXfXsXsX4XeXhXkXnXzXuX0XuXw.q.w.m.B.w.c.l.f.z.w.L.K.Y.H.Y.S.S.Y.H.S.T.n.T.S.S.T.T.V.S.V.m.V.C.C.C.C.C.S.V.V.B.B.w.b.b.I.c.b.C.C.C.C.Y.V.m.b.n.c.c.g.T.V.S.S.Y.K.m.S.C.T.V.S.V.m.T.T.T.H.n.d.c.g.b.m.S.S.n.T.H.V.B.T.c.T.C.C.C.S.S.S.S.K.L.d.l.V.S.V.B.m.m.m.w.b.Y.b.h.h.h.j.k.j.h.k.v.v.v.M.( . Z.=.| 3.3.5.5.t.4.4.5.8.8.p.a.p.p.8.7.7.*.*.*...5.2.4.t.3.&.8.p.p.8.=.7.&.*.*.i.p.i.i.p.p.8.r.r.4.t.&.7.7.&.7.&.&.=.=.5.#.1.4.%.1.<.r.t.t.4.2.%.u.%.2.#.>.2.2.2.2.2.M.%.4.r.u.l.l.u.u.5.u.2.1.t.4.4.u.%.4.&.&.&.*.*.7.7.8.8.7.8.=.8.p.4.#.$.1.&.8.7.&.&.*...*.i.s.-.i.0.9.B.VXVX_.#X#X#X#X#X#X#X#X#X#X#X#X#X#X#X#X#X#X#X#X#X#X#X#X#X#X#X#X#X#X#X#X#X#X#X#X#X#X#X#X#X#X#X#X#X#X#X#X#X#X#X#X#X#X#X#X#X#X#X#X#X#X#X#X#X#X#X#X#X#X#X#X#X#X#X#X#X#X#X#X#X#X#X#X#X#X#X#X#X#X#X#X#X#X#X#X#X#X#X#X#X#X#X#X#X#X#X#X#X#X#X#X#X#X#X#X#X#X#X#X#X#X#X#X#X#X#X#X#X#X#X#X#X#X#X#X#X#X#X#X#X#X#X#X#X#X#X#X#X#X#X#X#X#X#X#X#X#X#X#X#X#X#X#X#X#X#X#X#X#X",
"#X#X#X#X#X#X#X#X#X#X#X#X#X#X#X#X#X#X#X#X#X#X#X#X#X#X#X#X#X#X#X#X#X#X#X#X#X#X#X#X#X#X#X#X#X#X#X#X#X#X#X#X#X#X#X#X#X#X#X#X#X#X#X#X#X#X#X#X#X#X#X#X#X#X#X#X#X#X#X#X#X#X#X#X#X#X#X#X#X#X#X#X#X#X#X#X#X#X#X#X#X#X#X#X#X#X#X#X#X#X#X#X#X#X#X#X#X#X#X#X#X#X#X#X#X#X#X#X#X#X#X#X#X#X#X#X#X#X#X#X#X#X#X#X#XAX_ dXzXsXsX4XeX_ nXzXnXzXpX0X<X0.b.w.m.m.T.g.l.d.e.L.L.C.S.S.S.S.S.T.c.w.b.m.V.B.n.T.S.S.S.C.Y.S.K.L.L.K.C.H.S.B.m.m.b.n.c.c.l.n.L.L.K.C.H.V.B.w.n.n.n.I.T.B.V.Y.V.T.S.Y.T.S.K.V.S.V.V.V.Y.S.z.d.T.m.B.B.Y.U.K.H.V.B.w.b.C.S.C.S.S.H.H.C.L.T.z.l.c.b.m.m.b.m.m.m.T.B.z.$.x.d.c.c.v.d.k.v.c.l.l.g.T | 3.&.*.5.t.5.5.4.r.2.q.=.5.7.&.&.8.8.7.*.5.5...3.u.M.5.3.1.#.u.&.8.8.i.8.8.&.=.i.8.7.7.=.t.r.t.t.5.*.&.=.7.&.=.&.&.7.t.%.3.3.3...%.4.R 4.r.r.R u.R R X.1.1.1.1.#.2.2.r.4.4.U 3...*...4.4.4.1.r.t.%.E %.%.5.*.*.....&.6.i.8.=.=.=.8.5.#.X.#.#.&.y.7.7.=.&.....p.a.a.i.p.8.C.BX#X#X#X#X#X#X#X#X#X#X#X#X#X#X#X#X#X#X#X#X#X#X#X#X#X#X#X#X#X#X#X#X#X#X#X#X#X#X#X#X#X#X#X#X#X#X#X#X#X#X#X#X#X#X#X#X#X#X#X#X#X#X#X#X#X#X#X#X#X#X#X#X#X#X#X#X#X#X#X#X#X#X#X#X#X#X#X#X#X#X#X#X#X#X#X#X#X#X#X#X#X#X#X#X#X#X#X#X#X#X#X#X#X#X#X#X#X#X#X#X#X#X#X#X#X#X#X#X#X#X#X#X#X#X#X#X#X#X#X#X#X#X#X#X#X#X#X#X#X#X#X#X#X#X#X#X#X#X#X#X#X#X#X#X#X#X#X#X#X#X#X#X",
"#X#X#X#X#X#X#X#X#X#X#X#X#X#X#X#X#X#X#X#X#X#X#X#X#X#X#X#X#X#X#X#X#X#X#X#X#X#X#X#X#X#X#X#X#X#X#X#X#X#X#X#X#X#X#X#X#X#X#X#X#X#X#X#X#X#X#X#X#X#X#X#X#X#X#X#X#X#X#X#X#X#X#X#X#X#X#X#X#X#X#X#X#X#X#X#X#X#X#X#X#X#X#X#X#X#X#X#X#X#X#X#X#X#X#X#X#X#X#X#X#X#X#X#X#X#X#X#X#X#X#X#X#X#X#X#X#X#X#X#X#X#X#X#X#X#X_ OXfXfXsXqX4X}.jXlXnXzXpX0XfXb.b.b.w.w.w.b.k.f.L.K.C.K.H.V.B.B.m.c.c.m.m.V.S.m.n.V.S.H.C.K.L.K.H.S.V.B.V.V.B.V.B.b.b.n.n.n.c.l.T.C.K.C.C.C.S.B.T.b.n.b.n.T.g.c.T.V.T.w.S.B.V.S.S.S.Y.K.C.Y.d.z.v.b.v.g.K.K.H.C.S.B.m.n.c.T.C.K.C.C.S.C.S.z.z.l.v.g.b.m.B.m.m.S.S.w.z.j.l.c.c.c.c.v.d.f.v.f.f.d.3.&.&.&.| O.3.*.5.*.u.4.*.&.3.t.r.r.5.5.5.....u.5.*.5.t.t.1.,.r.u.t.&.&.4.3.&.8.=.=.&.*.*.*.7.&.5.E ....&.=.&.*.&.=.T *.4.U 3.....=.*.%.4.4.r.4.5.5.%.1.H Y X.1.$.<.1.r.r.%.5...3.t.E ....t.r.$.#.4.%.%.%.%.4.t.E ..E ..8.y.8.7.8.i.u.>.2.X.<.>.4.8.8.7.=.7.&.t.7.p.i.p.i.8.C.BX#X#X#X#X#X#X#X#X#X#X#X#X#X#X#X#X#X#X#X#X#X#X#X#X#X#X#X#X#X#X#X#X#X#X#X#X#X#X#X#X#X#X#X#X#X#X#X#X#X#X#X#X#X#X#X#X#X#X#X#X#X#X#X#X#X#X#X#X#X#X#X#X#X#X#X#X#X#X#X#X#X#X#X#X#X#X#X#X#X#X#X#X#X#X#X#X#X#X#X#X#X#X#X#X#X#X#X#X#X#X#X#X#X#X#X#X#X#X#X#X#X#X#X#X#X#X#X#X#X#X#X#X#X#X#X#X#X#X#X#X#X#X#X#X#X#X#X#X#X#X#X#X#X#X#X#X#X#X#X#X#X#X#X#X#X#X#X#X#X#X#X#X",
"#X#X#X#X#X#X#X#X#X#X#X#X#X#X#X#X#X#X#X#X#X#X#X#X#X#X#X#X#X#X#X#X#X#X#X#X#X#X#X#X#X#X#X#X#X#X#X#X#X#X#X#X#X#X#X#X#X#X#X#X#X#X#X#X#X#X#X#X#X#X#X#X#X#X#X#X#X#X#X#X#X#X#X#X#X#X#X#X#X#X#X#X#X#X#X#X#X#X#X#X#X#X#X#X#X#X#X#X#X#X#X#X#X#X#X#X#X#X#X#X#X#X#X#X#X#X#X#X#X#X#X#X#X#X#X#X#X#X#X#X#X#X#X#X#X#X).D sXzXfXsX4X2XCXgXkXnXuXpX0X<X9.b.b.b.w.T.d.j.C.L.L.L.V.T.b.T.T.b.n.T.V.S.C.B.b.S.C.C.K.K.L.S.c.v.l.l.v.n.T.B.B.m.b.b.T.b.c.v.l.n.B.T.B.S.B.m.w.b.b.T.v.g.l.d.B.Y.T.n.T.S.S.H.Y.S.B.S.Y.V.l.z.z.z.k.c.K.C.C.H.S.V.B.w.n.b.V.C.C.S.m.T.w.b.b.c.v.v.c.w.B.V.S.B.c.l.c.n.v.c.v.l.l.f.d.l.c.v.l.d.5.3.3.| 7.L.AXm.5.7.&.t.*.=.&...E E R %.%.u.E t...&.t.1.<.<.$.u.=.3.5.*.1.>.#.4.&.8.&.&.&.*.7.&.3.E 4.E *.&.&.&.8.=.*.5.R u...*...*.E 4.%.4.1.<.2.u.r.#.1.R r.2.<.$.#.2.2.1.u.5.3.u.u.*.*.*.u.2.#.2.2.%.%.F #.2.u.E ..*.5.*.i.7.8.i.E >.%.#.>.#.1.r.7.6.7.7.7.*.7.p.p.p.p.i.b.` 7X#X#X#X#X#X#X#X#X#X#X#X#X#X#X#X#X#X#X#X#X#X#X#X#X#X#X#X#X#X#X#X#X#X#X#X#X#X#X#X#X#X#X#X#X#X#X#X#X#X#X#X#X#X#X#X#X#X#X#X#X#X#X#X#X#X#X#X#X#X#X#X#X#X#X#X#X#X#X#X#X#X#X#X#X#X#X#X#X#X#X#X#X#X#X#X#X#X#X#X#X#X#X#X#X#X#X#X#X#X#X#X#X#X#X#X#X#X#X#X#X#X#X#X#X#X#X#X#X#X#X#X#X#X#X#X#X#X#X#X#X#X#X#X#X#X#X#X#X#X#X#X#X#X#X#X#X#X#X#X#X#X#X#X#X#X#X#X#X#X#X#X",
"#X#X#X#X#X#X#X#X#X#X#X#X#X#X#X#X#X#X#X#X#X#X#X#X#X#X#X#X#X#X#X#X#X#X#X#X#X#X#X#X#X#X#X#X#X#X#X#X#X#X#X#X#X#X#X#X#X#X#X#X#X#X#X#X#X#X#X#X#X#X#X#X#X#X#X#X#X#X#X#X#X#X#X#X#X#X#X#X#X#X#X#X#X#X#X#X#X#X#X#X#X#X#X#X#X#X#X#X#X#X#X#X#X#X#X#X#X#X#X#X#X#X#X#X#X#X#X#X#X#X#X#X#X#X#X#X#X#X#X#X#X#X#X#X#X#X#X_ jXzXfXsXqX4X_ O lXxXnXfXpXsXG n.n.n.n.m.B.d.I.K.K.H.V.B.S.V.V.V.n.n.V.S.V.c.b.L.C.C.K.L.C.m.n.n.n.c.v.l.n.n.b.T.w.m.B.B.n.c.c.v.v.d.l.f.c.b.m.m.T.n.v.J.v.n.T.T.e.B.V.V.S.C.H.V.n.n.T.g.g.J.j.j.d.v.C.L.K.C.C.H.S.B.B.m.m.V.V.m.w.b.b.B.m.b.c.v.c.b.m.B.m.c.d.l.c.c.v.f.d.d.l.f.z.k.v.v.f.v.R O.=.Y.+X. W.&.7.8.i.8.8.&.&.....E E E E R 4.t.*.5.4.#.,.<.>.u.&.*...&.&.3.t.4.t.3.=.=.&.*.&.&.&.*.E t.t.3.&.7.*.t.t.......E E ..*.5.r.4.%.1.<.<.#.1.1.2.%.r.r.$.#.#.%.#.1.%.X.u.*.R E ..*.*.5.1.r.2.#.X.2.M.T ..E *.=.t.O.8.8.7.8.5.$.X.1.<.$.1.r.r.*.i.8.7.7.8.6.i.p.i.p.T !.+X#X#X#X#X#X#X#X#X#X#X#X#X#X#X#X#X#X#X#X#X#X#X#X#X#X#X#X#X#X#X#X#X#X#X#X#X#X#X#X#X#X#X#X#X#X#X#X#X#X#X#X#X#X#X#X#X#X#X#X#X#X#X#X#X#X#X#X#X#X#X#X#X#X#X#X#X#X#X#X#X#X#X#X#X#X#X#X#X#X#X#X#X#X#X#X#X#X#X#X#X#X#X#X#X#X#X#X#X#X#X#X#X#X#X#X#X#X#X#X#X#X#X#X#X#X#X#X#X#X#X#X#X#X#X#X#X#X#X#X#X#X#X#X#X#X#X#X#X#X#X#X#X#X#X#X#X#X#X#X#X#X#X#X#X#X#X#X#X#X#X#X",
"#X#X#X#X#X#X#X#X#X#X#X#X#X#X#X#X#X#X#X#X#X#X#X#X#X#X#X#X#X#X#X#X#X#X#X#X#X#X#X#X#X#X#X#X#X#X#X#X#X#X#X#X#X#X#X#X#X#X#X#X#X#X#X#X#X#X#X#X#X#X#X#X#X#X#X#X#X#X#X#X#X#X#X#X#X#X#X#X#X#X#X#X#X#X#X#X#X#X#X#X#X#X#X#X#X#X#X#X#X#X#X#X#X#X#X#X#X#X#X#X#X#X#X#X#X#X#X#X#X#X#X#X#X#X#X#X#X#X#X#X#X#X#X#X#X#X#X).).gXzXsXqX4XeX_ gXkXxXzXpXfXs.c.g.c.g.b.S.S.V.S.V.V.Y.K.L.K.S.Y.Y.B.V.T.l.z.C.P.H.K.S.V.m.b.T.m.B.T.n.l.f.n.c.c.b.V.m.B.V.b.n.c.v.f.d.d.l.c.T.B.w.c.c.g.b.b.I.n.V.C.C.S.H.S.B.B.m.m.b.b.T.T.z.z.l.f.T.K.L.L.K.C.C.K.K.K.C.S.V.B.m.m.m.m.w.b.n.c.n.c.v.c.n.c.v.v.c.c.f.d.l.f.v.l.k.z.v.v.c.z.2.2.l.I.Y.Z.&.+.8.8.8.p...1.r.4.........t.4.5.u.4.u.t.1.$.<.$.u.*...&.=.*.&.&.3.u.t.5.&.&.&.&.*.*.=...2.%.4.*...O.....E E ....E ....4.1.1.R %.#.<.,.$.r.4.r.r.2.h.>.#.%.M.E *.l.=.&.5.4.E *.&.5.2.4.4.#.#.2.l.q.E 5.7.7.r.%.3.7.8.7.2.>.2.X.<.<.2.O.l.4.O.7.8.8.7.8.i.i.i.6.s.mXVX#X#X#X#X#X#X#X#X#X#X#X#X#X#X#X#X#X#X#X#X#X#X#X#X#X#X#X#X#X#X#X#X#X#X#X#X#X#X#X#X#X#X#X#X#X#X#X#X#X#X#X#X#X#X#X#X#X#X#X#X#X#X#X#X#X#X#X#X#X#X#X#X#X#X#X#X#X#X#X#X#X#X#X#X#X#X#X#X#X#X#X#X#X#X#X#X#X#X#X#X#X#X#X#X#X#X#X#X#X#X#X#X#X#X#X#X#X#X#X#X#X#X#X#X#X#X#X#X#X#X#X#X#X#X#X#X#X#X#X#X#X#X#X#X#X#X#X#X#X#X#X#X#X#X#X#X#X#X#X#X#X#X#X#X#X#X#X#X#X#X#X",
"#X#X#X#X#X#X#X#X#X#X#X#X#X#X#X#X#X#X#X#X#X#X#X#X#X#X#X#X#X#X#X#X#X#X#X#X#X#X#X#X#X#X#X#X#X#X#X#X#X#X#X#X#X#X#X#X#X#X#X#X#X#X#X#X#X#X#X#X#X#X#X#X#X#X#X#X#X#X#X#X#X#X#X#X#X#X#X#X#X#X#X#X#X#X#X#X#X#X#X#X#X#X#X#X#X#X#X#X#X#X#X#X#X#X#X#X#X#X#X#X#X#X#X#X#X#X#X#X#X#X#X#X#X#X#X#X#X#X#X#X#X#X#X#X#X#X#X#X_ hXpXfXsXqX0X}.DXlXxXzXuX0XgXT c.c.m.K.K.K.V.S.S.S.C.K.K.L.C.K.L.Y.H.T.z.c.K.C.C.H.m.m.B.B.V.S.S.B.T.d.l.n.n.c.w.B.B.m.m.m.b.b.n.c.c.l.f.c.b.T.g.v.c.v.n.V.b.I.H.H.S.K.C.S.V.m.m.B.m.T.b.T.B.c.J.c.c.g.v.n.n.n.V.I.g.g.g.b.B.V.S.V.B.m.b.b.b.b.v.z.z.c.v.d.c.n.c.c.v.v.v.c.v.k.x.f.c.c.M.#.%.%.t.I I O.3.8.=.&.&.*.4.1.1.%.%.E *...t.*...2.2.u.r.#.X.F 1.4.&.*.E ..&.*.*...E ..E E ..5.t.t.*.&.2.2.t.u.*.1.1.*.3.4...*.R 4.%.2.2.#.1.%.X.1.#.$.<.2.r.1.X.j.#.<.%.d.E t.5.3.*.*.&.5.R R E u.r.4.u.r.1.2.R u...&.&.4.2.R t.5.&.u.1.#.2.X.$.#.t.5.9.E 1.5.6.8.8.6.y.p.p.i.Z.7X#X#X#X#X#X#X#X#X#X#X#X#X#X#X#X#X#X#X#X#X#X#X#X#X#X#X#X#X#X#X#X#X#X#X#X#X#X#X#X#X#X#X#X#X#X#X#X#X#X#X#X#X#X#X#X#X#X#X#X#X#X#X#X#X#X#X#X#X#X#X#X#X#X#X#X#X#X#X#X#X#X#X#X#X#X#X#X#X#X#X#X#X#X#X#X#X#X#X#X#X#X#X#X#X#X#X#X#X#X#X#X#X#X#X#X#X#X#X#X#X#X#X#X#X#X#X#X#X#X#X#X#X#X#X#X#X#X#X#X#X#X#X#X#X#X#X#X#X#X#X#X#X#X#X#X#X#X#X#X#X#X#X#X#X#X#X#X#X#X#X#X#X",
"#X#X#X#X#X#X#X#X#X#X#X#X#X#X#X#X#X#X#X#X#X#X#X#X#X#X#X#X#X#X#X#X#X#X#X#X#X#X#X#X#X#X#X#X#X#X#X#X#X#X#X#X#X#X#X#X#X#X#X#X#X#X#X#X#X#X#X#X#X#X#X#X#X#X#X#X#X#X#X#X#X#X#X#X#X#X#X#X#X#X#X#X#X#X#X#X#X#X#X#X#X#X#X#X#X#X#X#X#X#X#X#X#X#X#X#X#X#X#X#X#X#X#X#X#X#X#X#X#X#X#X#X#X#X#X#X#X#X#X#X#X#X#X#X#X#X#X#XD $XgXfXsXsX0XeXD zXnXxXzXpXeXC l.b.L.F.C.S.T.B.Y.S.S.H.C.L.L.L.g.v.V.B.n.S.L.H.C.V.m.B.S.S.C.S.S.H.T.z.l.c.q.q.b.V.V.B.m.m.b.b.T.n.n.n.v.c.b.n.v.v.c.c.n.S.S.B.Y.S.S.C.C.C.S.B.V.V.B.w.b.b.m.T.c.g.n.b.v.z.v.g.T.v.k.k.M.f.n.n.T.B.B.T.n.n.b.n.z.d.v.n.k.N.k.g.n.c.n.d.k.k.j.x.k.v.v.M.1.%.E %.r.u.U t.&.&.*.&.*.5.t.4.%.H %.X.u.5.5...R X.%.u.2.$.F $.<.<.%.*.&.&.*.*.*.....E E E E 4.%.t.=.E 1.4.4.*.M.<.$.2.E E *.4.$.>.>.#.2.2.%.R 2.1.#.#.#.#.1.x.X.h.$.1.E 4.O.t.5.3.*.&.&.=.*...4.4.$.<.2.t.2.r.u.5.&.5.>.$.X.2.4.t.t.1.1.%.%.1.#.2.4.t.....E ..&.&.@.8.0.p.i.S.CX@X_.#X#X#X#X#X#X#X#X#X#X#X#X#X#X#X#X#X#X#X#X#X#X#X#X#X#X#X#X#X#X#X#X#X#X#X#X#X#X#X#X#X#X#X#X#X#X#X#X#X#X#X#X#X#X#X#X#X#X#X#X#X#X#X#X#X#X#X#X#X#X#X#X#X#X#X#X#X#X#X#X#X#X#X#X#X#X#X#X#X#X#X#X#X#X#X#X#X#X#X#X#X#X#X#X#X#X#X#X#X#X#X#X#X#X#X#X#X#X#X#X#X#X#X#X#X#X#X#X#X#X#X#X#X#X#X#X#X#X#X#X#X#X#X#X#X#X#X#X#X#X#X#X#X#X#X#X#X#X#X#X#X#X#X#X#X#X#X#X#X#X#X",
"#X#X#X#X#X#X#X#X#X#X#X#X#X#X#X#X#X#X#X#X#X#X#X#X#X#X#X#X#X#X#X#X#X#X#X#X#X#X#X#X#X#X#X#X#X#X#X#X#X#X#X#X#X#X#X#X#X#X#X#X#X#X#X#X#X#X#X#X#X#X#X#X#X#X#X#X#X#X#X#X#X#X#X#X#X#X#X#X#X#X#X#X#X#X#X#X#X#X#X#X#X#X#X#X#X#X#X#X#X#X#X#X#X#X#X#X#X#X#X#X#X#X#X#X#X#X#X#X#X#X#X#X#X#X#X#X#X#X#X#X#X#X#X#X#X#X#X#X#X_ hXpXsXsXqX0XtXdXkXxXzXpXqX7XC.w.K.C.K.S.w.B.Y.C.V.S.C.K.U.V.h.d.n.b.S.C.F.K.S.V.B.B.S.H.H.H.K.C.v...l.v.g.n.b.m.S.B.m.w.b.b.n.n.c.v.v.g.T.g.v.c.g.c.c.T.g.n.L.K.C.C.K.K.K.C.S.S.B.m.w.b.b.T.n.n.I.T.T.v.n.b.n.b.b.b.b.b.n.v.v.g.n.n.g.n.T.g.d.v.v.c.z.h.h.x.d.f.d.j.k.X.x.k.z.z.2.2.r.%.R R 1.r.5.4.5.7.=.&.&.&...E R R %.%.r.2.4.M.%.2.%.4.$.J ,.,.<.,.J #.4.%.*.&...u.u.u.R u.t.t.5.&.&...4.4...u.#.$.$.<.$.X.1.$.>.<.#.4.r.%.R 4.1.1.1.1.1.>.#.1.<.$.>.2.r.r.u.5.3.*.7.&.&.&.7.7.*...u.<.J r.u.4.4.5.5.#.,.>.F #.1.r.2.2.2.2.Y M.1.1.2.2.1.4.....3.*.7.9.=.....&.Z.BX#X#X#X#X#X#X#X#X#X#X#X#X#X#X#X#X#X#X#X#X#X#X#X#X#X#X#X#X#X#X#X#X#X#X#X#X#X#X#X#X#X#X#X#X#X#X#X#X#X#X#X#X#X#X#X#X#X#X#X#X#X#X#X#X#X#X#X#X#X#X#X#X#X#X#X#X#X#X#X#X#X#X#X#X#X#X#X#X#X#X#X#X#X#X#X#X#X#X#X#X#X#X#X#X#X#X#X#X#X#X#X#X#X#X#X#X#X#X#X#X#X#X#X#X#X#X#X#X#X#X#X#X#X#X#X#X#X#X#X#X#X#X#X#X#X#X#X#X#X#X#X#X#X#X#X#X#X#X#X#X#X#X#X#X#X#X#X#X#X#X#X#X",
"#X#X#X#X#X#X#X#X#X#X#X#X#X#X#X#X#X#X#X#X#X#X#X#X#X#X#X#X#X#X#X#X#X#X#X#X#X#X#X#X#X#X#X#X#X#X#X#X#X#X#X#X#X#X#X#X#X#X#X#X#X#X#X#X#X#X#X#X#X#X#X#X#X#X#X#X#X#X#X#X#X#X#X#X#X#X#X#X#X#X#X#X#X#X#X#X#X#X#X#X#X#X#X#X#X#X#X#X#X#X#X#X#X#X#X#X#X#X#X#X#X#X#X#X#X#X#X#X#X#X#X#X#X#X#X#X#X#X#X#X#X#X#X#X#X#X#X#X#X_ 1XxXzXsXsX3X0XxXnXnXzXpXpXeX. S.S.C.K.S.b.b.B.V.V.V.H.K.Y.b.j.k.c.T.S.C.C.H.H.S.V.S.H.Y.S.K.K.c.z.l.l.l.v.c.c.n.m.B.m.m.m.f.k.z.z.k.J.b.T.n.v.n.n.c.c.v.k.c.C.L.U.L.L.K.L.K.C.H.S.B.w.b.n.b.T.g.T.T.f.l.n.n.n.n.b.w.b.n.n.q.v.v.c.c.c.n.b.n.l.d.f.c.d.k.j.h.N.x.j.z.k.j.j.z.k.{ 2.2.1.1.2.%.Y 1.O.5.d.u.&.8.7.&.*.E u.R 4.u.%.F %.R %.%.4.2.<.#.#.1.1.r.2.#.,.J >.%.5.5.t.4.t.t.u.5.....2.4.4.R M.1.#.$.1.<.<.1.$.>.$.$.2.4.4.%.r.r.r.2.1.1.#.$.1.#.>.$.1.r.2.2.u...*.&.8.=.7.&.&.&.&.*.&.t.#.$.r.r.r.%.1.<.1.&.8.&.4.4.4.4.4.r.R H 2.2.r.%.1.1.4.t.5.*.=.=.E E ..5.3.!.BX#X#X#X#X#X#X#X#X#X#X#X#X#X#X#X#X#X#X#X#X#X#X#X#X#X#X#X#X#X#X#X#X#X#X#X#X#X#X#X#X#X#X#X#X#X#X#X#X#X#X#X#X#X#X#X#X#X#X#X#X#X#X#X#X#X#X#X#X#X#X#X#X#X#X#X#X#X#X#X#X#X#X#X#X#X#X#X#X#X#X#X#X#X#X#X#X#X#X#X#X#X#X#X#X#X#X#X#X#X#X#X#X#X#X#X#X#X#X#X#X#X#X#X#X#X#X#X#X#X#X#X#X#X#X#X#X#X#X#X#X#X#X#X#X#X#X#X#X#X#X#X#X#X#X#X#X#X#X#X#X#X#X#X#X#X#X#X#X#X#X#X",
"#X#X#X#X#X#X#X#X#X#X#X#X#X#X#X#X#X#X#X#X#X#X#X#X#X#X#X#X#X#X#X#X#X#X#X#X#X#X#X#X#X#X#X#X#X#X#X#X#X#X#X#X#X#X#X#X#X#X#X#X#X#X#X#X#X#X#X#X#X#X#X#X#X#X#X#X#X#X#X#X#X#X#X#X#X#X#X#X#X#X#X#X#X#X#X#X#X#X#X#X#X#X#X#X#X#X#X#X#X#X#X#X#X#X#X#X#X#X#X#X#X#X#X#X#X#X#X#X#X#X#X#X#X#X#X#X#X#X#X#X#X#X#X#X#X#X#X#X#X#X_ iXzXfXsXsX4X4XzXnXnXuXpXqX^ H.C.K.L.S.g.c.c.b.V.S.S.K.B.n.g.l.f.b.V.H.C.C.H.H.S.H.C.C.K.K.l.%.z.d.l.v.l.v.c.v.c.T.m.c.z.k.k.z.d.z.k.l.g.n.n.n.g.c.c.c.f.d.T.B.m.T.m.S.S.B.V.V.T.b.n.n.n.T.b.c.c.J.h.k.n.c.q.c.q.n.n.n.q.c.c.c.c.c.n.b.b.c.v.v.c.k.x.k.j.j.x.X.k.z.z.k.j.z.j.2.r.2.1.1.2.R E %.r.*.z.1.R ..*.*...E R 4.4.%.X.M.R R R u.R 4.t.5.t.t.u.t.5.t.2.#.,.,.1.2.%.4.r.2.r.%.F #.1.1.$.X.1.#.#.>.<.,.,.<.$.$.<.1.u.%.2.>.#.2.2.2.2.1.$.<.1.2.#.#.1.1.#.#.%.E U 3.5.*.K &.*.&.&.*.*...3.2.$.#.1.%.X.%.i.[ s.i.i.=...t.r.2.%.X.4.*.*.5.4.4.5.5.5.&.T d.E ..*.&.| S.+X#X#X#X#X#X#X#X#X#X#X#X#X#X#X#X#X#X#X#X#X#X#X#X#X#X#X#X#X#X#X#X#X#X#X#X#X#X#X#X#X#X#X#X#X#X#X#X#X#X#X#X#X#X#X#X#X#X#X#X#X#X#X#X#X#X#X#X#X#X#X#X#X#X#X#X#X#X#X#X#X#X#X#X#X#X#X#X#X#X#X#X#X#X#X#X#X#X#X#X#X#X#X#X#X#X#X#X#X#X#X#X#X#X#X#X#X#X#X#X#X#X#X#X#X#X#X#X#X#X#X#X#X#X#X#X#X#X#X#X#X#X#X#X#X#X#X#X#X#X#X#X#X#X#X#X#X#X#X#X#X#X#X#X#X#X#X#X#X#X#X#X",
"#X#X#X#X#X#X#X#X#X#X#X#X#X#X#X#X#X#X#X#X#X#X#X#X#X#X#X#X#X#X#X#X#X#X#X#X#X#X#X#X#X#X#X#X#X#X#X#X#X#X#X#X#X#X#X#X#X#X#X#X#X#X#X#X#X#X#X#X#X#X#X#X#X#X#X#X#X#X#X#X#X#X#X#X#X#X#X#X#X#X#X#X#X#X#X#X#X#X#X#X#X#X#X#X#X#X#X#X#X#X#X#X#X#X#X#X#X#X#X#X#X#X#X#X#X#X#X#X#X#X#X#X#X#X#X#X#X#X#X#X#X#X#X#X#X#X#X#X#XmXD D gXuXxXsXsX4XqXnXxXzXpXxXo.C.K.U.L.n.d.l.n.n.B.B.V.C.S.v.T.V.b.T.V.B.C.K.H.C.S.H.C.K.L.S.M.X.z.k.d.d.z.d.c.n.c.v.d.x.h.M.d.l.l.d.k.k.z.J.v.n.n.c.v.c.c.k.d.f.d.c.n.c.v.l.v.f.d.l.v.c.n.b.n.v.z.$.N.x.c.b.n.n.n.n.n.q.g.c.c.n.n.b.b.c.z.z.z.z.h.N.x.k.j.M.X.h.k.z.z.k.k.z.j.2.2.1.#.2.2.%.E r.%.2.2.R 4.2.2.r.*.5.t.4.t.2.X.R R R R u.t.5.5.4.4.4.R E 4.4.t.5.4.$.,.<.2.2.1.2.2.1.#.1.2.1.#.X.1.#.<.$.d.z.#.,.<.<.$.%.u.M.<.<.<.$.<.<.$.$.<.<.$.2.2.#.2.2.1.1.#.1.%.X.4.#.r.7.7.=.&.*.*.....u.#.#.2.%.X.7.y.i.9.8.i.8...t.R 4.O.R *.*.....E E *.&.*.d.Y E ..*.&.7.+.C.BX#X#X#X#X#X#X#X#X#X#X#X#X#X#X#X#X#X#X#X#X#X#X#X#X#X#X#X#X#X#X#X#X#X#X#X#X#X#X#X#X#X#X#X#X#X#X#X#X#X#X#X#X#X#X#X#X#X#X#X#X#X#X#X#X#X#X#X#X#X#X#X#X#X#X#X#X#X#X#X#X#X#X#X#X#X#X#X#X#X#X#X#X#X#X#X#X#X#X#X#X#X#X#X#X#X#X#X#X#X#X#X#X#X#X#X#X#X#X#X#X#X#X#X#X#X#X#X#X#X#X#X#X#X#X#X#X#X#X#X#X#X#X#X#X#X#X#X#X#X#X#X#X#X#X#X#X#X#X#X#X#X#X#X#X#X#X#X#X#X#X#X",
"#X#X#X#X#X#X#X#X#X#X#X#X#X#X#X#X#X#X#X#X#X#X#X#X#X#X#X#X#X#X#X#X#X#X#X#X#X#X#X#X#X#X#X#X#X#X#X#X#X#X#X#X#X#X#X#X#X#X#X#X#X#X#X#X#X#X#X#X#X#X#X#X#X#X#X#X#X#X#X#X#X#X#X#X#X#X#X#X#X#X#X#X#X#X#X#X#X#X#X#X#X#X#X#X#X#X#X#X#X#X#X#X#X#X#X#X#X#X#X#X#X#X#X#X#X#X#X#X#X#X#X#X#X#X#X#X#X#X#X#X#X#X#X#X#X#X#X#X#X#X#X_ iXzXfXsXsX3X4XqXnXzXuXS.[ K.L.F.w.M.v.K.B.c.T.m.S.K.S.k.z.T.Y.K.K.S.K.L.L.K.C.C.K.C.B.B.l.M.Y z.Y k.k.z.l.l.k.j.Y z.j.j.d.d.d.d.z.j.k.k.j.d.n.n.c.c.c.z.z.l.f.g.b.n.c.c.c.c.l.l.v.g.n.n.c.g.z.$.N.X.l.g.n.n.c.b.b.c.n.n.n.c.f.l.k.j.x.j.x.h.N.N.X.j.k.x.x.X.x.d.z.j.k.k.%.r.2.#.$.2.r.R Y %.2.2.R E R %.1.2.&.8.7.7.*.t.%.%.Y R u.E *.*.5.R Y E E R 4.%.R 4.5.4.,.<.4.4.2.%.%.2.2.4.r.2.X.%.N.<.,.A CXVX$Xe.$.#.r.4.t.4.<.<.<.<.<.<.$.$.$.#.$.$.#.1.R %.%.R X.1.4.R 4.O.1.t.7.7.=.&.....E 4.#.1.2.2.1.&.i.i.8.8.8.8.*.u.R =.o.i.8.=.*.E u.E ..*.=.d.4.....&.7.7.U L.+X#X#X#X#X#X#X#X#X#X#X#X#X#X#X#X#X#X#X#X#X#X#X#X#X#X#X#X#X#X#X#X#X#X#X#X#X#X#X#X#X#X#X#X#X#X#X#X#X#X#X#X#X#X#X#X#X#X#X#X#X#X#X#X#X#X#X#X#X#X#X#X#X#X#X#X#X#X#X#X#X#X#X#X#X#X#X#X#X#X#X#X#X#X#X#X#X#X#X#X#X#X#X#X#X#X#X#X#X#X#X#X#X#X#X#X#X#X#X#X#X#X#X#X#X#X#X#X#X#X#X#X#X#X#X#X#X#X#X#X#X#X#X#X#X#X#X#X#X#X#X#X#X#X#X#X#X#X#X#X#X#X#X#X#X#X#X#X#X#X#X#X",
"#X#X#X#X#X#X#X#X#X#X#X#X#X#X#X#X#X#X#X#X#X#X#X#X#X#X#X#X#X#X#X#X#X#X#X#X#X#X#X#X#X#X#X#X#X#X#X#X#X#X#X#X#X#X#X#X#X#X#X#X#X#X#X#X#X#X#X#X#X#X#X#X#X#X#X#X#X#X#X#X#X#X#X#X#X#X#X#X#X#X#X#X#X#X#X#X#X#X#X#X#X#X#X#X#X#X#X#X#X#X#X#X#X#X#X#X#X#X#X#X#X#X#X#X#X#X#X#X#X#X#X#X#X#X#X#X#X#X#X#X#X#X#X#X#X#X#X#X#X#X#XAX_ jXuXsXsXqX4X4XfXzX;X[ C.K.F.L.l.d.F.! S.n.m.m.S.L.S.v.d.l.B.L.w.z.b.V.H.C.L.K.C.V.B.V.f.k.Y z.z.z.d.d.k.j.j.j.z.k.k.j.d.l.l.d.k.k.M.j.j.k.f.g.c.v.I.J.z.c.c.c.b.b.n.c.c.c.c.c.c.n.T.c.v.n.z.N.X.k.M.j.k.j.x.z.c.n.c.z.k.k.X.j.x.h.X.j.j.k.j.h.h.j.Y h.X.x.x.d.z.j.k.k.%.2.#.1.4.%.%.%.4.4.2.R E R %.1.1.#...8.=.&.&.&.5.%.%.Y E ....E *.R %.R %.r.1.X.4.u.E 5.$.<.t.R 4.R 4.2.4.4.R %.%.F #.J f.. @X@X. AX2.} u.r.4.#.<.$.<.<.<.$.X.$.$.#.$.,.1.4.4.R E R 4.4.R ..E u.5.r.4.5.....*.*...t.1.1.4.r.1.*.y.i.i.8.8.i.&.u.%.&.s.i.7.=.=.&.5.u.&.*.*.&...*...&.+.3.B.VXVX#X#X#X#X#X#X#X#X#X#X#X#X#X#X#X#X#X#X#X#X#X#X#X#X#X#X#X#X#X#X#X#X#X#X#X#X#X#X#X#X#X#X#X#X#X#X#X#X#X#X#X#X#X#X#X#X#X#X#X#X#X#X#X#X#X#X#X#X#X#X#X#X#X#X#X#X#X#X#X#X#X#X#X#X#X#X#X#X#X#X#X#X#X#X#X#X#X#X#X#X#X#X#X#X#X#X#X#X#X#X#X#X#X#X#X#X#X#X#X#X#X#X#X#X#X#X#X#X#X#X#X#X#X#X#X#X#X#X#X#X#X#X#X#X#X#X#X#X#X#X#X#X#X#X#X#X#X#X#X#X#X#X#X#X#X#X#X#X#X#X#X",
"#X#X#X#X#X#X#X#X#X#X#X#X#X#X#X#X#X#X#X#X#X#X#X#X#X#X#X#X#X#X#X#X#X#X#X#X#X#X#X#X#X#X#X#X#X#X#X#X#X#X#X#X#X#X#X#X#X#X#X#X#X#X#X#X#X#X#X#X#X#X#X#X#X#X#X#X#X#X#X#X#X#X#X#X#X#X#X#X#X#X#X#X#X#X#X#X#X#X#X#X#X#X#X#X#X#X#X#X#X#X#X#X#X#X#X#X#X#X#X#X#X#X#X#X#X#X#X#X#X#X#X#X#X#X#X#X#X#X#X#X#X#X#X#X#X#X#X#X#X#X_.mX_ ).xXzXsXsX3X4X4XxXH.S.B.K.L.H.v.U.L.n.m.b.m.B.H.L.S.T.n.z.l.H.d.h.X.h.j.f.V.S.m.T.m.m.d.Y z.d.z.d.d.z.z.k.z.k.j.j.j.z.z.l.f.d.k.k.j.k.k.j.z.v.f.c.g.z.v.b.T.B.B.b.n.n.n.n.n.n.c.T.g.d.f.g.z.X.k.x.x.h.$.<.$.X.x.j.h.$.j.k.j.z.k.j.j.j.k.k.j.x.h.j.k.X.h.X.j.z.k.j.k.z.%.1.r.t.t.%.2.r.2.%.%.E E R 1.#.#.1.M.&.7.*.&.*.5.5.u.u.E E u.4.R 4.2.1.2.2.2.2.2.%.E 4.2.#.4.E E E u.4.4.%.R %.1.#.,.h.BX+X#X#X+X' 1.r.4.4.1.<.<.$.#.#.#.1.$.<.$.$.<.1.5.t.E E R 4.R u.E u.R R R R R r.2.2.%.R E u.2.2.2.2.2.%.8.y.y.8.8.8.&.u.4...7.8.=.7.7.=.=.3.&.&.&.=.c.=.*.=.q.C.VX7X_.#X#X#X#X#X#X#X#X#X#X#X#X#X#X#X#X#X#X#X#X#X#X#X#X#X#X#X#X#X#X#X#X#X#X#X#X#X#X#X#X#X#X#X#X#X#X#X#X#X#X#X#X#X#X#X#X#X#X#X#X#X#X#X#X#X#X#X#X#X#X#X#X#X#X#X#X#X#X#X#X#X#X#X#X#X#X#X#X#X#X#X#X#X#X#X#X#X#X#X#X#X#X#X#X#X#X#X#X#X#X#X#X#X#X#X#X#X#X#X#X#X#X#X#X#X#X#X#X#X#X#X#X#X#X#X#X#X#X#X#X#X#X#X#X#X#X#X#X#X#X#X#X#X#X#X#X#X#X#X#X#X#X#X#X#X#X#X#X#X#X#X",
"#X#X#X#X#X#X#X#X#X#X#X#X#X#X#X#X#X#X#X#X#X#X#X#X#X#X#X#X#X#X#X#X#X#X#X#X#X#X#X#X#X#X#X#X#X#X#X#X#X#X#X#X#X#X#X#X#X#X#X#X#X#X#X#X#X#X#X#X#X#X#X#X#X#X#X#X#X#X#X#X#X#X#X#X#X#X#X#X#X#X#X#X#X#X#X#X#X#X#X#X#X#X#X#X#X#X#X#X#X#X#X#X#X#X#X#X#X#X#X#X#X#X#X#X#X#X#X#X#X#X#X#X#X#X#X#X#X#X#X#X#X#X#X#X#X#X#X#X#X#X#X#X#X_ iXuXfXsXsX3X4XgXo.V.K.B.b.n.B.L.m.c.c.w.m.B.Y.K.C.B.T.l.M.z.j.x.h.<.h.l.l.b.b.b.S.b.j.z.z.z.z.z.d.d.d.l.d.z.k.j.x.X.h.j.d.l.z.k.k.k.j.k.j.k.J.c.f.f.c.b.V.V.c.l.l.z.l.n.b.b.T.n.d.d.v.c.j.h.N.$.h.x.h.h.N.$.$.$.N.N.k.z.k.z.l.d.j.j.k.k.k.j.x.k.Y x.1.h.X.X.X.j.J.z.O.4.t.t.u.%.r.R r.r.R R R %.1.1.%.H %.%.u.5.3.5.5.*.&.5.2.2.r.4.4.%.1.2.X.1.#.#.1.1.%.%.2.2.4.5...E ..R O.4.R X.1.,.1.`.. _.#X#XBXDXM.%.X.2.1.<.$.#.F X.1.$.$.#.$.<.$.4.t.E E u.R E 2.2.4.4.O.2.2.4.E E X.1.1.r.E E *.5.$.#.2.F %.%.5.8.i.8.=.*.u...=.8.7.7.&.=.=.&.&.&.&.&.l.q.P ` VX+XVX_.#X#X#X#X#X#X#X#X#X#X#X#X#X#X#X#X#X#X#X#X#X#X#X#X#X#X#X#X#X#X#X#X#X#X#X#X#X#X#X#X#X#X#X#X#X#X#X#X#X#X#X#X#X#X#X#X#X#X#X#X#X#X#X#X#X#X#X#X#X#X#X#X#X#X#X#X#X#X#X#X#X#X#X#X#X#X#X#X#X#X#X#X#X#X#X#X#X#X#X#X#X#X#X#X#X#X#X#X#X#X#X#X#X#X#X#X#X#X#X#X#X#X#X#X#X#X#X#X#X#X#X#X#X#X#X#X#X#X#X#X#X#X#X#X#X#X#X#X#X#X#X#X#X#X#X#X#X#X#X#X#X#X#X#X#X#X#X#X#X#X#X#X",
"#X#X#X#X#X#X#X#X#X#X#X#X#X#X#X#X#X#X#X#X#X#X#X#X#X#X#X#X#X#X#X#X#X#X#X#X#X#X#X#X#X#X#X#X#X#X#X#X#X#X#X#X#X#X#X#X#X#X#X#X#X#X#X#X#X#X#X#X#X#X#X#X#X#X#X#X#X#X#X#X#X#X#X#X#X#X#X#X#X#X#X#X#X#X#X#X#X#X#X#X#X#X#X#X#X#X#X#X#X#X#X#X#X#X#X#X#X#X#X#X#X#X#X#X#X#X#X#X#X#X#X#X#X#X#X#X#X#X#X#X#X#X#X#X#X#X#X#X#X#X#X#X#XAX_ hXzXsXsXsX4XwXo.S.K.B.w.C.L.V.m.b.V.w.m.S.C.K.K.S.V.f.j.h.j.M.j.$.x.l.d.v.T.m.b.d.X.j.M.k.l.l.k.z.d.d.d.Y z.z.d.d.j.h.x.k.d.z.k.j.j.k.k.k.z.v.c.c.c.n.n.v.d.d.z.z.z.d.v.f.l.l.l.l.v.f.$.N.j.z.v.n.n.n.v.z.N.<.$.$.z.l.z.d.l.d.k.z.d.d.z.j.x.z.j.$.z.A.A S (.A r.4.4.4.4.4.4.%.r.R R 2.4.4.2.%.2.%.Y %.2.1.1.r.%.4.*.&.5.r.%.%.%.X.#.#.F h.N.$.#.1.r.1.#.X.2.X.4.*.....E 4.4.E R %.>.>.`.. #X#X#X#X#X. f.>.#.1.X.2.#.1.1.#.>.#.#.$.>.1.X.R E E E u.E r.2.2.1.1.2.r.r.2.%.E E R R ....u.z.u.4.4.2.%.1.#.#.#.5.8.8.&.E u.*.7.7.7.8.8.*.3.+.*.&.&.*.b.+X+X@X#X#X#X#X#X#X#X#X#X#X#X#X#X#X#X#X#X#X#X#X#X#X#X#X#X#X#X#X#X#X#X#X#X#X#X#X#X#X#X#X#X#X#X#X#X#X#X#X#X#X#X#X#X#X#X#X#X#X#X#X#X#X#X#X#X#X#X#X#X#X#X#X#X#X#X#X#X#X#X#X#X#X#X#X#X#X#X#X#X#X#X#X#X#X#X#X#X#X#X#X#X#X#X#X#X#X#X#X#X#X#X#X#X#X#X#X#X#X#X#X#X#X#X#X#X#X#X#X#X#X#X#X#X#X#X#X#X#X#X#X#X#X#X#X#X#X#X#X#X#X#X#X#X#X#X#X#X#X#X#X#X#X#X#X#X#X#X#X#X#X#X#X#X#X#X",
"#X#X#X#X#X#X#X#X#X#X#X#X#X#X#X#X#X#X#X#X#X#X#X#X#X#X#X#X#X#X#X#X#X#X#X#X#X#X#X#X#X#X#X#X#X#X#X#X#X#X#X#X#X#X#X#X#X#X#X#X#X#X#X#X#X#X#X#X#X#X#X#X#X#X#X#X#X#X#X#X#X#X#X#X#X#X#X#X#X#X#X#X#X#X#X#X#X#X#X#X#X#X#X#X#X#X#X#X#X#X#X#X#X#X#X#X#X#X#X#X#X#X#X#X#X#X#X#X#X#X#X#X#X#X#X#X#X#X#X#X#X#X#X#X#X#X#X#X#X#X#X#X#X#X_ D sXfXsXwX4XwXH.-.m.m.S.K.H.K.S.m.K.b.m.H.C.C.K.H.S.v.h.j.k.z.j.j.c.c.c.c.V.V.k.k.v.l.z.z.d.z.j.x.z.d.z.j.v.b.b.b.n.k.h.h.x.z.k.k.k.j.k.k.z.d.c.v.c.c.v.v.n.c.d.d.d.l.z.j.k.l.l.d.l.d.x.d.c.c.n.b.n.n.b.b.g.d.$.$.l.f.l.l.l.d.d.d.d.d.z.j.j.z.h.$.) . +X+X. CXc.{ 2.%.r.r.r.X.2.r.R %.r.4.X.%.X.%.2.1.2.1.2.r.r.u.&.*.r.%.R R %.1.#.#.#.$.>.1.1.r.%.X.#.1.X.%.u.*.*...*.u.4.E u.>.>.' . #X#X#X#X_.. VXX.>.>.1.Y H 2.1.#.>.$.$.<.$.%.H #.r.&.E E E R 4.R r.1.#.#.$.%.4.%.R E E E 4.1.1.#.#.1.%.r.R R 4.r.>.>.4.*.7.&.5.5.3.3.&.T *.t.5.*.*.&.&.&.=.!.BX#X#X#X#X#X#X#X#X#X#X#X#X#X#X#X#X#X#X#X#X#X#X#X#X#X#X#X#X#X#X#X#X#X#X#X#X#X#X#X#X#X#X#X#X#X#X#X#X#X#X#X#X#X#X#X#X#X#X#X#X#X#X#X#X#X#X#X#X#X#X#X#X#X#X#X#X#X#X#X#X#X#X#X#X#X#X#X#X#X#X#X#X#X#X#X#X#X#X#X#X#X#X#X#X#X#X#X#X#X#X#X#X#X#X#X#X#X#X#X#X#X#X#X#X#X#X#X#X#X#X#X#X#X#X#X#X#X#X#X#X#X#X#X#X#X#X#X#X#X#X#X#X#X#X#X#X#X#X#X#X#X#X#X#X#X#X#X#X#X#X#X#X#X#X#X#X",
"#X#X#X#X#X#X#X#X#X#X#X#X#X#X#X#X#X#X#X#X#X#X#X#X#X#X#X#X#X#X#X#X#X#X#X#X#X#X#X#X#X#X#X#X#X#X#X#X#X#X#X#X#X#X#X#X#X#X#X#X#X#X#X#X#X#X#X#X#X#X#X#X#X#X#X#X#X#X#X#X#X#X#X#X#X#X#X#X#X#X#X#X#X#X#X#X#X#X#X#X#X#X#X#X#X#X#X#X#X#X#X#X#X#X#X#X#X#X#X#X#X#X#X#X#X#X#X#X#X#X#X#X#X#X#X#X#X#X#X#X#X#X#X#X#X#X#X#X#X#X#X#X#X#X#X_ jXuXsXsXwX4XA o.B.V.H.S.B.B.C.H.B.m.m.B.T.B.V.B.T.d.j.M.z.l.d.z.c.T.S.S.V.B.v.n.b.m.T.l.j.z.k.j.k.d.k.f.m.b.b.b.m.v.h.x.h.j.z.k.k.k.k.k.k.z.v.n.n.c.n.n.n.g.c.l.l.v.l.z.d.l.l.l.f.c.n.n.v.f.c.n.n.g.c.n.T.m.G.$.l.l.f.l.f.v.f.d.d.d.d.j.k.k.#.f.+X@X#X#X#X@XCXw.{ } 2.2.%.%.1.2.%.4.4.r.X.%.%.X.F X.1.$.2.r.u.*.*.4.4.u.R R %.r.2.#.#.1.2.2.1.2.2.%.%.#.#.%.5.*.*.*.*.5.4.E r.>.( . #XmX#XSXVX. . J.<.2.1.X.Y X.1.1.#.$.<.<.$.%.%.#.>.2.E *.......R r.%.X.%.1.$.#.5.t.R ....%.<.<.<.1.2.2.2.4.u...t.4.%.2.#.<.#.5.&.3.5.........5.*.*.7.&.&.&.*.S +X#X#X#X#X#X#X#X#X#X#X#X#X#X#X#X#X#X#X#X#X#X#X#X#X#X#X#X#X#X#X#X#X#X#X#X#X#X#X#X#X#X#X#X#X#X#X#X#X#X#X#X#X#X#X#X#X#X#X#X#X#X#X#X#X#X#X#X#X#X#X#X#X#X#X#X#X#X#X#X#X#X#X#X#X#X#X#X#X#X#X#X#X#X#X#X#X#X#X#X#X#X#X#X#X#X#X#X#X#X#X#X#X#X#X#X#X#X#X#X#X#X#X#X#X#X#X#X#X#X#X#X#X#X#X#X#X#X#X#X#X#X#X#X#X#X#X#X#X#X#X#X#X#X#X#X#X#X#X#X#X#X#X#X#X#X#X#X#X#X#X#X#X#X#X#X#X",
"#X#X#X#X#X#X#X#X#X#X#X#X#X#X#X#X#X#X#X#X#X#X#X#X#X#X#X#X#X#X#X#X#X#X#X#X#X#X#X#X#X#X#X#X#X#X#X#X#X#X#X#X#X#X#X#X#X#X#X#X#X#X#X#X#X#X#X#X#X#X#X#X#X#X#X#X#X#X#X#X#X#X#X#X#X#X#X#X#X#X#X#X#X#X#X#X#X#X#X#X#X#X#X#X#X#X#X#X#X#X#X#X#X#X#X#X#X#X#X#X#X#X#X#X#X#X#X#X#X#X#X#X#X#X#X#X#X#X#X#X#X#X#X#X#X#X#X#X#X#X#X#X#X#XmXD _.gXfXsXsX4X3XY.[ [ [ H.V.B.L.P.H.V.V.B.b.w.m.T.b.z.j.d.n.n.d.d.C.K.V.H.C.T.n.c.b.b.m.b.z.z.z.z.l.d.l.n.b.n.n.n.n.v.x.X.h.j.j.k.z.k.k.k.j.k.z.c.b.n.n.b.n.c.c.v.v.v.v.z.f.v.f.v.c.n.n.c.v.v.v.c.n.c.v.g.c.v.c.z.z.v.v.v.c.v.v.l.l.l.d.j.k.j.#.S . #X#X#X#X#XBX. ) %.>.1.R r.1.%.4.r.%.r.%.R 2.2.M.X.$.#.r.r...*.u.t...R u.4.4.%.2.2.r.4.t.r.#.1.r.R %.#.1.%.5.&.&.*.*...4.R <.e.CX#X#X#X_.@X+X/ f.<.2.M.M.H M.1.1.2.$.,.<.#.X.1.$.#.2.$.>.t.E 4.....u.R R X.X.X.#.%.t.E Y %.#.F #.<.$.2.r.2.t.E E E 5.5.5.t.2.#.r.3.&.*.*.*.*.*.3.*.*.&.&.&.7.*.Y.BX#X#X#X#X#X#X#X#X#X#X#X#X#X#X#X#X#X#X#X#X#X#X#X#X#X#X#X#X#X#X#X#X#X#X#X#X#X#X#X#X#X#X#X#X#X#X#X#X#X#X#X#X#X#X#X#X#X#X#X#X#X#X#X#X#X#X#X#X#X#X#X#X#X#X#X#X#X#X#X#X#X#X#X#X#X#X#X#X#X#X#X#X#X#X#X#X#X#X#X#X#X#X#X#X#X#X#X#X#X#X#X#X#X#X#X#X#X#X#X#X#X#X#X#X#X#X#X#X#X#X#X#X#X#X#X#X#X#X#X#X#X#X#X#X#X#X#X#X#X#X#X#X#X#X#X#X#X#X#X#X#X#X#X#X#X#X#X#X#X#X#X#X#X#X#X#X",
"#X#X#X#X#X#X#X#X#X#X#X#X#X#X#X#X#X#X#X#X#X#X#X#X#X#X#X#X#X#X#X#X#X#X#X#X#X#X#X#X#X#X#X#X#X#X#X#X#X#X#X#X#X#X#X#X#X#X#X#X#X#X#X#X#X#X#X#X#X#X#X#X#X#X#X#X#X#X#X#X#X#X#X#X#X#X#X#X#X#X#X#X#X#X#X#X#X#X#X#X#X#X#X#X#X#X#X#X#X#X#X#X#X#X#X#X#X#X#X#X#X#X#X#X#X#X#X#X#X#X#X#X#X#X#X#X#X#X#X#X#X#X#X#X#X#X#X#X#X#X#X#X#X#X#X#X_ iXuXsXsXwX4X3X;XC.A Y.H.S.S.C.H.S.S.H.S.B.B.T.B.f.M.T.T.b.n.T.K.S.V.S.K.T.b.m.n.w.w.B.b.z.z.f.v.v.n.n.q.g.c.c.n.c.k.x.h.X.h.h.z.z.k.j.j.k.j.j.g.m.m.m.w.n.c.c.f.v.l.d.v.l.v.c.n.n.q.c.f.l.f.f.c.c.c.l.d.f.v.v.l.v.c.n.g.c.g.v.l.l.z.j.k.j.j.OX+X#X#X#X#X#X_.@X. (.v.{ { R R %.r.%.4.r.2.%.2.r.4.%.$.r.2.R *...5.....E u.%.4.5.5.5.5.5.5.%.1.1.2.2.1.X.M.2.3.7.*.E *.*.4.{ 1.`.+X#X#X#XVX@XI.<.>.R M.%.R %.1.#.2.#.,.<.#.#.$.>.1.1.$.<.,.#.5.t.4.R R E R H R X.F X.%.%.%.#.$.F F #.<.$.2.2.4.............3.3.3.U u.3.7.&.3.&.=.E R *.*.&.&.&.U A.+X#X#X#X#X#X#X#X#X#X#X#X#X#X#X#X#X#X#X#X#X#X#X#X#X#X#X#X#X#X#X#X#X#X#X#X#X#X#X#X#X#X#X#X#X#X#X#X#X#X#X#X#X#X#X#X#X#X#X#X#X#X#X#X#X#X#X#X#X#X#X#X#X#X#X#X#X#X#X#X#X#X#X#X#X#X#X#X#X#X#X#X#X#X#X#X#X#X#X#X#X#X#X#X#X#X#X#X#X#X#X#X#X#X#X#X#X#X#X#X#X#X#X#X#X#X#X#X#X#X#X#X#X#X#X#X#X#X#X#X#X#X#X#X#X#X#X#X#X#X#X#X#X#X#X#X#X#X#X#X#X#X#X#X#X#X#X#X#X#X#X#X#X#X#X#X#X",
"#X#X#X#X#X#X#X#X#X#X#X#X#X#X#X#X#X#X#X#X#X#X#X#X#X#X#X#X#X#X#X#X#X#X#X#X#X#X#X#X#X#X#X#X#X#X#X#X#X#X#X#X#X#X#X#X#X#X#X#X#X#X#X#X#X#X#X#X#X#X#X#X#X#X#X#X#X#X#X#X#X#X#X#X#X#X#X#X#X#X#X#X#X#X#X#X#X#X#X#X#X#X#X#X#X#X#X#X#X#X#X#X#X#X#X#X#X#X#X#X#X#X#X#X#X#X#X#X#X#X#X#X#X#X#X#X#X#X#X#X#X#X#X#X#X#X#X#X#X#X#X#X#X#X#X#XD AXxXuXsXwX4X4XqXxX0XgX[ C.C.S.S.H.H.Y.H.S.V.m.B.v.f.b.n.T.S.V.B.B.B.V.H.w.b.m.b.b.b.m.S.n.l.v.c.n.n.c.c.v.v.c.n.c.k.X.j.k.h.N.h.X.1.h.x.h.x.d.c.g.T.g.c.n.c.c.c.v.k.d.c.v.v.n.c.c.c.l.l.l.v.f.z.k.z.d.z.k.d.d.d.v.g.q.n.n.n.c.d.d.z.k.k.1.e.. #X#X#X#X#X#X#X#X#XCXCX( M.r.t.4.%.4.r.r.2.%.%.2.%.%.%.M.4.....5.*.*.*...R %.5.3.*.*.3.5.5.4.1.X.2.>.1.z.Y t.&.&.U U *...4.>.A . #X#X#X#XBXmX#.>.%.r.2.4.4.1.#.#.#.<.,.$.#.$.#.2.2.1.$.$.$.2.r.4.4.r.%.R R R X.F %.R %.H X.<.,.,.<.$.,.<.2.#.2.5.U R u.....*.....E ..E 5.3.&.=.=.l.E *.&.=.=.3.m.VX@X#X#X#X#X#X#X#X#X#X#X#X#X#X#X#X#X#X#X#X#X#X#X#X#X#X#X#X#X#X#X#X#X#X#X#X#X#X#X#X#X#X#X#X#X#X#X#X#X#X#X#X#X#X#X#X#X#X#X#X#X#X#X#X#X#X#X#X#X#X#X#X#X#X#X#X#X#X#X#X#X#X#X#X#X#X#X#X#X#X#X#X#X#X#X#X#X#X#X#X#X#X#X#X#X#X#X#X#X#X#X#X#X#X#X#X#X#X#X#X#X#X#X#X#X#X#X#X#X#X#X#X#X#X#X#X#X#X#X#X#X#X#X#X#X#X#X#X#X#X#X#X#X#X#X#X#X#X#X#X#X#X#X#X#X#X#X#X#X#X#X#X#X#X#X#X#X",
"#X#X#X#X#X#X#X#X#X#X#X#X#X#X#X#X#X#X#X#X#X#X#X#X#X#X#X#X#X#X#X#X#X#X#X#X#X#X#X#X#X#X#X#X#X#X#X#X#X#X#X#X#X#X#X#X#X#X#X#X#X#X#X#X#X#X#X#X#X#X#X#X#X#X#X#X#X#X#X#X#X#X#X#X#X#X#X#X#X#X#X#X#X#X#X#X#X#X#X#X#X#X#X#X#X#X#X#X#X#X#X#X#X#X#X#X#X#X#X#X#X#X#X#X#X#X#X#X#X#X#X#X#X#X#X#X#X#X#X#X#X#X#X#X#X#X#X#X#X#X#X#X#X#X#X#X#X_ iXfXsXsXqX3X4XzXgX;XC.S.C.C.C.K.C.C.C.H.S.B.T.v.c.n.V.C.B.B.V.V.V.V.B.S.B.b.w.m.m.m.V.c.v.c.n.n.b.n.c.c.g.v.l.k.h.x.j.j.X.h.#.l e.G.X.z.v.b.g.b.g.k.z.f.v.c.c.f.d.d.d.v.g.g.n.n.c.g.c.z.j.x.h.h.h.d.d.k.z.z.Y f.n.n.b.n.n.g.d.l.k.k.j.k.$X+X_.% #X#X#X#X#X#X#X_.VXCX( { %.2.%.t.r.2.%.%.4.R %.4.Y 2.E E 4...*.*.&.5.%.t.*.*.&.*.*.5.5.u.1.X.%.2.X.H R R } I :.:.O.R { z.@X@XmX#X#X#X).+Xz.>.r.2.R R %.2.1.2.1.1.2.X.%.X.2.2.F 1.1.1.1.r.u.4.4.4.r.%.E %.#.X.E R H %.#.<.<.,.,.<.$.1.2.#.>.2.4.4.4.t.5.E ........E 4.4.&.=.=.l...l.=.=.T ( +X@XSX#X#X#X#X#X#X#X#X#X#X#X#X#X#X#X#X#X#X#X#X#X#X#X#X#X#X#X#X#X#X#X#X#X#X#X#X#X#X#X#X#X#X#X#X#X#X#X#X#X#X#X#X#X#X#X#X#X#X#X#X#X#X#X#X#X#X#X#X#X#X#X#X#X#X#X#X#X#X#X#X#X#X#X#X#X#X#X#X#X#X#X#X#X#X#X#X#X#X#X#X#X#X#X#X#X#X#X#X#X#X#X#X#X#X#X#X#X#X#X#X#X#X#X#X#X#X#X#X#X#X#X#X#X#X#X#X#X#X#X#X#X#X#X#X#X#X#X#X#X#X#X#X#X#X#X#X#X#X#X#X#X#X#X#X#X#X#X#X#X#X#X#X#X#X#X#X",
"#X#X#X#X#X#X#X#X#X#X#X#X#X#X#X#X#X#X#X#X#X#X#X#X#X#X#X#X#X#X#X#X#X#X#X#X#X#X#X#X#X#X#X#X#X#X#X#X#X#X#X#X#X#X#X#X#X#X#X#X#X#X#X#X#X#X#X#X#X#X#X#X#X#X#X#X#X#X#X#X#X#X#X#X#X#X#X#X#X#X#X#X#X#X#X#X#X#X#X#X#X#X#X#X#X#X#X#X#X#X#X#X#X#X#X#X#X#X#X#X#X#X#X#X#X#X#X#X#X#X#X#X#X#X#X#X#X#X#X#X#X#X#X#X#X#X#X#X#X#X#X#X#X#X#X#X#X)._ dXuXsXsX3X4XhX[ [ L.B.c.m.B.S.C.H.m.V.m.T.T.c.v.T.S.S.m.B.S.S.S.V.B.B.B.B.m.m.m.B.m.z.v.g.c.n.n.n.q.b.l.h.h.X.h.h.h.j.k.h.$.Z.CXZ.v.S.b.T.T.n.k.k.d.l.c.c.c.c.c.d.k.z.z.d.v.l.d.d.k.N.N.j.x.x.j.d.d.d.d.d.k.f.b.b.b.b.b.c.l.l.z.k.2.A . #X#X#X#X#X#X#X#X#X#X#X#X@XBXI.#.r.t.3.4.#.%.r.r...E u.4.%.u.4.4...*.*...4.r.5.*.*...3.=.7.l.X.>.X.k.%.%.4.2.%.g.e.V.w.S.g.v.` CX#X#X#X#X#X#X. JX>.%.E %.2.X.%.2.1.1.2.%.2.#.1.#.F X.1.#.X.2.%.E E R 4.1.$.2.%.1.R %.2.R 2.2.t.4.r.2.R %.$.<.#.<.$.1.1.2.t.t.4.E 5.E t.E E E E *.v...3.l.v.*.*.$X+X#X#X#X#X#X#X#X#X#X#X#X#X#X#X#X#X#X#X#X#X#X#X#X#X#X#X#X#X#X#X#X#X#X#X#X#X#X#X#X#X#X#X#X#X#X#X#X#X#X#X#X#X#X#X#X#X#X#X#X#X#X#X#X#X#X#X#X#X#X#X#X#X#X#X#X#X#X#X#X#X#X#X#X#X#X#X#X#X#X#X#X#X#X#X#X#X#X#X#X#X#X#X#X#X#X#X#X#X#X#X#X#X#X#X#X#X#X#X#X#X#X#X#X#X#X#X#X#X#X#X#X#X#X#X#X#X#X#X#X#X#X#X#X#X#X#X#X#X#X#X#X#X#X#X#X#X#X#X#X#X#X#X#X#X#X#X#X#X#X#X#X#X#X#X#X#X#X#X",
"#X#X#X#X#X#X#X#X#X#X#X#X#X#X#X#X#X#X#X#X#X#X#X#X#X#X#X#X#X#X#X#X#X#X#X#X#X#X#X#X#X#X#X#X#X#X#X#X#X#X#X#X#X#X#X#X#X#X#X#X#X#X#X#X#X#X#X#X#X#X#X#X#X#X#X#X#X#X#X#X#X#X#X#X#X#X#X#X#X#X#X#X#X#X#X#X#X#X#X#X#X#X#X#X#X#X#X#X#X#X#X#X#X#X#X#X#X#X#X#X#X#X#X#X#X#X#X#X#X#X#X#X#X#X#X#X#X#X#X#X#X#X#X#X#X#X#X#X#X#X#X#X#X#X#X#X#XmX_ jXuXsXsX3X4XC.[ C.L.L.v.v.m.m.V.S.f.l.c.f.l.k.l.m.T.B.V.V.H.C.K.H.S.B.m.m.m.m.m.S.S.x.z.b.b.b.b.g.b.c.x.N.X.j.X.x.x.k.k.h.1.A . ` b.I.n.b.g.d.k.d.d.z.c.g.v.v.v.d.d.k.j.z.d.z.Y x.N.h.x.j.j.x.k.l.d.l.l.d.d.c.m.w.n.n.b.g.f.l.d.M.g.7XBX_.#X@X+X. CX7XSX#X#X#X#XSX. /.#.t.5.5.*.4.2.4.%.u.5...%.R R r.4.5...E *.B.B.*.*.*.U *.=...%.#.2.%.%.%.R 2.{ S CXCX+X+XCX@XBX+X_.#X#X#XSX7XCX#X] d.} %.2.1.2.%.#.1.2.1.#.2.X.%.%.%.%.X.X.F X.E R 4.E 4.2.#.$.4.2.2.1.%.E ..5.4.4.u.5.U t.%.$.,.#.r.%.#.h.R t.E *...4.t.E ..5...l...5.l.=...E n.VX@X#X#X#X#X#X#X#X#X#X#X#X#X#X#X#X#X#X#X#X#X#X#X#X#X#X#X#X#X#X#X#X#X#X#X#X#X#X#X#X#X#X#X#X#X#X#X#X#X#X#X#X#X#X#X#X#X#X#X#X#X#X#X#X#X#X#X#X#X#X#X#X#X#X#X#X#X#X#X#X#X#X#X#X#X#X#X#X#X#X#X#X#X#X#X#X#X#X#X#X#X#X#X#X#X#X#X#X#X#X#X#X#X#X#X#X#X#X#X#X#X#X#X#X#X#X#X#X#X#X#X#X#X#X#X#X#X#X#X#X#X#X#X#X#X#X#X#X#X#X#X#X#X#X#X#X#X#X#X#X#X#X#X#X#X#X#X#X#X#X#X#X#X#X#X#X#X#X#X",
"#X#X#X#X#X#X#X#X#X#X#X#X#X#X#X#X#X#X#X#X#X#X#X#X#X#X#X#X#X#X#X#X#X#X#X#X#X#X#X#X#X#X#X#X#X#X#X#X#X#X#X#X#X#X#X#X#X#X#X#X#X#X#X#X#X#X#X#X#X#X#X#X#X#X#X#X#X#X#X#X#X#X#X#X#X#X#X#X#X#X#X#X#X#X#X#X#X#X#X#X#X#X#X#X#X#X#X#X#X#X#X#X#X#X#X#X#X#X#X#X#X#X#X#X#X#X#X#X#X#X#X#X#X#X#X#X#X#X#X#X#X#X#X#X#X#X#X#X#X#X#X#X#X#X#X#X#X#X_ $XfXfXsXqXwXC.H.C.L.L.B.v.w.B.S.C.H.d.X.k.z.l.g.B.S.B.B.Y.C.c.m.Y.C.S.B.m.m.m.m.S.f.X.j.k.v.b.b.n.v.j.X.x.x.h.h.X.x.j.j.h.h.g.. R.n.n.T.f.k.z.z.z.d.z.z.f.f.f.c.f.k.k.d.f.d.d.z.M.j.M.j.j.k.z.j.z.l.v.d.z.f.l.n.m.n.g.n.c.c.f.d.k./.. +X. CXVXQ.V.Y.#X+X#XSX#X#X#XBXSXd.O.4.O.&.7.4.r.O...l.u.%.E %.r.4.4...E *.s.-.&.*.&.&.&.#.<.#.X.4.4.r.%.I >.q . @X#X#X#X#X@XVX#X#X#X_.#X. mXm.=.&.&.X.1.2.2.2.X.%.R H %.%.%.%.X.1.1.#.#.>.<.$.%.R 4...R 2.#.<.1.2.1.2.%.E ....t.%.E E u.R t.r.#.4.4.R 2.X.%.4.l.f.Y R E E E ..*.4...=.E U g.A._.@XSX#X#X#X#X#X#X#X#X#X#X#X#X#X#X#X#X#X#X#X#X#X#X#X#X#X#X#X#X#X#X#X#X#X#X#X#X#X#X#X#X#X#X#X#X#X#X#X#X#X#X#X#X#X#X#X#X#X#X#X#X#X#X#X#X#X#X#X#X#X#X#X#X#X#X#X#X#X#X#X#X#X#X#X#X#X#X#X#X#X#X#X#X#X#X#X#X#X#X#X#X#X#X#X#X#X#X#X#X#X#X#X#X#X#X#X#X#X#X#X#X#X#X#X#X#X#X#X#X#X#X#X#X#X#X#X#X#X#X#X#X#X#X#X#X#X#X#X#X#X#X#X#X#X#X#X#X#X#X#X#X#X#X#X#X#X#X#X#X#X#X#X#X#X#X#X#X#X#X",
"#X#X#X#X#X#X#X#X#X#X#X#X#X#X#X#X#X#X#X#X#X#X#X#X#X#X#X#X#X#X#X#X#X#X#X#X#X#X#X#X#X#X#X#X#X#X#X#X#X#X#X#X#X#X#X#X#X#X#X#X#X#X#X#X#X#X#X#X#X#X#X#X#X#X#X#X#X#X#X#X#X#X#X#X#X#X#X#X#X#X#X#X#X#X#X#X#X#X#X#X#X#X#X#X#X#X#X#X#X#X#X#X#X#X#X#X#X#X#X#X#X#X#X#X#X#X#X#X#X#X#X#X#X#X#X#X#X#X#X#X#X#X#X#X#X#X#X#X#X#X#X#X#X#X#X#X#X#XAX_ dXuXsXwXdXH.H.S.S.T.B.T.n.V.S.H.w.M.d.n.n.B.B.H.K.B.S.C.L.l.d.n.b.B.V.B.B.B.H.T.N.j.k.h.X.k.z.z.j.x.j.x.h.j.h.N.X.j.j.x.#.g.. Y.n.T.n.z.k.d.d.z.z.z.k.k.f.c.g.d.X.z.f.l.l.d.z.k.Y k.k.d.v.l.k.k.l.d.d.z.J.l.c.m.n.c.c.n.v.f.l.z.c.w.V.;.V.=.t.:.} ..` . VXmX#X#X#X. m.} &.9.5.&.5.2.4...&.R Y R %.4.r.2.*.&.*.3.*.&.&.&.9.%.#.%.5.5.H %.{ >.>.g.CX@X#X#X#X% #X#X_.#X#X#X#X+X$XT | 3.7.&.X.2.1.1.1.2.R %.2.1.#.#.#.1.#.#.#.#.#.<.,.$.4.r.%.2.#.$.<.2.4.2.r.%.%.4.E ..R %.r.R E 4.R t.4.4.4.r.1.2.l.O.4.e.( ( w.c.c.v.w.' (.;.A.mXCX7X#X#X#X#X#X#X#X#X#X#X#X#X#X#X#X#X#X#X#X#X#X#X#X#X#X#X#X#X#X#X#X#X#X#X#X#X#X#X#X#X#X#X#X#X#X#X#X#X#X#X#X#X#X#X#X#X#X#X#X#X#X#X#X#X#X#X#X#X#X#X#X#X#X#X#X#X#X#X#X#X#X#X#X#X#X#X#X#X#X#X#X#X#X#X#X#X#X#X#X#X#X#X#X#X#X#X#X#X#X#X#X#X#X#X#X#X#X#X#X#X#X#X#X#X#X#X#X#X#X#X#X#X#X#X#X#X#X#X#X#X#X#X#X#X#X#X#X#X#X#X#X#X#X#X#X#X#X#X#X#X#X#X#X#X#X#X#X#X#X#X#X#X#X#X#X#X#X#X#X#X",
"#X#X#X#X#X#X#X#X#X#X#X#X#X#X#X#X#X#X#X#X#X#X#X#X#X#X#X#X#X#X#X#X#X#X#X#X#X#X#X#X#X#X#X#X#X#X#X#X#X#X#X#X#X#X#X#X#X#X#X#X#X#X#X#X#X#X#X#X#X#X#X#X#X#X#X#X#X#X#X#X#X#X#X#X#X#X#X#X#X#X#X#X#X#X#X#X#X#X#X#X#X#X#X#X#X#X#X#X#X#X#X#X#X#X#X#X#X#X#X#X#X#X#X#X#X#X#X#X#X#X#X#X#X#X#X#X#X#X#X#X#X#X#X#X#X#X#X#X#X#X#X#X#X#X#X#X#X#X#XD 1XsXqXeXH.o.V.w.b.m.H.V.n.m.B.n.M.w.K.n.B.H.S.V.B.S.C.U.V.z.l.c.v.n.B.S.V.V.m.m.l.j.k.x.X.j.X.Y k.j.j.x.j.k.j.N.h.j.j.h.h.f.A.T.T.T.T.d.z.f.l.z.k.k.z.d.v.c.l.z.k.v.l.d.l.l.d.z.d.d.c.n.c.c.z.j.z.z.z.z.z.f.c.v.v.g.n.g.f.f.5.5.O.u.R :.I O.5.5.5.:...Z.+X@X7XCXCXCXmX..q.S.t...*.t.t.t.r.M.Y 2.r.%.R 2.%.&.=.8.8.&.&.8.&.5.*.*.*.&.5.1.X.z.A +XBX_.#X#X#X#X#X#X#X#X#XSX+X$X*.3.&.7.6.&.2.2.1.1.#.1.1.1.1.1.1.#.#.>.$.>.<.<.,.<.1.%.1.2.#.1.%.1.r.t.t.%.r.r.r.4...&...Y Y Y E Y Y E t.4.4.r.r.z.z.R A.. CX+X7X#XSXSX+X+XBXCX+X@X#X#X#X#X#X#X#X#X#X#X#X#X#X#X#X#X#X#X#X#X#X#X#X#X#X#X#X#X#X#X#X#X#X#X#X#X#X#X#X#X#X#X#X#X#X#X#X#X#X#X#X#X#X#X#X#X#X#X#X#X#X#X#X#X#X#X#X#X#X#X#X#X#X#X#X#X#X#X#X#X#X#X#X#X#X#X#X#X#X#X#X#X#X#X#X#X#X#X#X#X#X#X#X#X#X#X#X#X#X#X#X#X#X#X#X#X#X#X#X#X#X#X#X#X#X#X#X#X#X#X#X#X#X#X#X#X#X#X#X#X#X#X#X#X#X#X#X#X#X#X#X#X#X#X#X#X#X#X#X#X#X#X#X#X#X#X#X#X#X#X#X#X#X#X#X#X#X#X#X#X#X#X",
"#X#X#X#X#X#X#X#X#X#X#X#X#X#X#X#X#X#X#X#X#X#X#X#X#X#X#X#X#X#X#X#X#X#X#X#X#X#X#X#X#X#X#X#X#X#X#X#X#X#X#X#X#X#X#X#X#X#X#X#X#X#X#X#X#X#X#X#X#X#X#X#X#X#X#X#X#X#X#X#X#X#X#X#X#X#X#X#X#X#X#X#X#X#X#X#X#X#X#X#X#X#X#X#X#X#X#X#X#X#X#X#X#X#X#X#X#X#X#X#X#X#X#X#X#X#X#X#X#X#X#X#X#X#X#X#X#X#X#X#X#X#X#X#X#X#X#X#X#X#X#X#X#X#X#X#X#X#X#X#X_ hX0X;Xo.V.m.w.m.S.Y.K.T.n.m.b.T.~ S.v.m.C.V.V.S.C.L.L.n.l.n.c.c.n.w.B.B.n.c.b.b.k.j.j.j.x.j.Y z.j.j.j.j.j.j.h.h.j.j.X.x.z.d.n.T.V.V.v.z.v.l.z.z.d.l.f.l.J.z.z.l.v.f.l.v.l.d.v.b.b.b.n.g.g.d.j.z.z.z.k.G.z.v.d.d.f.J.z.*.5.U U t.E ..5.3...5.5.*.5.E | C.. SXQ.m.d.c.c.3.4.=.T 5.E u.4.r.%.M.4.2.r...u.2.r.4.u...&...*.*.&.3.3.*.3.3.t.A.. . @X_.#X#X#X#X#X#X#X#X#XmXZX+Xq.| &.&.7.i.d.X.2.1.1.#.#.$.#.1.1.1.>.$.<.<.$.<.,.<.%.E u.1.2.X.1.F 4.U 4.4.%.2.2.X.%.Y X.X.H M.X.M.R E E R t.E 4.4.Y e.DXCXVX#X#XAX@X@X@XAX#X#X#X#X#X#X#X#X#X#X#X#X#X#X#X#X#X#X#X#X#X#X#X#X#X#X#X#X#X#X#X#X#X#X#X#X#X#X#X#X#X#X#X#X#X#X#X#X#X#X#X#X#X#X#X#X#X#X#X#X#X#X#X#X#X#X#X#X#X#X#X#X#X#X#X#X#X#X#X#X#X#X#X#X#X#X#X#X#X#X#X#X#X#X#X#X#X#X#X#X#X#X#X#X#X#X#X#X#X#X#X#X#X#X#X#X#X#X#X#X#X#X#X#X#X#X#X#X#X#X#X#X#X#X#X#X#X#X#X#X#X#X#X#X#X#X#X#X#X#X#X#X#X#X#X#X#X#X#X#X#X#X#X#X#X#X#X#X#X#X#X#X#X#X#X#X#X#X#X#X#X#X#X#X#X#X#X",
"#X#X#X#X#X#X#X#X#X#X#X#X#X#X#X#X#X#X#X#X#X#X#X#X#X#X#X#X#X#X#X#X#X#X#X#X#X#X#X#X#X#X#X#X#X#X#X#X#X#X#X#X#X#X#X#X#X#X#X#X#X#X#X#X#X#X#X#X#X#X#X#X#X#X#X#X#X#X#X#X#X#X#X#X#X#X#X#X#X#X#X#X#X#X#X#X#X#X#X#X#X#X#X#X#X#X#X#X#X#X#X#X#X#X#X#X#X#X#X#X#X#X#X#X#X#X#X#X#X#X#X#X#X#X#X#X#X#X#X#X#X#X#X#X#X#X#X#X#X#X#X#X#X#X#X#X#X#X#X#X_ yXuXhXo.K.C.m.B.Y.K.K.C.V.S.K.F.C.b.n.c.Y.C.H.C.C.C.B.m.V.B.b.c.v.c.n.n.v.c.b.b.z.j.k.M.j.j.j.Y j.j.j.k.j.X.x.h.x.k.j.x.d.f.c.n.m.T.n.l.d.f.d.d.l.f.l.z.k.z.d.v.v.v.v.l.d.l.b.b.b.b.n.n.c.l.z.z.d.d.j.j.z.l.l.J.M.I 5...&.l.O.t.t.5.5...5.:.t.&.5.*.l.=.e...O.} 3.q.3.5.*.&.u.4.R E Y r.r.Y E R r.R ..t.r.$.$.>.X.1.h.Y 4.4.3.3.*.3.3.q.#X@XmX#X#X#X#X#X#X#X#X#X7X. . S.:.3.*.+.*.7.M.2.%.r.2.1.$.#.X.1.>.%.u.r.r.#.$.#.2.t.%.1.4.u.R 2.#.2.t.4.4.R R %.H F <.<.#.#.#.#.r.1.%.Y 4.4.u.5.4.Y E ` . #X_.#X#X#X#X#X#X#X#X#X#X#X#X#X#X#X#X#X#X#X#X#X#X#X#X#X#X#X#X#X#X#X#X#X#X#X#X#X#X#X#X#X#X#X#X#X#X#X#X#X#X#X#X#X#X#X#X#X#X#X#X#X#X#X#X#X#X#X#X#X#X#X#X#X#X#X#X#X#X#X#X#X#X#X#X#X#X#X#X#X#X#X#X#X#X#X#X#X#X#X#X#X#X#X#X#X#X#X#X#X#X#X#X#X#X#X#X#X#X#X#X#X#X#X#X#X#X#X#X#X#X#X#X#X#X#X#X#X#X#X#X#X#X#X#X#X#X#X#X#X#X#X#X#X#X#X#X#X#X#X#X#X#X#X#X#X#X#X#X#X#X#X#X#X#X#X#X#X#X#X#X#X#X#X#X#X#X#X#X#X#X#X#X#X#X",
"#X#X#X#X#X#X#X#X#X#X#X#X#X#X#X#X#X#X#X#X#X#X#X#X#X#X#X#X#X#X#X#X#X#X#X#X#X#X#X#X#X#X#X#X#X#X#X#X#X#X#X#X#X#X#X#X#X#X#X#X#X#X#X#X#X#X#X#X#X#X#X#X#X#X#X#X#X#X#X#X#X#X#X#X#X#X#X#X#X#X#X#X#X#X#X#X#X#X#X#X#X#X#X#X#X#X#X#X#X#X#X#X#X#X#X#X#X#X#X#X#X#X#X#X#X#X#X#X#X#X#X#X#X#X#X#X#X#X#X#X#X#X#X#X#X#X#X#X#X#X#X#X#X#X#X#X#X#X#X#X#X_ dXgXo.K.C.S.S.H.L.K.T.T.Y.L.K.m.B.m.c.b.C.K.C.S.b.n.m.m.m.m.n.c.c.l.c.b.n.n.n.k.x.z.z.k.x.X.Y j.k.k.k.k.x.k.X.j.k.j.j.z.f.c.n.g.n.b.I.z.z.l.z.J.d.l.k.z.d.d.v.c.c.c.v.l.v.n.n.n.n.n.n.g.v.z.j.z.d.x.k.l.v.d.M.d.S.DX$XmXSXY.O.t.5...U I m.b.O.5.t.v...:.O.5.U =.C.H.9.&.*.5.4.r.%.%.2.R E R R r.r.E E t.%.1.$.1.2.h.u.4.u.5.3.&.3.&.O.e.. #X#X#X#X#X#X_.VXCX+X`.P e.U +.&.&.&.*.3.X.%.2.2.%.2.#.1.X.#.>.4...R 4.#.#.4.u.4.%.R E E 4.2.4.t.4.R E R R R j.#.$.r.4.4.4.t.4.1.X.X.2.5.5.*.E E ..!.+X#X#X#X#X#X#X#X#X#X#X#X#X#X#X#X#X#X#X#X#X#X#X#X#X#X#X#X#X#X#X#X#X#X#X#X#X#X#X#X#X#X#X#X#X#X#X#X#X#X#X#X#X#X#X#X#X#X#X#X#X#X#X#X#X#X#X#X#X#X#X#X#X#X#X#X#X#X#X#X#X#X#X#X#X#X#X#X#X#X#X#X#X#X#X#X#X#X#X#X#X#X#X#X#X#X#X#X#X#X#X#X#X#X#X#X#X#X#X#X#X#X#X#X#X#X#X#X#X#X#X#X#X#X#X#X#X#X#X#X#X#X#X#X#X#X#X#X#X#X#X#X#X#X#X#X#X#X#X#X#X#X#X#X#X#X#X#X#X#X#X#X#X#X#X#X#X#X#X#X#X#X#X#X#X#X#X#X#X#X#X#X#X#X#X#X#X",
"_.SX#X#X#X#X#X#X#X#X#X#X#X#X#X#X#X#X#X#X#X#X#X#X#X#X#X#X#X#X#X#X#X#X#X#X#X#X#X#X#X#X#X#X#X#X#X#X#X#X#X#X#X#X#X#X#X#X#X#X#X#X#X#X#X#X#X#X#X#X#X#X#X#X#X#X#X#X#X#X#X#X#X#X#X#X#X#X#X#X#X#X#X#X#X#X#X#X#X#X#X#X#X#X#X#X#X#X#X#X#X#X#X#X#X#X#X#X#X#X#X#X#X#X#X#X#X#X#X#X#X#X#X#X#X#X#X#X#X#X#X#X#X#X#X#X#X#X#X#X#X#X#X#X#X#X#X#X#X#X#X_ iXxXH.S.H.K.C.C.L.I.M.d.V.H.B.V.B.B.w.n.m.Y.K.V.b.b.m.m.b.b.n.n.b.v.v.n.v.c.v.j.j.k.z.d.z.j.k.z.j.k.z.Y j.j.k.k.z.k.X.d.v.I.I.c.n.c.T.n.z.d.d.k.G.k.k.d.l.l.v.v.c.v.v.l.v.n.n.c.n.b.b.g.d.k.k.z.j.j.l.v.l.Y A ).. +X7X@X. +Xl.:...5.} m.. Y.} 5.E t.u.5.5.5.5.t.O.=.F.q.5...u.4.%.2.%.E R M.%.4.%.R E u.4.2.#.1.H 1.z.*.5.t.*.&.&.&.3.T VX. @X#XmX_.VXCX+X/ S.=.5.+.7.&.7.*.3.*.3.4.2.%.f.d.Y 2.#.X.F %.M.R u.%.4.5.5.4.u...u.%.r.r.u.5.4.R E R R Y X.#.2.2.2.r.4.t.4.r.1.X.1.1.5.3.&.*...f.DXBX#X#X#X#X#X#X#X#X#X#X#X#X#X#X#X#X#X#X#X#X#X#X#X#X#X#X#X#X#X#X#X#X#X#X#X#X#X#X#X#X#X#X#X#X#X#X#X#X#X#X#X#X#X#X#X#X#X#X#X#X#X#X#X#X#X#X#X#X#X#X#X#X#X#X#X#X#X#X#X#X#X#X#X#X#X#X#X#X#X#X#X#X#X#X#X#X#X#X#X#X#X#X#X#X#X#X#X#X#X#X#X#X#X#X#X#X#X#X#X#X#X#X#X#X#X#X#X#X#X#X#X#X#X#X#X#X#X#X#X#X#X#X#X#X#X#X#X#X#X#X#X#X#X#X#X#X#X#X#X#X#X#X#X#X#X#X#X#X#X#X#X#X#X#X#X#X#X#X#X#X#X#X#X#X#X#X#X#X#X#X#X#X#X#X#X#X",
"mX_.mX#X#X#X#X#X#X#X#X#X#X#X#X#X#X#X#X#X#X#X#X#X#X#X#X#X#X#X#X#X#X#X#X#X#X#X#X#X#X#X#X#X#X#X#X#X#X#X#X#X#X#X#X#X#X#X#X#X#X#X#X#X#X#X#X#X#X#X#X#X#X#X#X#X#X#X#X#X#X#X#X#X#X#X#X#X#X#X#X#X#X#X#X#X#X#X#X#X#X#X#X#X#X#X#X#X#X#X#X#X#X#X#X#X#X#X#X#X#X#X#X#X#X#X#X#X#X#X#X#X#X#X#X#X#X#X#X#X#X#X#X#X#X#X#X#X#X#X#X#X#X#X#X#X#X#X#X#X#XAX7XjXS.C.K.K.K.C.m.n.T.n.n.C.K.C.C.H.H.S.V.V.V.m.V.B.B.B.w.b.n.n.w.n.v.c.c.c.j.X.k.d.d.l.l.k.Y k.j.k.z.k.j.k.j.k.d.k.j.d.J.l.g.g.v.f.n.B.v.z.l.d.z.k.k.f.f.f.v.c.c.v.v.c.n.n.n.n.b.n.l.d.j.x.z.G.k.l.f.l.z.z.#X. #X#X#X#X#X+X/ O.{ { n.+X. b.O.5.5.t.5...5.t.5.*.*.t.5.u.4.u.t.%.%.r.E 4.%.X.%.E E 4.R ..t.%.#.#.X.F X.*.*.=.5.5.=.&.7.U w.(.mX. @X+X+X!.n.5.U 3.7.i.i.&.&.*.3.*.&.3.4...l.....X.$.1.1.X.4.4.r.t.*.5.u.....u.%.4.%.t.t.t.5.E E u.%.%.2.r.t.1.#.r.4.4.4.R 2.%.2.1...&.&.*.U w.7XAX#X#X#X#X#X#X#X#X#X#X#X#X#X#X#X#X#X#X#X#X#X#X#X#X#X#X#X#X#X#X#X#X#X#X#X#X#X#X#X#X#X#X#X#X#X#X#X#X#X#X#X#X#X#X#X#X#X#X#X#X#X#X#X#X#X#X#X#X#X#X#X#X#X#X#X#X#X#X#X#X#X#X#X#X#X#X#X#X#X#X#X#X#X#X#X#X#X#X#X#X#X#X#X#X#X#X#X#X#X#X#X#X#X#X#X#X#X#X#X#X#X#X#X#X#X#X#X#X#X#X#X#X#X#X#X#X#X#X#X#X#X#X#X#X#X#X#X#X#X#X#X#X#X#X#X#X#X#X#X#X#X#X#X#X#X#X#X#X#X#X#X#X#X#X#X#X#X#X#X#X#X#X#X#X#X#X#X#X#X#X#X#X#X#X#X#X",
"#X#X#X#X#X#XSX#X#X#X#X#X#X#X#X#X#X#X#X#X#X#X#X#X#X#X#X#X#X#X#X#X#X#X#X#X#X#X#X#X#X#X#X#X#X#X#X#X#X#X#X#X#X#X#X#X#X#X#X#X#X#X#X#X#X#X#X#X#X#X#X#X#X#X#X#X#X#X#X#X#X#X#X#X#X#X#X#X#X#X#X#X#X#X#X#X#X#X#X#X#X#X#X#X#X#X#X#X#X#X#X#X#X#X#X#X#X#X#X#X#X#X#X#X#X#X#X#X#X#X#X#X#X#X#X#X#X#X#X#X#X#X#X#X#X#X#X#X#X#X#X#X#X#X#X#X#X#X#X#X#X#XCXE.m.C.C.S.V.B.m.S.S.S.B.m.m.S.S.B.T.w.b.w.b.n.m.V.B.B.T.n.n.c.m.v.j.d.l.l.k.x.z.l.l.l.l.z.k.z.k.j.z.d.k.z.k.j.k.j.k.z.l.z.d.c.v.c.v.g.n.f.d.l.l.d.d.l.v.f.l.v.c.c.c.g.b.n.b.b.B.g.Y %.h.j.l.l.d.f.v.f.M.f.VX@X#X#X#X#X#X#XCX' n.e.VX+XBXb.| *...U E ..5.:.U &.*.*.4.%.4.r.2.r.2.4.E r.%.X.%.E R %.2.R E t.2.1.X.%.N.M.8.s.b.&.&.=.5.u.I O.d.Y.BX(.c.4.O.*.*.7.8.i.i.8.3.*.&.&.3.*.&.*.U 5.t.{ $.F #.<.1.X.t.*.5...*...t.4.E u.4.t.E ..*.....%.r.5.5.3.*.5.{ 2.r.4.R R %.%.#.X.*.7.&.*.U A.CX#X#X#X#X#X#X#X#X#X#X#X#X#X#X#X#X#X#X#X#X#X#X#X#X#X#X#X#X#X#X#X#X#X#X#X#X#X#X#X#X#X#X#X#X#X#X#X#X#X#X#X#X#X#X#X#X#X#X#X#X#X#X#X#X#X#X#X#X#X#X#X#X#X#X#X#X#X#X#X#X#X#X#X#X#X#X#X#X#X#X#X#X#X#X#X#X#X#X#X#X#X#X#X#X#X#X#X#X#X#X#X#X#X#X#X#X#X#X#X#X#X#X#X#X#X#X#X#X#X#X#X#X#X#X#X#X#X#X#X#X#X#X#X#X#X#X#X#X#X#X#X#X#X#X#X#X#X#X#X#X#X#X#X#X#X#X#X#X#X#X#X#X#X#X#X#X#X#X#X#X#X#X#X#X#X#X#X#X#X#X#X#X#X#X#X#X#X",
"#X#X% #X#X#X#X#X#XSX#XSX#X#X#X#X#X#X#X#X#X#X#X#X#X#X#X#X#X#X#X#X#X#X#X#X#X#X#X#X#X#X#X#X#X#X#X#X#X#X#X#X#X#X#X#X#X#X#X#X#X#X#X#X#X#X#X#X#X#X#X#X#X#X#X#X#X#X#X#X#X#X#X#X#X#X#X#X#X#X#X#X#X#X#X#X#X#X#X#X#X#X#X#X#X#X#X#X#X#X#X#X#X#X#X#X#X#X#X#X#X#X#X#X#X#X#X#X#X#X#X#X#X#X#X#X#X#X#X#X#X#X#X#X#X#X#X#X#X#X#X#X#X#X#X#X#X#X#X#X#X@XW.C.K.B.S.C.C.K.B.B.B.B.B.m.n.v.f.f.l.v.c.n.m.n.c.c.c.n.b.n.n.b.B.l.j.k.d.l.v.z.z.f.f.l.l.z.Y z.k.k.z.z.k.k.j.k.j.k.z.k.d.z.k.f.n.n.v.v.c.n.v.d.d.d.l.l.f.l.z.f.n.n.c.n.b.b.b.m.w.X.h.j.J.e.( v.l.f.l...%.A CX#X#X#X#X#X#X#X#X+X. CX@X#XCXS.:.&...t.5.5.:.m.B.&.*.*.u.R 4.%.2.2.r.E R 4.%.X.%.E R 4.4.R ..E 4.%.X.H 1.r.&.*.H.H.T 4.4.4.4.O.I } v...} t.*.3.*.7.8.i.i.p.7.3.&.&.&.&.&.*.3.3.=.M.>.%.%.>.1...3.*.&.&.*.u.t.5.5.t.5.5...E 4.E R r.3.&.&.*.5.T g.{ 2.r.r.r.Y Y F t.&.7.7.*.U A.CX#X#X#X#X#X#X#X#X#X#X#X#X#X#X#X#X#X#X#X#X#X#X#X#X#X#X#X#X#X#X#X#X#X#X#X#X#X#X#X#X#X#X#X#X#X#X#X#X#X#X#X#X#X#X#X#X#X#X#X#X#X#X#X#X#X#X#X#X#X#X#X#X#X#X#X#X#X#X#X#X#X#X#X#X#X#X#X#X#X#X#X#X#X#X#X#X#X#X#X#X#X#X#X#X#X#X#X#X#X#X#X#X#X#X#X#X#X#X#X#X#X#X#X#X#X#X#X#X#X#X#X#X#X#X#X#X#X#X#X#X#X#X#X#X#X#X#X#X#X#X#X#X#X#X#X#X#X#X#X#X#X#X#X#X#X#X#X#X#X#X#X#X#X#X#X#X#X#X#X#X#X#X#X#X#X#X#X#X#X#X#X#X#X#X#X#X#X",
"#X#X#X#X#X#X% #X#X#X#X#X#XSX#XSX#X#X#X#X#X#X#X#X#X#X#X#X#X#X#X#X#X#X#X#X#X#X#X#X#X#X#X#X#X#X#X#X#X#X#X#X#X#X#X#X#X#X#X#X#X#X#X#X#X#X#X#X#X#X#X#X#X#X#X#X#X#X#X#X#X#X#X#X#X#X#X#X#X#X#X#X#X#X#X#X#X#X#X#X#X#X#X#X#X#X#X#X#X#X#X#X#X#X#X#X#X#X#X#X#X#X#X#X#X#X#X#X#X#X#X#X#X#X#X#X#X#X#X#X#X#X#X#X#X#X#X#X#X#X#X#X#X#X#X#X#X#X#X#X#XVX;.B.K.L.L.C.S.S.V.B.V.B.m.m.V.T.l.v.v.g.n.n.n.n.n.c.c.c.g.b.m.b.z.j.l.d.l.v.v.l.z.v.v.v.f.d.j.k.z.z.j.j.k.j.j.z.k.z.G.k.z.z.k.d.T.c.v.v.c.n.T.n.d.d.f.f.f.l.d.z.c.w.n.b.m.m.B.b.w.A A.`.mX+X. I.R z.M.M.S +X).#X#X#X#X#X#X#X#X#X#X#X#X#X@XSXq.| 5...} { b.. A.| t.t.5.k.R E R %.R R 4.u.2.X.r.R 4.R E R R ..R t.%.%.%.2.&.7.3.8.*.r.4.u.t.u.t.4.:.4.t.3.*.3.&.7.8.i.i.i.&.5.*.7.=.7.*.3.&.&.(.g.>.%.%.1.%.*.&.&.=.*.t.5.*.u.t.3.5.5...E R u.4.5.*.&.&.&.| n.. d.<.1.2.z.d.4.4.*.7.=.&.*.U Z.+X#X#X#X#X#X#X#X#X#X#X#X#X#X#X#X#X#X#X#X#X#X#X#X#X#X#X#X#X#X#X#X#X#X#X#X#X#X#X#X#X#X#X#X#X#X#X#X#X#X#X#X#X#X#X#X#X#X#X#X#X#X#X#X#X#X#X#X#X#X#X#X#X#X#X#X#X#X#X#X#X#X#X#X#X#X#X#X#X#X#X#X#X#X#X#X#X#X#X#X#X#X#X#X#X#X#X#X#X#X#X#X#X#X#X#X#X#X#X#X#X#X#X#X#X#X#X#X#X#X#X#X#X#X#X#X#X#X#X#X#X#X#X#X#X#X#X#X#X#X#X#X#X#X#X#X#X#X#X#X#X#X#X#X#X#X#X#X#X#X#X#X#X#X#X#X#X#X#X#X#X#X#X#X#X#X#X#X#X#X#X#X#X#X#X#X#X#X",
"#X#X#X#X#X#X_.#XSX#X_.mX#X#X#X#XSX#XSX#XSX#X#X#X#X#X#X#X#X#X#X#X#X#X#X#X#X#X#X#X#X#X#X#X#X#X#X#X#X#X#X#X#X#X#X#X#X#X#X#X#X#X#X#X#X#X#X#X#X#X#X#X#X#X#X#X#X#X#X#X#X#X#X#X#X#X#X#X#X#X#X#X#X#X#X#X#X#X#X#X#X#X#X#X#X#X#X#X#X#X#X#X#X#X#X#X#X#X#X#X#X#X#X#X#X#X#X#X#X#X#X#X#X#X#X#X#X#X#X#X#X#X#X#X#X#X#X#X#X#X#X#X#X#X#X#X#X#X#X% #X@XL.B.H.L.C.V.V.S.H.S.B.B.m.m.B.B.v.l.v.c.n.n.b.b.q.c.c.c.n.n.v.h.<.N.f.v.l.v.c.c.f.v.v.v.v.l.k.z.z.z.G.k.j.k.z.z.k.z.z.k.z.z.k.k.v.b.c.v.n.b.B.n.z.d.v.f.v.l.l.z.k.c.b.b.w.w.n.X.I.CX. BX@X#X+X/ z.z.l.) . @X_.#X#X#X#X#X#X#X#X#X#X#X#X#X_.7XVXZ.P (.V.;.. ;.O.5.q.T 5.E E R R R 4.4.4.r.2.X.2.R 4.E E r.r.E ..E 2.F Y X.u.i.&.u.r.4.E t.t.5.5.u.t.u.u.5...*.*.7.i.8.i.&.5.5.*.&.7.&.3.*.+.T $Xk.{ R r.2.u.&.&.&.*.3.&.&...u.*.3.............*.&.&.&.*.*.I q.. SXR r.z.z.R t.t.&.7.&.&.U c.@X@X#X#X#X#X#X#X#X#X#X#X#X#X#X#X#X#X#X#X#X#X#X#X#X#X#X#X#X#X#X#X#X#X#X#X#X#X#X#X#X#X#X#X#X#X#X#X#X#X#X#X#X#X#X#X#X#X#X#X#X#X#X#X#X#X#X#X#X#X#X#X#X#X#X#X#X#X#X#X#X#X#X#X#X#X#X#X#X#X#X#X#X#X#X#X#X#X#X#X#X#X#X#X#X#X#X#X#X#X#X#X#X#X#X#X#X#X#X#X#X#X#X#X#X#X#X#X#X#X#X#X#X#X#X#X#X#X#X#X#X#X#X#X#X#X#X#X#X#X#X#X#X#X#X#X#X#X#X#X#X#X#X#X#X#X#X#X#X#X#X#X#X#X#X#X#X#X#X#X#X#X#X#X#X#X#X#X#X#X#X#X#X#X#X#X#X#X#X",
"#X#X#X#X#X#XmX#X#XmX#X_.#X_.mX_.#X#X#XmX#XSX#XSX#XSX#X#X#X#X#X#X#X#X#X#X#X#X#X#X#X#X#X#X#X#X#X#X#X#X#X#X#X#X#X#X#X#X#X#X#X#X#X#X#X#X#X#X#X#X#X#X#X#X#X#X#X#X#X#X#X#X#X#X#X#X#X#X#X#X#X#X#X#X#X#X#X#X#X#X#X#X#X#X#X#X#X#X#X#X#X#X#X#X#X#X#X#X#X#X#X#X#X#X#X#X#X#X#X#X#X#X#X#X#X#X#X#X#X#X#X#X#X#X#X#X#X#X#X#X#X#X#X#X#X#X#X#X#X#X#X@XR.S.C.H.K.C.H.C.C.C.S.B.m.T.m.m.v.l.c.v.g.b.m.w.n.g.c.n.c.l.h.<.$.<.z.c.v.c.c.c.g.c.l.v.v.f.l.l.d.d.k.j.z.z.l.z.z.z.k.k.z.z.z.j.d.n.T.T.n.n.c.d.l.d.f.v.v.f.l.z.z.k.d.l.l.z.M.h.j.(.+X#X#X#X#XBX$X(.#X+X#X#X#X#X#X#X#X#X#X#X#X#X#X#X#X#X#X#X@X+X+X+X. . W.| &.s.v.=.5...R r.r.4.4.4.2.1.r.%.%.R u.E E %.r.%.E E 4.2.%.X.4.&.u.r.t...t.4.t.5.5.5.5.3...5.3.*.7.7.&.3.3.5.5.3.*.*.3.3.3.3.3.=.DXz.>.R 2.%.5.*.*...3.=.n.=.t.*.&.&.*...*.*.*.*.&.&.&.&.&.U v.(.7X. _...} { O...E &.3.U U ..DX+XSX#X#X#X#X#X#X#X#X#X#X#X#X#X#X#X#X#X#X#X#X#X#X#X#X#X#X#X#X#X#X#X#X#X#X#X#X#X#X#X#X#X#X#X#X#X#X#X#X#X#X#X#X#X#X#X#X#X#X#X#X#X#X#X#X#X#X#X#X#X#X#X#X#X#X#X#X#X#X#X#X#X#X#X#X#X#X#X#X#X#X#X#X#X#X#X#X#X#X#X#X#X#X#X#X#X#X#X#X#X#X#X#X#X#X#X#X#X#X#X#X#X#X#X#X#X#X#X#X#X#X#X#X#X#X#X#X#X#X#X#X#X#X#X#X#X#X#X#X#X#X#X#X#X#X#X#X#X#X#X#X#X#X#X#X#X#X#X#X#X#X#X#X#X#X#X#X#X#X#X#X#X#X#X#X#X#X#X#X#X#X#X#X#X#X#X#X#X",
"#X#X#X#X#X#X_.% _.#X_.mX#XmX#X% #XmX_.#XSX#X_.SX_.SX_.SX#XSX#X#X#X#X#X#X#X#X#X#X#X#X#X#X#X#X#X#X#X#X#X#X#X#X#X#X#X#X#X#X#X#X#X#X#X#X#X#X#X#X#X#X#X#X#X#X#X#X#X#X#X#X#X#X#X#X#X#X#X#X#X#X#X#X#X#X#X#X#X#X#X#X#X#X#X#X#X#X#X#X#X#X#X#X#X#X#X#X#X#X#X#X#X#X#X#X#X#X#X#X#X#X#X#X#X#X#X#X#X#X#X#X#X#X#X#X#X#X#X#X#X#X#X#X#X#X#X#X#X#X#XVX`.K.K.C.H.L.L.C.S.V.I.n.m.T.m.m.f.l.f.v.n.v.z.v.b.n.g.n.n.n.g.v.f.k.k.c.c.c.q.n.n.v.l.v.l.v.f.l.l.d.j.k.d.z.d.k.k.z.k.k.z.z.k.z.v.c.I.T.I.d.l.l.l.l.n.f.l.d.z.l.v.v.l.k.x.X.j.d.1.I.. AX#X#X#X_.BXBX@X#X#X#X#X#X#X#X#X#X#X#X#X#X#X#X#X#X#X#X#X#X#X#X7X(.0.7.8.*.t.*.*.5.%.4.4.4.t.2.#.2.%.%.R E R R 4.R R r.4.E u.4.%.M...u.4.E ..t.4.t.*.&.3...5.5.*...3.&.3.5.5.u.E u.t.u.5.| O.t.=.=.5.C.+Xz.{ R r.4...*.5.5.*.c.v.5.t.3.*.*.5.O.O.| t.5.=.7.&.&.| m.BXBX_.#X. ;.O.v.l.%.4.I *.=.=.( . #X#X#X#X#X#X#X#X#X#X#X#X#X#X#X#X#X#X#X#X#X#X#X#X#X#X#X#X#X#X#X#X#X#X#X#X#X#X#X#X#X#X#X#X#X#X#X#X#X#X#X#X#X#X#X#X#X#X#X#X#X#X#X#X#X#X#X#X#X#X#X#X#X#X#X#X#X#X#X#X#X#X#X#X#X#X#X#X#X#X#X#X#X#X#X#X#X#X#X#X#X#X#X#X#X#X#X#X#X#X#X#X#X#X#X#X#X#X#X#X#X#X#X#X#X#X#X#X#X#X#X#X#X#X#X#X#X#X#X#X#X#X#X#X#X#X#X#X#X#X#X#X#X#X#X#X#X#X#X#X#X#X#X#X#X#X#X#X#X#X#X#X#X#X#X#X#X#X#X#X#X#X#X#X#X#X#X#X#X#X#X#X#X#X#X#X#X#X#X",
"#X#X#X#X#X#X#X#X#XmX#X#X% _.#X_.#X_.mX_._.#XmX#XSX#XSXmXSXSX_.SX#X#X#X#X#X#X#X#X#X#X#X#X#X#X#X#X#X#X#X#X#X#X#X#X#X#X#X#X#X#X#X#X#X#X#X#X#X#X#X#X#X#X#X#X#X#X#X#X#X#X#X#X#X#X#X#X#X#X#X#X#X#X#X#X#X#X#X#X#X#X#X#X#X#X#X#X#X#X#X#X#X#X#X#X#X#X#X#X#X#X#X#X#X#X#X#X#X#X#X#X#X#X#X#X#X#X#X#X#X#X#X#X#X#X#X#X#X#X#X#X#X#X#X#X#X#X#X#X#X_.VX#XSX`.^ C.B.b.c.v.v.v.n.b.m.m.v.l.v.v.b.d.$.z.g.c.c.c.g.n.b.b.n.n.v.c.g.q.g.n.n.n.c.v.v.v.f.v.f.z.k.d.l.d.l.z.d.d.j.f.l.k.k.d.n.I.T.B.I.d.c.l.d.c.m.v.d.l.d.l.c.c.g.c.k.j.j.z.Y X.!.. #X#X#X#X#X#X#X#X#X#X#X#X#X#X#X#X#X#X#X#X#X#X#X#X#X#X#X#X#XAXBXm.3.i.8.5.4.*...5.t.4.Y u.r.#.1.r.M.R %.4.E R %.4.4.%.%.E 5.4.%.Y u.5.*...t.4.4.3.8.8.8.7.&.3.5.t.5.t.t.t.t.t.U ..U t.t.c.S.;.`.1XFXCX#XM.2.E 2.4.*.*.u.5.*.l.t.5.5.5.O.O.:...b.v.E U | | | | n.BX+X#X#X#X#X7X#XBX` e.w.e.' #X#X7X#X#X#X#X#X#X#X#X#X#X#X#X#X#X#X#X#X#X#X#X#X#X#X#X#X#X#X#X#X#X#X#X#X#X#X#X#X#X#X#X#X#X#X#X#X#X#X#X#X#X#X#X#X#X#X#X#X#X#X#X#X#X#X#X#X#X#X#X#X#X#X#X#X#X#X#X#X#X#X#X#X#X#X#X#X#X#X#X#X#X#X#X#X#X#X#X#X#X#X#X#X#X#X#X#X#X#X#X#X#X#X#X#X#X#X#X#X#X#X#X#X#X#X#X#X#X#X#X#X#X#X#X#X#X#X#X#X#X#X#X#X#X#X#X#X#X#X#X#X#X#X#X#X#X#X#X#X#X#X#X#X#X#X#X#X#X#X#X#X#X#X#X#X#X#X#X#X#X#X#X#X#X#X#X#X#X#X#X#X#X#X#X#X#X#X#X#X#X#X#X",
"#X#X#X#X#X#X#X#X% _.#X_.#X#XmX#XSX#X#XmX#XSX_.SX#XSX#X_.#XmX_.SXSXSX_.SX#XSX#X#X#X#X#X#X#X#X#X#X#X#X#X#X#X#X#X#X#X#X#X#X#X#X#X#X#X#X#X#X#X#X#X#X#X#X#X#X#X#X#X#X#X#X#X#X#X#X#X#X#X#X#X#X#X#X#X#X#X#X#X#X#X#X#X#X#X#X#X#X#X#X#X#X#X#X#X#X#X#X#X#X#X#X#X#X#X#X#X#X#X#X#X#X#X#X#X#X#X#X#X#X#X#X#X#X#X#X#X#X#X#X#X#X#X#X#X#X#X#X#X#X#X#X#XVX@XBX@Xe.c.n.n.q.n.c.n.n.m.T.f.l.v.v.n.n.f.v.v.c.v.v.c.v.c.v.v.f.v.c.n.n.n.n.b.n.c.v.c.v.v.c.v.z.z.f.d.l.f.d.d.z.z.n.n.z.M.J.n.I.T.V.T.v.v.l.v.n.b.g.l.f.l.f.v.c.c.n.c.z.j.M.z.%.j.' . #X#X#X#X#X#X#X#X#X#X#X#X#X#X#X#X#X#X#X#X#X#X#X#X#X#X#XmXVXCXb.3.8.8.*.t.u.....3.5.u.Y X.1.2.%.R X.r.4...E R 4.t.E R R *.R %.j.O.3.*.t.t.5.t.*.*.5.5.5.5.5.t.t.t.t.t.u...5.E 5.t.:...VX. +XBXBX+X+XSXM.{ R %.4.5.u.t.u.*.d.%.Y k.u.) !.A.' BXVX_.' w.q.b.S.% +XSX#X#X#X#XAX7X@XBXCX+X+X+X@XVX#X#X#X#X#X#X#X#X#X#X#X#X#X#X#X#X#X#X#X#X#X#X#X#X#X#X#X#X#X#X#X#X#X#X#X#X#X#X#X#X#X#X#X#X#X#X#X#X#X#X#X#X#X#X#X#X#X#X#X#X#X#X#X#X#X#X#X#X#X#X#X#X#X#X#X#X#X#X#X#X#X#X#X#X#X#X#X#X#X#X#X#X#X#X#X#X#X#X#X#X#X#X#X#X#X#X#X#X#X#X#X#X#X#X#X#X#X#X#X#X#X#X#X#X#X#X#X#X#X#X#X#X#X#X#X#X#X#X#X#X#X#X#X#X#X#X#X#X#X#X#X#X#X#X#X#X#X#X#X#X#X#X#X#X#X#X#X#X#X#X#X#X#X#X#X#X#X#X#X#X#X#X#X#X#X#X#X#X#X#X#X#X#X#X#X#X#X#X#X#X#X",
"#X#X#X#XSX#X#X#X#X#XmX#XSX#X_.#X#XSX#X_.mX_.#XSX_.SXSX_.SX_.SX_._._.mXSXSXSXSX% _.SX#X#X#X#X#X#X#X#X#X#X#X#X#X#X#X#X#X#X#X#X#X#X#X#X#X#X#X#X#X#X#X#X#X#X#X#X#X#X#X#X#X#X#X#X#X#X#X#X#X#X#X#X#X#X#X#X#X#X#X#X#X#X#X#X#X#X#X#X#X#X#X#X#X#X#X#X#X#X#X#X#X#X#X#X#X#X#X#X#X#X#X#X#X#X#X#X#X#X#X#X#X#X#X#X#X#X#X#X#X#X#X#X#X#X#X#X#X#X#X#X#X#X#X@XmXV.n.n.b.b.n.b.b.T.m.f.d.v.v.v.c.w.n.v.v.v.v.v.v.c.l.d.d.d.l.d.g.b.n.n.b.b.g.c.c.c.d.l.v.J.l.v.f.d.d.z.z.z.v.c.n.d.M.v.I.b.T.V.S.c.v.b.n.n.n.m.n.l.v.v.v.c.c.c.c.n.z.j.z.d.2.z.#XBXSX#X#X#X#X#X#X#X#X#X#X#X#X#X#X#X#X#X#X#X#X#X#X#X#X#XAX+X!.=.+.7.7...t.r.n.B.t.*.u.h.j.X.X.%.r.2.4.u.E ..5.%.4.*.t.4...u.%.%.l...t.5.5.t.u.4.r.4.t.u.t.t.5.t.E u.5.5...5.r.{ } ..( CX#X#X#X#X#X@XVXz.{ u.r.4.5.u.4.u...l.E %.z.( . CXCX+X#X).7X+X+X7X7XCX@XmX#X#X#X#X#X#X#X#X#X#XAX#X#X#X#X#X#X#X#X#X#X#X#X#X#X#X#X#X#X#X#X#X#X#X#X#X#X#X#X#X#X#X#X#X#X#X#X#X#X#X#X#X#X#X#X#X#X#X#X#X#X#X#X#X#X#X#X#X#X#X#X#X#X#X#X#X#X#X#X#X#X#X#X#X#X#X#X#X#X#X#X#X#X#X#X#X#X#X#X#X#X#X#X#X#X#X#X#X#X#X#X#X#X#X#X#X#X#X#X#X#X#X#X#X#X#X#X#X#X#X#X#X#X#X#X#X#X#X#X#X#X#X#X#X#X#X#X#X#X#X#X#X#X#X#X#X#X#X#X#X#X#X#X#X#X#X#X#X#X#X#X#X#X#X#X#X#X#X#X#X#X#X#X#X#X#X#X#X#X#X#X#X#X#X#X#X#X#X#X#X#X#X#X#X#X#X#X#X#X#X#X#X#X#X#X#X",
"#X#X#X#X#X#XSX#X_.#X#X_.#XmX#X#XSX#X_.mX_.mX#XSX_.mXSXmXSXmXSXmXSXmX_._.SXmXSXSX$XSXSXSX_.% #X#X#X#X#X#X#X#X#X#X#X#X#X#X#X#X#X#X#X#X#X#X#X#X#X#X#X#X#X#X#X#X#X#X#X#X#X#X#X#X#X#X#X#X#X#X#X#X#X#X#X#X#X#X#X#X#X#X#X#X#X#X#X#X#X#X#X#X#X#X#X#X#X#X#X#X#X#X#X#X#X#X#X#X#X#X#X#X#X#X#X#X#X#X#X#X#X#X#X#X#X#X#X#X#X#X#X#X#X#X#X#X#X#X#X#X#X#X#X7X(.B.V.S.V.V.I.n.b.b.n.z.l.l.l.v.n.n.n.v.v.v.f.f.l.z.z.l.d.d.l.z.d.w.b.n.n.b.n.q.g.f.d.d.f.c.g.b.g.l.d.z.d.d.l.J.f.f.z.n.T.T.T.V.V.n.n.T.g.g.T.m.m.n.v.v.v.v.v.c.v.c.n.d.H z.z.1.e.. #X#X#X#X#X#X#X#X#X#X#X#X#X#X#X#X#X#X#X#X#X#X#X#X#X#X@XF.7.3.*.*.&.*.4.4.&.b.5.5.5.r.h.h.X.2.2.2.%.E ......R 4.5.R %...E r.Y g.M.2.4.4.r.r.r.4.t.t.t.t.5.u.U ..5.R O.{ { r.w.Q.SX+X#X#X#X#X#X#XVX7Xl.{ E %.r...5.4.u.E *...1.e.. #X#X#X#X#X#X#X#X#XAXVX#X#X#X#X#X#X#X#X#X#X#X#X#X#X#X#X#X#X#X#X#X#X#X#X#X#X#X#X#X#X#X#X#X#X#X#X#X#X#X#X#X#X#X#X#X#X#X#X#X#X#X#X#X#X#X#X#X#X#X#X#X#X#X#X#X#X#X#X#X#X#X#X#X#X#X#X#X#X#X#X#X#X#X#X#X#X#X#X#X#X#X#X#X#X#X#X#X#X#X#X#X#X#X#X#X#X#X#X#X#X#X#X#X#X#X#X#X#X#X#X#X#X#X#X#X#X#X#X#X#X#X#X#X#X#X#X#X#X#X#X#X#X#X#X#X#X#X#X#X#X#X#X#X#X#X#X#X#X#X#X#X#X#X#X#X#X#X#X#X#X#X#X#X#X#X#X#X#X#X#X#X#X#X#X#X#X#X#X#X#X#X#X#X#X#X#X#X#X#X#X#X#X#X#X#X#X#X#X#X#X#X#X#X#X#X#X#X#X#X",
"#X#X#X#X#X#X#X#XmX#X_.mX#X_.#XSX#X#XmX#X#X#XSX_.mX_.#X_.SX_.SXSXSXSXSXSXmX_.SX_.SXSXSXSXSXSXSXSX#X_.#X#X#X#X#X#X#X#X#X#X#X#X#X#X#X#X#X#X#X#X#X#X#X#X#X#X#X#X#X#X#X#X#X#X#X#X#X#X#X#X#X#X#X#X#X#X#X#X#X#X#X#X#X#X#X#X#X#X#X#X#X#X#X#X#X#X#X#X#X#X#X#X#X#X#X#X#X#X#X#X#X#X#X#X#X#X#X#X#X#X#X#X#X#X#X#X#X#X#X#X#X#X#X#X#X#X#X#X#X#X#X#X#X#X#X@X` V.S.H.V.m.n.v.v.v.c.l.l.v.f.c.b.b.n.c.f.v.f.d.j.h.h.j.d.l.d.d.z.b.m.n.n.c.n.n.c.l.v.c.c.n.n.g.b.b.w.c.f.g.c.d.d.v.v.T.B.I.T.V.K.T.n.c.g.b.T.T.T.B.g.f.v.v.f.v.q.c.n.c.l.k.d.M.z.#X+XmX#X#X#X#X#X#X#X#X#X#X#X#X#X#X#X#X#X#X#X#X#X#X#XVXmXi.@.i.&...*...u.u.t.4.=...t.4.2.1.1.#.2.2.%.5.E ......R E ..t.....%.j.%.2.2.r.r.r.%.u.t.R ..5.5...5.u.O.{ { } v.V.GXCX. 7X#X#X#X#X#X#X#X@X@Xd.} E 4.r.t.5.4.4.E *.d.2.c . #X#X#X#X#X#X#X#X#X#X#X#X#X#X#X#X#X#X#X#X#X#X#X#X#X#X#X#X#X#X#X#X#X#X#X#X#X#X#X#X#X#X#X#X#X#X#X#X#X#X#X#X#X#X#X#X#X#X#X#X#X#X#X#X#X#X#X#X#X#X#X#X#X#X#X#X#X#X#X#X#X#X#X#X#X#X#X#X#X#X#X#X#X#X#X#X#X#X#X#X#X#X#X#X#X#X#X#X#X#X#X#X#X#X#X#X#X#X#X#X#X#X#X#X#X#X#X#X#X#X#X#X#X#X#X#X#X#X#X#X#X#X#X#X#X#X#X#X#X#X#X#X#X#X#X#X#X#X#X#X#X#X#X#X#X#X#X#X#X#X#X#X#X#X#X#X#X#X#X#X#X#X#X#X#X#X#X#X#X#X#X#X#X#X#X#X#X#X#X#X#X#X#X#X#X#X#X#X#X#X#X#X#X#X#X#X#X#X#X#X#X#X#X#X#X#X#X#X#X#X",
"#X#X#X#X#X_.mX_.#X#XmX_.mX#XmX#X_.#X_.mX_.mX#X#X_.SXSX#XSX#X_.#XSXSXSXSXSXSXSXSXmX_.SXSXSX$XSXSXSXSXSX_.SX#X#X#X#X#X#X#X#X#X#X#X#X#X#X#X#X#X#X#X#X#X#X#X#X#X#X#X#X#X#X#X#X#X#X#X#X#X#X#X#X#X#X#X#X#X#X#X#X#X#X#X#X#X#X#X#X#X#X#X#X#X#X#X#X#X#X#X#X#X#X#X#X#X#X#X#X#X#X#X#X#X#X#X#X#X#X#X#X#X#X#X#X#X#X#X#X#X#X#X#X#X#X#X#X#X#X#X#X#X#X#X#XVX#XS.m.B.m.b.n.c.v.c.q.f.d.c.v.q.n.n.q.c.c.v.d.M.X.j.j.j.k.d.f.l.d.v.m.m.b.n.n.c.f.v.g.c.c.c.g.n.n.I.S.V.J.c.n.d.z.v.g.n.T.m.T.S.K.V.c.c.n.b.T.b.T.T.v.d.c.c.v.v.c.c.c.v.g.l.k.d.%.I.BX).#X#X#X#X#X#X#X#X#X#X#X#X#X#X#X#X#X#X#X#X#X#X#X#XBXB.+.@.8.*.*.5.u...u...c.*.t.4.t.%.%.4.1.1.r.......*.5.........E ..E %.r.4.4.%.4.r.4.*.E 5...5.t.5.t.O.E n.V./.BX. +X#X#X#X#X#X#X#X#X#X#XVX7Xl.} E R 2.u.*.t.4.E ..l.%.A.. #X#X#X#X#X#X#X#X#X#X#X#X#X#X#X#X#X#X#X#X#X#X#X#X#X#X#X#X#X#X#X#X#X#X#X#X#X#X#X#X#X#X#X#X#X#X#X#X#X#X#X#X#X#X#X#X#X#X#X#X#X#X#X#X#X#X#X#X#X#X#X#X#X#X#X#X#X#X#X#X#X#X#X#X#X#X#X#X#X#X#X#X#X#X#X#X#X#X#X#X#X#X#X#X#X#X#X#X#X#X#X#X#X#X#X#X#X#X#X#X#X#X#X#X#X#X#X#X#X#X#X#X#X#X#X#X#X#X#X#X#X#X#X#X#X#X#X#X#X#X#X#X#X#X#X#X#X#X#X#X#X#X#X#X#X#X#X#X#X#X#X#X#X#X#X#X#X#X#X#X#X#X#X#X#X#X#X#X#X#X#X#X#X#X#X#X#X#X#X#X#X#X#X#X#X#X#X#X#X#X#X#X#X#X#X#X#X#X#X#X#X#X#X#X#X#X#X#X#X#X",
"#X#X#X#X#X% #X#XmX_.#X#X#X_.#XSX#XSXmX#XmX_._.mX#XmX_.SX_.SXSXSX_.mXmXSX$XSX$XSX$XSXSX$XSXSXSXSX$XSX$XSXSXo SXSXSX% #X#X#X#X#X#X#X#X#X#X#X#X#X#X#X#X#X#X#X#X#X#X#X#X#X#X#X#X#X#X#X#X#X#X#X#X#X#X#X#X#X#X#X#X#X#X#X#X#X#X#X#X#X#X#X#X#X#X#X#X#X#X#X#X#X#X#X#X#X#X#X#X#X#X#X#X#X#X#X#X#X#X#X#X#X#X#X#X#X#X#X#X#X#X#X#X#X#X#X#X#X#X#X#X#X#X#X#X@X;.q.b.m.b.b.q.T q.n.v.v.g.g.g.n.n.c.g.c.l.Y j.j.k.d.l.l.l.l.d.d.k.f.n.n.v.l.d.d.f.c.v.c.g.c.b.T.T.V.L.T.f.I.g.z.c.f.g.V.B.e.V.T.b.n.n.n.w.T.T.T.n.f.d.f.g.c.c.v.v.c.c.v.c.d.z.d.2.A.CX#X#X#X#X#X#X#X#X#X#X#X#X#X#X#X#X#X#X#X#X#X#X#X#X@X_.H.i.@.| 4...u.5.d.5.t...*.3.u.5.7.5.#.#.1.u.*.*.*.....*...5...E t.R r.4.4.E R t.E E 5.t.t.u.5...*.| S.. . CXVX#X#X#X#X#X#X#X#X#X#X#X#X).BXv.} E R r.4.5.t.4.E ....d.' +X#X#X#X#X#X#X% #X#X#X#X#X#X#X#X#X#X#X#X#X#X#X#X#X#X#X#X#X#X#X#X#X#X#X#X#X#X#X#X#X#X#X#X#X#X#X#X#X#X#X#X#X#X#X#X#X#X#X#X#X#X#X#X#X#X#X#X#X#X#X#X#X#X#X#X#X#X#X#X#X#X#X#X#X#X#X#X#X#X#X#X#X#X#X#X#X#X#X#X#X#X#X#X#X#X#X#X#X#X#X#X#X#X#X#X#X#X#X#X#X#X#X#X#X#X#X#X#X#X#X#X#X#X#X#X#X#X#X#X#X#X#X#X#X#X#X#X#X#X#X#X#X#X#X#X#X#X#X#X#X#X#X#X#X#X#X#X#X#X#X#X#X#X#X#X#X#X#X#X#X#X#X#X#X#X#X#X#X#X#X#X#X#X#X#X#X#X#X#X#X#X#X#X#X#X#X#X#X#X#X#X#X#X#X#X#X#X#X#X#X#X#X#X#X#X#X#X#X#X#X",
"#X#X#X#X_.#X_.#X_.#X#XmX_.#XSX#XSX_.#XSXSXSX#XSX#X_.mX_.mX_.mX_.#XSX_._.SXSX_.SXSXSX$X$X$XSXSXSXSXSXSXSX$X] SX$X`.$XSX$XSXSX#XAX#X#X#X#X#X#X#X#X#X#X#X#X#X#X#X#X#X#X#X#X#X#X#X#X#X#X#X#X#X#X#X#X#X#X#X#X#X#X#X#X#X#X#X#X#X#X#X#X#X#X#X#X#X#X#X#X#X#X#X#X#X#X#X#X#X#X#X#X#X#X#X#X#X#X#X#X#X#X#X#X#X#X#X#X#X#X#X#X#X#X#X#X#X#X#X#X#X#X#X#X#X#X@X#XZ.V.w.s.s.s.n.b.n.b.m.m.w.b.v.v.n.c.l.d.d.z.z.d.d.v.c.c.v.z.j.k.z.z.z.k.j.v.n.l.f.c.g.b.n.T.V.S.B.f.v.v.c.I.v.f.k.c.T.n.T.V.V.T.I.n.T.T.m.V.b.v.v.l.d.c.g.g.v.f.f.c.c.c.n.d.l.%.A CX#X#X#X#X#X#X#X#X#X#X#X#X#X#X#X#X#X#X#X#X#X#X#X#XSX@X+X$X!.S.*.r.u.R 5.*.*.*.*.5.u.&.*.X.#.1.1.%.&.*.*.*...E ..t...*.*...4.u.E 5.4.4.4.4.4.5...*.7.7.7.3.B.BXAX#X#X#X#X#X#X#X#X#X#X#X#X#X#X#X+Xn.{ E E %.4.5.5.t.t.E E n.mX@X#X#X#X#X#X#X#X#X#X#X#X#X#X#X#X#X#X#X#X#X#X#X#X#X#X#X#X#X#X#X#X#X#X#X#X#X#X#X#X#X#X#X#X#X#X#X#X#X#X#X#X#X#X#X#X#X#X#X#X#X#X#X#X#X#X#X#X#X#X#X#X#X#X#X#X#X#X#X#X#X#X#X#X#X#X#X#X#X#X#X#X#X#X#X#X#X#X#X#X#X#X#X#X#X#X#X#X#X#X#X#X#X#X#X#X#X#X#X#X#X#X#X#X#X#X#X#X#X#X#X#X#X#X#X#X#X#X#X#X#X#X#X#X#X#X#X#X#X#X#X#X#X#X#X#X#X#X#X#X#X#X#X#X#X#X#X#X#X#X#X#X#X#X#X#X#X#X#X#X#X#X#X#X#X#X#X#X#X#X#X#X#X#X#X#X#X#X#X#X#X#X#X#X#X#X#X#X#X#X#X#X#X#X#X#X#X#X#X#X#X#X#X#X#X#X#X#X#X#X#X",
"#X#X#X#X#X#X#XmX#XmX_.#XmX#X#X#X_.mX#X_.mX_.mXSX#XSXSX_.#XSX_.SXSXSXmXSXSX_.mX_.SXSXSXSXSX$X$X$XSX$XSX$XSXSX$XSXSXSX$X`.DXSX`.SX#XSX#XAX#X#X#X#X#X#X#X#X#X#X#X#X#X#X#X#X#X#X#X#X#X#X#X#X#X#X#X#X#X#X#X#X#X#X#X#X#X#X#X#X#X#X#X#X#X#X#X#X#X#X#X#X#X#X#X#X#X#X#X#X#X#X#X#X#X#X#X#X#X#X#X#X#X#X#X#X#X#X#X#X#X#X#X#X#X#X#X#X#X#X#X#X#X#X#X#X#X#XSX@XBX@X` ;XgXgXxXgXe.G s.G s.9.m.Z.e.l.l.l.v.v.d.z.c.n.g.c.n.d.1.j.l.z.k.k.j.n.Y.T.g.c.n.n.b.I.n.K.T.k.l.v.c.g.c.v.k.J.T.g.T.S.Y.S.T.T.B.V.B.I.c.v.c.c.d.v.c.c.g.v.c.v.c.c.g.v.l.Y V.+X#X#X#X#X#X#X#X#X#X#X#X#X#X#X#X#X#X#X#X#X#X#X#X#X#X#X#X@X+X+X@Xe.} 4.u...*.3.3.5.*.&.t.N.X.X.>.%.&.*.*.*...t.O.t.t.E v.d.r...t.%.4.4.t.u.5.*.=.7.7.7.7.3.b.7X#X#X#X#X#X#X#X#X#X#X#X#X#X#X#X#X. A { E E 4.r.3.*.E t.5.E g.mX@X#X#X#X#X#X#X#X#X#X#X#X#X#X#X#X#X#X#X#X#X#X#X#X#X#X#X#X#X#X#X#X#X#X#X#X#X#X#X#X#X#X#X#X#X#X#X#X#X#X#X#X#X#X#X#X#X#X#X#X#X#X#X#X#X#X#X#X#X#X#X#X#X#X#X#X#X#X#X#X#X#X#X#X#X#X#X#X#X#X#X#X#X#X#X#X#X#X#X#X#X#X#X#X#X#X#X#X#X#X#X#X#X#X#X#X#X#X#X#X#X#X#X#X#X#X#X#X#X#X#X#X#X#X#X#X#X#X#X#X#X#X#X#X#X#X#X#X#X#X#X#X#X#X#X#X#X#X#X#X#X#X#X#X#X#X#X#X#X#X#X#X#X#X#X#X#X#X#X#X#X#X#X#X#X#X#X#X#X#X#X#X#X#X#X#X#X#X#X#X#X#X#X#X#X#X#X#X#X#X#X#X#X#X#X#X#X#X#X#X#X#X#X#X#X#X#X#X#X#X#X",
"#X#X#X#X#X#X_.#X_.#XmX_.#X_.mX#XmX_.SX#X_.mX_.SX_.SXmXSXSX#XSX#X_.SX_.#XSXSXSXSXSXSX_.SXSXSXSXSX$X$X$XSXSXSXSXSX$XSXSXSXSX$X$XDXSX$XDXSX#X#X#X#X#X#X#X#X#X#X#X#X#X#X#X#X#X#X#X#X#X#X#X#X#X#X#X#X#X#X#X#X#X#X#X#X#X#X#X#X#X#X#X#X#X#X#X#X#X#X#X#X#X#X#X#X#X#X#X#X#X#X#X#X#X#X#X#X#X#X#X#X#X#X#X#X#X#X#X#X#X#X#X#X#X#X#X#X#X#X#X#X#X#X#X#X#X#X#X#X#X@XCXrXfXgXuXuXgXy w.I.k ;X. . Y.l.v.v.l.c.c.n.b.n.n.c.c.c.k.j.z.k.j.X.f.T.V.S.n.c.c.n.b.T.g.T.v.j.d.g.g.c.f.g.J.z.T.n.T.Y.C.Y.C.C.V.b.n.n.v.v.n.v.d.v.c.c.c.c.c.v.l.v.c.v.d.d.v.mX@X#X#X#X#X#X#X#X#X#X#X#X#X#X#X#X#X#X#X#X#X#X#X#X#X#X#X#X#X#X+X. V.} 4.E ..5.*.&.&.*.u.1.h.1.$.Y T *.*.*.&...E E 5.....4.R E O.4.4.4.5.3.3.*.&.+.3.3.| | ;.+X#X#X#X#X#X#X#X#X#X#X#X#X#X#X#X#X. Y.} E E R 2.t.3.5.t...4.n.BXAX#X#X#X#X#X#X#X#X#X#X#X#X#X#X#X#X#X#X#X#X#X#X#X#X#X#X#X#X#X#X#X#X#X#X#X#X#X#X#X#X#X#X#X#X#X#X#X#X#X#X#X#X#X#X#X#X#X#X#X#X#X#X#X#X#X#X#X#X#X#X#X#X#X#X#X#X#X#X#X#X#X#X#X#X#X#X#X#X#X#X#X#X#X#X#X#X#X#X#X#X#X#X#X#X#X#X#X#X#X#X#X#X#X#X#X#X#X#X#X#X#X#X#X#X#X#X#X#X#X#X#X#X#X#X#X#X#X#X#X#X#X#X#X#X#X#X#X#X#X#X#X#X#X#X#X#X#X#X#X#X#X#X#X#X#X#X#X#X#X#X#X#X#X#X#X#X#X#X#X#X#X#X#X#X#X#X#X#X#X#X#X#X#X#X#X#X#X#X#X#X#X#X#X#X#X#X#X#X#X#X#X#X#X#X#X#X#X#X#X#X#X#X#X#X#X#X#X#X#X#X",
"#X#X#X#X#X#X#XmX#X_.#X#X#XmX_.SX#XmX_.SXmX#X_.SX#XSX_.SXSXSXSXSXSXmXSXSX_.#X_.SXSX$XSX$XSXSX$XSXSX$XSXSX$X$X$XSXSX$XSXSXSXSXSXSXSXSX`.$XSX8 SX_.mX#X#X#X#X#X#X#X#X#X#X#X#X#X#X#X#X#X#X#X#X#X#X#X#X#X#X#X#X#X#X#X#X#X#X#X#X#X#X#X#X#X#X#X#X#X#X#X#X#X#X#X#X#X#X#X#X#X#X#X#X#X#X#X#X#X#X#X#X#X#X#X#X#X#X#X#X#X#X#X#X#X#X#X#X#X#X#X#X#X#X#X#X#X#X#X#X#X_ iXfXhXgXzXuXfXsXqX0XwX$ . Y.l.v.v.v.c.m.w.b.b.n.n.c.w.b.k.x.k.d.d.v.I.T.V.n.g.n.n.b.w.T.g.g.f.v.b.g.c.v.g.l.k.v.T.g.B.S.Y.Y.T.n.n.b.n.c.g.c.v.v.v.q.c.c.g.c.v.v.f.c.c.l.l.d.Q.+X#X#X#X#X#X#X#X#X#X#X#X#X#X#X#X#X#X#X#X#X#X#X#X#X#X#X#X#X#X#X@X. A :.u...5...u.5.t.r.%.X.$.1.d.&.&.*.*.&.&.=.u.%.R 1.2.E t.%.4.4.2.%.t.5.5.:.| 9.s.s.L.@XAX#X#X#X#X#X#X#X#X#X#X#X#X#X#X#XAX+Xw.} E E E 2.4.3.t.U ..O.w.+X#X#X#X#X#X#X#X#X#X#X#X#X#X#X#X#X#X#X#X#X#X#X#X#X#X#X#X#X#X#X#X#X#X#X#X#X#X#X#X#X#X#X#X#X#X#X#X#X#X#X#X#X#X#X#X#X#X#X#X#X#X#X#X#X#X#X#X#X#X#X#X#X#X#X#X#X#X#X#X#X#X#X#X#X#X#X#X#X#X#X#X#X#X#X#X#X#X#X#X#X#X#X#X#X#X#X#X#X#X#X#X#X#X#X#X#X#X#X#X#X#X#X#X#X#X#X#X#X#X#X#X#X#X#X#X#X#X#X#X#X#X#X#X#X#X#X#X#X#X#X#X#X#X#X#X#X#X#X#X#X#X#X#X#X#X#X#X#X#X#X#X#X#X#X#X#X#X#X#X#X#X#X#X#X#X#X#X#X#X#X#X#X#X#X#X#X#X#X#X#X#X#X#X#X#X#X#X#X#X#X#X#X#X#X#X#X#X#X#X#X#X#X#X#X#X#X#X#X#X#X#X",
"#X#X#X#X#X#X#X#XSX#X#XSX#X_.mX#X#X_.mX#X_.SXSX#XSXSX_.mXSXSXSX$XSX$XSXSX#XSXSXSX_.SXSXSXSX$XSXSXSXSXSX$XSX$XSX`.DX] $XSX$X`.SX$X8 $XSXSX$XDXDXSX8 `.SX% #XAX#X#X#X#X#X#X#X#X#X#X#X#X#X#X#X#X#X#X#X#X#X#X#X#X#X#X#X#X#X#X#X#X#X#X#X#X#X#X#X#X#X#X#X#X#X#X#X#X#X#X#X#X#X#X#X#X#X#X#X#X#X#X#X#X#X#X#X#X#X#X#X#X#X#X#X#X#X#X#X#X#X#X#X#X#X#X#X#X#X#X#X#X_ yXfXhXhXfXzXxXfXuX0X0XrX. P v.T v.c.b.b.b.b.b.b.c.g.V.T.l.z.v.n.v.d.n.B.V.b.v.c.b.I.I.n.n.T.T.g.c.c.v.c.c.z.k.k.g.T.v.T.C.n.v.c.b.b.n.b.n.c.n.n.v.c.g.c.g.v.v.c.v.c.n.v.v.Y A.CX% #X#X#X#X#X#X#X#X#X#X#X#X#X#X#X#X#X#X#X#X#X#X#X#X#X#X#X#X#XmX@X. I.:.5.t.u.t.O.r.%.%.t.1.h.E 5.*.&.*.&.*.&.5.1.1.2.2.%.R R r.%.1.2.r.I 4.n.R.VXBX+XCX#X_.#X#X#X#X#X#X#X#X#X#X#X#X#X#X#X#X+Xb.} ....E R R 5.5.u.5.O.w.7XAX#X#X#X#X#X#X#X#X#X#X#X#X#X#X#X#X#X#X#X#X#X#X#X#X#X#X#X#X#X#X#X#X#X#X#X#X#X#X#X#X#X#X#X#X#X#X#X#X#X#X#X#X#X#X#X#X#X#X#X#X#X#X#X#X#X#X#X#X#X#X#X#X#X#X#X#X#X#X#X#X#X#X#X#X#X#X#X#X#X#X#X#X#X#X#X#X#X#X#X#X#X#X#X#X#X#X#X#X#X#X#X#X#X#X#X#X#X#X#X#X#X#X#X#X#X#X#X#X#X#X#X#X#X#X#X#X#X#X#X#X#X#X#X#X#X#X#X#X#X#X#X#X#X#X#X#X#X#X#X#X#X#X#X#X#X#X#X#X#X#X#X#X#X#X#X#X#X#X#X#X#X#X#X#X#X#X#X#X#X#X#X#X#X#X#X#X#X#X#X#X#X#X#X#X#X#X#X#X#X#X#X#X#X#X#X#X#X#X#X#X#X#X#X#X#X#X#X#X#X#X",
"#X#X#X#X#X#X_.% #X#XSX#X#XmX_.mX_.mX_.SXSXmX_.SX_.#XSX_.mX_.SXSXmXSX$XSX$X$XSXSX_.mXSX_._.SXSX$XSX$XSXSXSXSXSXSX$X$XDX`.DX] $X8 $XSXSX$X] SX$X$X`.DXDX`.DXSX#XSX#XAX#X#X#X#X#X#X#X#X#X#X#X#X#X#X#X#X#X#X#X#X#X#X#X#X#X#X#X#X#X#X#X#X#X#X#X#X#X#X#X#X#X#X#X#X#X#X#X#X#X#X#X#X#X#X#X#X#X#X#X#X#X#X#X#X#X#X#X#X#X#X#X#X#X#X#X#X#X#X#X#X#X#X#X#X#X#X#X#XAXAXsXhXtXqXfXuXxXfXuX0XqXCX! v.c.v.v.b.n.b.b.b.b.c.m.S.w.c.c.v.v.c.f.g.Y.Y.S.S.g.v.b.n.n.I.I.T.I.J.l.f.v.J.k.k.j.z.I.b.n.T.n.n.n.n.b.w.w.w.m.I.v.f.v.q.n.n.n.c.v.v.c.n.g.v.Y ;.+X#X#X#X#X#X#X#X#X#X#X#X#X#X#X#X#X#X#X#X#X#X#X#X#X#X#X#X#X#X#X#X_.BXBXd.{ :.} } ..S d.r.r.2.1...5...&.&.&.&.&.3.2.2.2.%.%.r.4.r.4.r.1.{ %.( . CX@X#X#X#X#X#X#X#X#X#X#X#X% #X#X#X#X#X#X#X#XVX7Xg.O...5...E %.t.&.5.5.U n.@XVX#X#X#X#X#X#X#X#X#X#X#X#X#X#X#X#X#X#X#X#X#X#X#X#X#X#X#X#X#X#X#X#X#X#X#X#X#X#X#X#X#X#X#X#X#X#X#X#X#X#X#X#X#X#X#X#X#X#X#X#X#X#X#X#X#X#X#X#X#X#X#X#X#X#X#X#X#X#X#X#X#X#X#X#X#X#X#X#X#X#X#X#X#X#X#X#X#X#X#X#X#X#X#X#X#X#X#X#X#X#X#X#X#X#X#X#X#X#X#X#X#X#X#X#X#X#X#X#X#X#X#X#X#X#X#X#X#X#X#X#X#X#X#X#X#X#X#X#X#X#X#X#X#X#X#X#X#X#X#X#X#X#X#X#X#X#X#X#X#X#X#X#X#X#X#X#X#X#X#X#X#X#X#X#X#X#X#X#X#X#X#X#X#X#X#X#X#X#X#X#X#X#X#X#X#X#X#X#X#X#X#X#X#X#X#X#X#X#X#X#X#X#X#X#X#X#X#X#X#X#X",
"#X#X#X#X#X#X#X#X_.mX#X_.mX#X#X_.mX_.#X#XSX#XSX#XSXSXSXSXSXSX_._._.SXSX#XSX$XSX$X$XSXSXmXSXSXSX_.SXSXSXSX$XSX$XSXSXSXSXSX$XDX`.DX`.DX] $X$XSXSXDXSXSXDX8 $X$XSXDXDXSX_.mXAX#X#X#X#X#X#X#X#X#X#X#X#X#X#X#X#X#X#X#X#X#X#X#X#X#X#X#X#X#X#X#X#X#X#X#X#X#X#X#X#X#X#X#X#X#X#X#X#X#X#X#X#X#X#X#X#X#X#X#X#X#X#X#X#X#X#X#X#X#X#X#X#X#X#X#X#X#X#X#X#X#X#X#X#X#X#X_ dXsXjXqX4XfXxXxXuX0X0XiXZ q.q.c.v.n.b.n.n.b.n.c.V.S.n.c.c.v.v.v.v.l.A.+X@X7X`.I.l.l.g.b.T.T.T.f.l.l.f.v.v.z.x.k.n.T.g.n.n.n.n.b.T.m.B.B.n.J.r e.c.c.n.n.n.c.c.c.v.c.n.n.d.A +X#X#X#X#X#X#X#X#X#X#X#X#X#X#X#X#X#X#X#X#X#X#X#X#X#X#X#X#X#X#X#X#X_.CX(.v.l.b.Y.@XDXr.r.%.2.M.*.5.5.*.&.&.&.&.*.r.2.%.r.r.2.r.4.R R 2.%.OX. VX#X#X#X#X#X#X#X#X#X#X#X#X#X#X#X#X#X#X#X#X#X#X+X/ t.E 5.....t.r.3.&.5.E O.m.+X#X#X#X#X#X#X#X#X#X#X#X#X#X#X#X#X#X#X#X#X#X#X#X#X#X#X#X#X#X#X#X#X#X#X#X#X#X#X#X#X#X#X#X#X#X#X#X#X#X#X#X#X#X#X#X#X#X#X#X#X#X#X#X#X#X#X#X#X#X#X#X#X#X#X#X#X#X#X#X#X#X#X#X#X#X#X#X#X#X#X#X#X#X#X#X#X#X#X#X#X#X#X#X#X#X#X#X#X#X#X#X#X#X#X#X#X#X#X#X#X#X#X#X#X#X#X#X#X#X#X#X#X#X#X#X#X#X#X#X#X#X#X#X#X#X#X#X#X#X#X#X#X#X#X#X#X#X#X#X#X#X#X#X#X#X#X#X#X#X#X#X#X#X#X#X#X#X#X#X#X#X#X#X#X#X#X#X#X#X#X#X#X#X#X#X#X#X#X#X#X#X#X#X#X#X#X#X#X#X#X#X#X#X#X#X#X#X#X#X#X#X#X#X#X#X#X#X#X#X#X#X",
"#X#X#X#X#X#X#X% #X_.mX#X#X_.mX#X#XmX_.mX#X#XSX_.mXSX$XSXSX$XSXmXSXSXSXmXSXSXSXSX`.$XSX`.DXSXSXmX_.SX_.SXSXSXSXSX$XSXSXSXSXSXSX$XSXo DXDXDXDX$XDX$XSX`.$XSXDXDX`.DXDX`.DXDX#XSX_.#XAX#X#X#X#X#X#X#X#X#X#X#X#X#X#X#X#X#X#X#X#X#X#X#X#X#X#X#X#X#X#X#X#X#X#X#X#X#X#X#X#X#X#X#X#X#X#X#X#X#X#X#X#X#X#X#X#X#X#X#X#X#X#X#X#X#X#X#X#X#X#X#X#X#X#X#X#X#X#X#X#X#X_ aXuXtXhX0X4XsXsXuXuX0X4XaX-.T n.v.n.b.b.n.m.n.b.B.I.v.l.l.l.v.v.d.d.d.e.`.. . 7XA.I.c.n.n.T.n.f.f.l.J.n.n.k.x.k.c.I.n.n.b.b.w.m.T.B.g.l.d.l.e.. e.l.n.b.n.c.c.g.c.q.n.n.c.e.@XAX#X#X#X#X#X#X#X#X#X#X#X#X#X#X#X#X#X#X#X#X#X#X#X#X#X#X#X#X#X#X#X#XmX+X+X@XCX. . ) { r.X.2.l.*.U 3.*.&.&.&.&.7.E R R R %.%.r.r.4.4.} z.DX. . 7X_.% #X#X#X#X#X#X#X#X#X#X#X#X#X#X#X#X#X#X#XCXR.O.5...*.*.5.4.5.&.5.5.U / +X#X#X#X#X#X#X#X#X#X#X#X#X#X#X#X#X#X#X#X#X#X#X#X#X#X#X#X#X#X#X#X#X#X#X#X#X#X#X#X#X#X#X#X#X#X#X#X#X#X#X#X#X#X#X#X#X#X#X#X#X#X#X#X#X#X#X#X#X#X#X#X#X#X#X#X#X#X#X#X#X#X#X#X#X#X#X#X#X#X#X#X#X#X#X#X#X#X#X#X#X#X#X#X#X#X#X#X#X#X#X#X#X#X#X#X#X#X#X#X#X#X#X#X#X#X#X#X#X#X#X#X#X#X#X#X#X#X#X#X#X#X#X#X#X#X#X#X#X#X#X#X#X#X#X#X#X#X#X#X#X#X#X#X#X#X#X#X#X#X#X#X#X#X#X#X#X#X#X#X#X#X#X#X#X#X#X#X#X#X#X#X#X#X#X#X#X#X#X#X#X#X#X#X#X#X#X#X#X#X#X#X#X#X#X#X#X#X#X#X#X#X#X#X#X#X#X#X#X#X#X#X",
"#X#X#X#X#X#X_.#XSX#X#X#XSX#X#X_.mX_.mX#X#XSX_.mX_._.SX_.#X_.SX$XSXSX$XSX$XSXmXSX$XSX$X$X$X$X$X`.SXmXSXSX$XSXSX$XSX$X$X$X$XSX$XSXSX$X] DXDX`.DXDX8 `.DX`.SXo DXSX] $XDXDXDXDXDXDXDXSXSX#XAX#XAX#X#X#X#X#X#X#X#X#X#X#X#X#X#X#X#X#X#X#X#X#X#X#X#X#X#X#X#X#X#X#X#X#X#X#X#X#X#X#X#X#X#X#X#X#X#X#X#X#X#X#X#X#X#X#X#X#X#X#X#X#X#X#X#X#X#X#X#X#X#X#X#X#X#X#X#XD _.sXfXdXqXwX3X4X3XwXqX0XuX<X0.c.n.w.n.b.b.m.b.b.B.v.z.l.l.l.l.l.l.l.d.2.k.A.+X. +X@XV.I.V.g.f.v.l.d.J.v.c.d.j.j.J.b.T.I.n.m.V.m.S.b.z.z.d.v.f.GX] v.q.b.n.n.n.n.n.n.n.c.v.V.7XAX#X#X#X#X#X#X#X#X#X#X#X#X#X#X#X#X#X#X#X#X#X#X#X#X#X#X#X#X#X#X#X#X_.#XVXVX#X#X@X#Xk.#.%.4.l.3...*.*.&.&.&.&.=...r.%.R R 4.2.r.4.4.4.r.O.V.Z.SXCX#XSX#X#X#X#X#X#X#X#X#X#X#X#X#X#X#X#X#X@X. P O...*.*.*.*.U ..&.5.5...FX+X#X% #X#X#X#X#X#X#X#X#X#X#X#X#X#X#X#X#X#X#X#X#X#X#X#X#X#X#X#X#X#X#X#X#X#X#X#X#X#X#X#X#X#X#X#X#X#X#X#X#X#X#X#X#X#X#X#X#X#X#X#X#X#X#X#X#X#X#X#X#X#X#X#X#X#X#X#X#X#X#X#X#X#X#X#X#X#X#X#X#X#X#X#X#X#X#X#X#X#X#X#X#X#X#X#X#X#X#X#X#X#X#X#X#X#X#X#X#X#X#X#X#X#X#X#X#X#X#X#X#X#X#X#X#X#X#X#X#X#X#X#X#X#X#X#X#X#X#X#X#X#X#X#X#X#X#X#X#X#X#X#X#X#X#X#X#X#X#X#X#X#X#X#X#X#X#X#X#X#X#X#X#X#X#X#X#X#X#X#X#X#X#X#X#X#X#X#X#X#X#X#X#X#X#X#X#X#X#X#X#X#X#X#X#X#X#X#X#X#X#X#X#X#X#X#X#X#X#X#X#X",
"#X#X#X#X#X#X#X#X#X#XSX#X#X#XSX#X_.#X_.mX_.SX#X#XSXmX_.mXSXSXSXSX$XSXSXSXSXSXSX_.SXSXSX$XSXSXDXDX$X$XDX$XSXSXSXSXSXSXSXSXSX`.`.$XSXSXDXo SX$XDX`.$XDX`.DXDXDX] o SXSXDX$XSXDXDX`.` DXDX` $XSXSX#XAX#X#X#X#X#X#X#X#X#X#X#X#X#X#X#X#X#X#X#X#X#X#X#X#X#X#X#X#X#X#X#X#X#X#X#X#X#X#X#X#X#X#X#X#X#X#X#X#X#X#X#X#X#X#X#X#X#X#X#X#X#X#X#X#X#X#X#X#X#X#X#X#X#X#X#X_ jXuXsXsXrXeXqXqX2X3XuX0X0Xy p.w.m.b.b.b.w.b.m.V.b.l.v.l.z.z.d.z.d.l.d.Y %.g.`.+X@XVX$X@XA.k.u.k.z.f.J.v.c.k.#.j.v.b.b.b.T.T.T.Y.c.z.d.d.v.z.d.A n.n.n.b.n.q.c.q.n.n.T v.(.BX#X#X#X#X#X#X#X#X#X#X#X#X#X#X#X#X#X#X#X#X#X#X#X#X#X#X#X#X#X#X#X#X#X#X#X#X#X#X#X7X] 7.2.X.R ..3.*.&.*.&.7.&.&.=...>.2.2.%.R 4.%.4.4.u.R r.} { u./ . #X#X#X#X#X#X#X#X#X#X#X#X#X#X#XSXVXBXSX_.b.I 3.*...E *...*.&.*.U =.$X@X#X#X#X#X#X#X#X#X#X#X#X#X#X#X#X#X#X#X#X#X#X#X#X#X#X#X#X#X#X#X#X#X#X#X#X#X#X#X#X#X#X#X#X#X#X#X#X#X#X#X#X#X#X#X#X#X#X#X#X#X#X#X#X#X#X#X#X#X#X#X#X#X#X#X#X#X#X#X#X#X#X#X#X#X#X#X#X#X#X#X#X#X#X#X#X#X#X#X#X#X#X#X#X#X#X#X#X#X#X#X#X#X#X#X#X#X#X#X#X#X#X#X#X#X#X#X#X#X#X#X#X#X#X#X#X#X#X#X#X#X#X#X#X#X#X#X#X#X#X#X#X#X#X#X#X#X#X#X#X#X#X#X#X#X#X#X#X#X#X#X#X#X#X#X#X#X#X#X#X#X#X#X#X#X#X#X#X#X#X#X#X#X#X#X#X#X#X#X#X#X#X#X#X#X#X#X#X#X#X#X#X#X#X#X#X#X#X#X#X#X#X#X#X#X#X#X#X#X#X#X#X",
"#X#X#X#X#X#X#X#X_.% #X_.mX#X#XmX#XmX#X#X#XSXSX_.SX_.mXSXSXSX_._.SX$XSXSX$X$X$XSX$XSXSXSX$XSX$XSXSX$XDX`.$XDX`.SXSXSX$XSXSXSX$XSX`.SX`.$X] DX$XSXSXDX$XDXDXDXDXDXDXDXDX] $XDXDX`.DXDXDX@ 5 DXDX@ DXSX_.#XAX#XAX#X#X#X#X#X#X#X#X#X#X#X#X#X#X#X#X#X#X#X#X#X#X#X#X#X#X#X#X#X#X#X#X#X#X#X#X#X#X#X#X#X#X#X#X#X#X#X#X#X#X#X#X#X#X#X#X#X#X#X#X#X#X#X#X#X#X#X#X#X).D rXfXsXsXsX3XqXqXqX4XuX0XqXm.G G b.b.w.B.V.B.w.m.m.n.n.c.z.Y k.M.z.d.l.d.X.d.AXCX#X@X@X+X!.e.;.e.z.l.f.g.v.k.h.j.J.g.I.w.w.T.S.g.z.z.d.l.l.l.v.b.n.b.b.b.n.n.c.c.l.l.Z.+X#X#X#X#X#X#X#X#X#X#X#X#X#X#X#X#X#X#X#X#X#X#X#X#X#X#X#X#X#X#X#X#X#X#X#X#X#X#X#X#X+XP @.8...H 5.*.&.*.5.&.&.7.&.7.&.2.2.2.2.4.E E R u.u.U R E ..:.r.!.. @XSX#X#X#X#X#X#X#X#X#X#X#XSX@XBXZ.0.0.*.U *.&.*.*.&.*.*.*.3.| A CX#X#X#X#X#X#X#X#X#X#X#X#X#X#X#X#X#X#X#X#X#X#X#X#X#X#X#X#X#X#X#X#X#X#X#X#X#X#X#X#X#X#X#X#X#X#X#X#X#X#X#X#X#X#X#X#X#X#X#X#X#X#X#X#X#X#X#X#X#X#X#X#X#X#X#X#X#X#X#X#X#X#X#X#X#X#X#X#X#X#X#X#X#X#X#X#X#X#X#X#X#X#X#X#X#X#X#X#X#X#X#X#X#X#X#X#X#X#X#X#X#X#X#X#X#X#X#X#X#X#X#X#X#X#X#X#X#X#X#X#X#X#X#X#X#X#X#X#X#X#X#X#X#X#X#X#X#X#X#X#X#X#X#X#X#X#X#X#X#X#X#X#X#X#X#X#X#X#X#X#X#X#X#X#X#X#X#X#X#X#X#X#X#X#X#X#X#X#X#X#X#X#X#X#X#X#X#X#X#X#X#X#X#X#X#X#X#X#X#X#X#X#X#X#X#X#X#X#X#X#X#X#X",
"#X#X#X#X#X#X_.mX#X_.mX#X#X_.#X_.#X_.mX_.mX_.#XSX#XSX_.mX_.#XmXSXSXSX_.SXSXSX$XSX$X$X$XSXSXSX$X$X_.SX$XSX$XDXDX$XDXDX$XSXSXSXSXSXSXSXo ] o `.DX8 $XSXDXDX`.DXDXDXDXDXDXDXDXDXDX`.SXDX` DX] DXDX` DXDXDX@ SX#XSX#XAX#X#X#X#X#X#X#X#X#X#X#X#X#X#X#X#X#X#X#X#X#X#X#X#X#X#X#X#X#X#X#X#X#X#X#X#X#X#X#X#X#X#X#X#X#X#X#X#X#X#X#X#X#X#X#X#X#X#X#X#X#X#X#X#X#X#X#X#X_ AXsXqXsXsXsXqXtXjXfXeXsX4XqX<X<X-.-.V.V.B.m.w.m.m.w.b.m.n.l.v.z.M.k.d.d.l.%.g.@X+X_.#X#X+X+X+X( M.J.f.v.v.v.j.x.d.v.c.T.T.w.m.b.z.k.z.g.b.n.b.b.n.b.n.b.b.b.n.n.S.' 7XAXmX#X#X#X#X#X#X#X#X#X#X#X#X#X#X#X#X#X#X#X#X#X#X#X#X#X#X#X#X#X#X#X#X#X#X#X#X#X#X#X7X` T i.9.*...*.&.*.3.*.=.&.&.=.&.%.2.r.r.2.4.u.4.r.%.%.4.4.E U O.l.S SX@XmX#X#X#X#X#X#X#X#XSX#X+X+X;.=.T 9.*.5.*.&.7.&.&.&.*.5.*.U Y.+X#X#X#X#X#X#X#X#X#X#X#X#X#X#X#X#X#X#X#X#X#X#X#X#X#X#X#X#X#X#X#X#X#X#X#X#X#X#X#X#X#X#X#X#X#X#X#X#X#X#X#X#X#X#X#X#X#X#X#X#X#X#X#X#X#X#X#X#X#X#X#X#X#X#X#X#X#X#X#X#X#X#X#X#X#X#X#X#X#X#X#X#X#X#X#X#X#X#X#X#X#X#X#X#X#X#X#X#X#X#X#X#X#X#X#X#X#X#X#X#X#X#X#X#X#X#X#X#X#X#X#X#X#X#X#X#X#X#X#X#X#X#X#X#X#X#X#X#X#X#X#X#X#X#X#X#X#X#X#X#X#X#X#X#X#X#X#X#X#X#X#X#X#X#X#X#X#X#X#X#X#X#X#X#X#X#X#X#X#X#X#X#X#X#X#X#X#X#X#X#X#X#X#X#X#X#X#X#X#X#X#X#X#X#X#X#X#X#X#X#X#X#X#X#X#X#X#X#X#X#X#X#X",
"#X#X#X#X#XmX#X#XSX#X#X% _.mX#XmX#XmX_.#X_.#XSX_.#XSX#XSX_.SXSXSX#XSXSXSXSXSXSXSXSXSXSX$X$X$XSX$XSX$XSXSX$XDX$X$X`.DXDX`.DXDXSXSX_.SX`.SXSX$XSX$X`.8 `.] o `.DX`.`.DXDXDX` DXDXDX8 DXDX$XSXDXDX`.DXDXDX` 5 $XDX5 `.mX#X#XAX#X#X#X#X#X#X#X#X#X#X#X#X#X#X#X#X#X#X#X#X#X#X#X#X#X#X#X#X#X#X#X#X#X#X#X#X#X#X#X#X#X#X#X#X#X#X#X#X#X#X#X#X#X#X#X#X#X#X#X#X#X#X#X#X#XD yXrXfXxXdXgXrXsXgXO dX4X0X0XuXgXS.o.-.m.b.m.w.b.m.w.b.b.b.b.b.l.%.k.z.l.d.%.f.AX@X#X#X#X@XCXA x.z.l.J.v.v.k.k.d.v.v.g.b.b.m.b.z.z.c.w.n.n.n.n.b.n.b.b.b.w.b.B.BX. #X#X#X% #X#X#X#X#X#X#X#X#X#X#X#X#X#X#X#X#X#X#X#X#X#X#X#X#X#X#X#X#X#X#X#X#X#X#X#X#X#XVX7X0.+.i.9.*.5.*.*...*.7.7.&.&.&.%.r.4.4.4.r.2.r.R t.4.4.O.4.t.*.*.%.e.CX7XAXSX#X#X#X#X#X#X#X+XDXS.T i.9.=.3.3.&.&.&.&.&.&.*.*.*.U w.7XAX#X#X#X#X#X#X#X#X#X#X#X#X#X#X#X#X#X#X#X#X#X#X#X#X#X#X#X#X#X#X#X#X#X#X#X#X#X#X#X#X#X#X#X#X#X#X#X#X#X#X#X#X#X#X#X#X#X#X#X#X#X#X#X#X#X#X#X#X#X#X#X#X#X#X#X#X#X#X#X#X#X#X#X#X#X#X#X#X#X#X#X#X#X#X#X#X#X#X#X#X#X#X#X#X#X#X#X#X#X#X#X#X#X#X#X#X#X#X#X#X#X#X#X#X#X#X#X#X#X#X#X#X#X#X#X#X#X#X#X#X#X#X#X#X#X#X#X#X#X#X#X#X#X#X#X#X#X#X#X#X#X#X#X#X#X#X#X#X#X#X#X#X#X#X#X#X#X#X#X#X#X#X#X#X#X#X#X#X#X#X#X#X#X#X#X#X#X#X#X#X#X#X#X#X#X#X#X#X#X#X#X#X#X#X#X#X#X#X#X#X#X#X#X#X#X#X#X#X#X#X#X",
"#X#X#X#X_.#X% _.#X#XSX#X#X#X_.#X_.#X#XmX#XmX#XSX_.SX_.SXmXSX_.SXSXSXSX#XmXSX$XSXSXSXSX$XDX`.$XDX$XSX$XSX$X$X$XSX$X`.$XDXDX1X$X`.@ DXSXSX$X$XSXSXSX$XDX$X] DXDXSXSXDXDXDX`.DXDXDX` (.@ DXDXDXDXDX8 DXDXDXDX` DXDXFX` DXDX$X#X#XAXAX#X#X#X#X#X#X#X#X#X#X#X#X#X#X#X#X#X#X#X#X#X#X#X#X#X#X#X#X#X#X#X#X#X#X#X#X#X#X#X#X#X#X#X#X#X#X#X#X#X#X#X#X#X#X#X#X#X#X#X#XmX#X_ _ hXzXsXdXeXuXdXhXqXsXqXuX0XpXqXgXB.G G s.b.b.b.b.b.n.n.n.b.m.c.j.M.z.d.z.2.A . #X#X#X@XP b.z.j.d.d.f.f.k.z.d.J.c.g.b.n.I.f.z.c.T.b.n.b.n.n.b.e.b.n.b.b.w.b.S.#X@X#X#X#X#X#X#X#X#X#X#X#X#X#X#X#X#X#X#X#X#X#X#X#X#X#X#X#X#X#X#X#X#X#X#X#X#X#X#X#X#X#X_.+X' =.+.=.3...&.&.*.*.7.&.&.7.=.E R R R E X.2.R 5.U *.E 5.O.I *.l...v.#X#X7X@XVXBX+XVX_.#X+X' q.=.q.T 9.=.3.*.&.7.&.7.&.7.=.U | I b.+X#X#X#X#X#X#X#X#X#X#X#X#X#X#X#X#X#X#X#X#X#X#X#X#X#X#X#X#X#X#X#X#X#X#X#X#X#X#X#X#X#X#X#X#X#X#X#X#X#X#X#X#X#X#X#X#X#X#X#X#X#X#X#X#X#X#X#X#X#X#X#X#X#X#X#X#X#X#X#X#X#X#X#X#X#X#X#X#X#X#X#X#X#X#X#X#X#X#X#X#X#X#X#X#X#X#X#X#X#X#X#X#X#X#X#X#X#X#X#X#X#X#X#X#X#X#X#X#X#X#X#X#X#X#X#X#X#X#X#X#X#X#X#X#X#X#X#X#X#X#X#X#X#X#X#X#X#X#X#X#X#X#X#X#X#X#X#X#X#X#X#X#X#X#X#X#X#X#X#X#X#X#X#X#X#X#X#X#X#X#X#X#X#X#X#X#X#X#X#X#X#X#X#X#X#X#X#X#X#X#X#X#X#X#X#X#X#X#X#X#X#X#X#X#X#X#X#X#X#X#X#X#X",
"#X#X#X#X#X#X_.#XSX#X#XSX#XmX#XSX#X_.#X_.mX_.SX#XmX_.mX_._.mXSX_.SX_.SXSXSXSX_.SXSX$XSXSXSX`.SXSXSXDXDX`.SX$X`.$XDX$XSX$XDX`.DXDX(.DX`.DXDX] SX#XSX`.SXSXSX$X$XDXDXDXDX$XSXDX$XDXDXDX` ` DXDXDXDXDX`.DXSXSXDXDXDXDXDXDX5 ' DXDX` DXSX#X#XAX#X#X#X#X#X#X#X#X#X#X#X#X#X#X#X#X#X#X#X#X#X#X#X#X#X#X#X#X#X#X#X#X#X#X#X#X#X#X#X#X#X#X#X#X#X#X#X#X#X#X#X#X#X#X#X#X#X#X#X_ yXxXsXsXdXrXqXqXwXqXwXsXfXuX4X3XwXdX<Xm.G n.n.n.b.n.n.b.n.b.B.v.j.z.z.d.z.l.`.+XmX@XSXV.b.g.G.k.l.f.J.k.z.d.l.v.g.c.f.l.z.z.v.w.b.b.b.n.n.b.e.w.b.b.b.m.w.T Z.BX#X#X#X#X#X#X#X#X#X#X#X#X#X#X#X#X#X#X#X#X#X#X#X#X#X#X#X#X#X#X#X#X#X#X#X#X#X#X#X% #X#X#XBXVXK.=.5.&.&.*.*.*.7.&.7.&.=.E 4.u...Y 2.O.} :.5.*.U 4.l.l.E ..E *.w.w.;.7XVX' P #XBXCX' q.=.q.q.9.9.T +.*.7.=.7.7.7.&.&.V.S.V.' @X#X#X#X#X#X#X#X#X#X#X#X#X#X#X#X#X#X#X#X#X#X#X#X#X#X#X#X#X#X#X#X#X#X#X#X#X#X#X#X#X#X#X#X#X#X#X#X#X#X#X#X#X#X#X#X#X#X#X#X#X#X#X#X#X#X#X#X#X#X#X#X#X#X#X#X#X#X#X#X#X#X#X#X#X#X#X#X#X#X#X#X#X#X#X#X#X#X#X#X#X#X#X#X#X#X#X#X#X#X#X#X#X#X#X#X#X#X#X#X#X#X#X#X#X#X#X#X#X#X#X#X#X#X#X#X#X#X#X#X#X#X#X#X#X#X#X#X#X#X#X#X#X#X#X#X#X#X#X#X#X#X#X#X#X#X#X#X#X#X#X#X#X#X#X#X#X#X#X#X#X#X#X#X#X#X#X#X#X#X#X#X#X#X#X#X#X#X#X#X#X#X#X#X#X#X#X#X#X#X#X#X#X#X#X#X#X#X#X#X#X#X#X#X#X#X#X#X#X#X#X#X#X",
"#X#X#X#X#X#XmX#X#X#X_.#X#X_.#X#XmX#XSXmX_.mX_.SX#X_.SX#XSX_.mXSX#XSXSX_.SXSXmXSXSXSXSXSX$XSXSXSXSX$XDXDXDX`.DXo SXDX] o `.o SXDXDX$XDX(.FXDX$XDXFXDX$XSX8 DXSXSX8 DX] DXDX8 DXSXDXDXDXDXDX5 FX` DX@ 5 DXDXDXDX8 DXDXDXDXDX5 5 5 FXFXDXDX$X#XAX#X#XAX#X#X#X#X#X#X#X#X#X#X#X#X#X#X#X#X#X#X#X#X#X#X#X#X#X#X#X#X#X#X#X#X#X#X#X#X#X#X#X#X#X#X#X#X#X#X#X#X#X#X#X#X#X#X#X_ hXfXeXwXwXwX3X3X3X4X0XqXwXqX3X3X2X3XfX<X0.b.n.n.q.n.n.b.b.b.m.c.z.d.d.d.%.g.@X@XVX_.S.g.n.c.j.G.l.f.z.z.d.d.v.c.f.v.v.v.d.l.b.b.w.m.b.b.g.g.b.b.w.w.b.m.n.S.BXVXSX#X#X#X#X#X#X#X#X#X#X#X#X#X#X#X#X#X#X#X#X#X#X#X#X#X#X#X#X#X#X#X#X#X#X#X#X#X#X#X#X#X#X@X. P U *.&.&.*.3.&.=.&.&.=.4.2.E ..E r.M.v.c.O.t.4.I c.5 *.t.U 5.&.c.=.m.w.=.3.b.#X` q.=.9.T T =.n.q.3.&.7.7.7.=.7.7.*.(.. +XBXSX#X#X#X#X#X#X#X#X#X#X#X#X#X#X#X#X#X#X#X#X#X#X#X#X#X#X#X#X#X#X#X#X#X#X#X#X#X#X#X#X#X#X#X#X#X#X#X#X#X#X#X#X#X#X#X#X#X#X#X#X#X#X#X#X#X#X#X#X#X#X#X#X#X#X#X#X#X#X#X#X#X#X#X#X#X#X#X#X#X#X#X#X#X#X#X#X#X#X#X#X#X#X#X#X#X#X#X#X#X#X#X#X#X#X#X#X#X#X#X#X#X#X#X#X#X#X#X#X#X#X#X#X#X#X#X#X#X#X#X#X#X#X#X#X#X#X#X#X#X#X#X#X#X#X#X#X#X#X#X#X#X#X#X#X#X#X#X#X#X#X#X#X#X#X#X#X#X#X#X#X#X#X#X#X#X#X#X#X#X#X#X#X#X#X#X#X#X#X#X#X#X#X#X#X#X#X#X#X#X#X#X#X#X#X#X#X#X#X#X#X#X#X#X#X#X#X#X#X#X#X#X#X",
"#X#X#XSX#X_.#XSX#X_.mX#X_.mX#XmX_.mX_._.SX_.mX#X#XSX#X_.SX#XSX_.mXSX_.mXSXSXSXSX$X_.SX$XSXSX$XSX$XSXSX$XDXo $X`.DXDXDX$XDX`.$XDX`.mX`.DXDX$XDXFXFX`.DXDXDXSXSX_.$XDXDX`.DXDXDXDXDXDXDXDXDXDXDXDXDX` (.5 5 FX5 DXDXDXDXDX8 DX(.DXDX` DX5 6 FXSXDXDXSX#XAX#XAX#X#X#X#X#X#X#X#X#X#X#X#X#X#X#X#X#X#X#X#X#X#X#X#X#X#X#X#X#X#X#X#X#X#X#X#X#X#X#X#X#X#X#X#X#X#X#X#X#X#X#X_ yXsXwXwX3X3X2X2X4X0X0XqXgX3X3X2X2X0XpXpX<X0.n.n.g.q.c.c.n.n.b.m.g.l.l.d.d.Y ( +X@X` S.g.g.v.x.k.z.l.d.k.d.l.f.c.c.v.v.c.v.d.v.b.b.n.c.c.c.n.n.n.w.b.b.m.b.n.Q.BX#X#X#X#X#X#X#X#X#X#X#X#X#X#X#X#X#X#X#X#X#X#X#X#X#X#X#X#X#X#X#X#X#X#X#X#X#X#X#X#X#X#X#X#X+X/ | *.&.&...*.7.&.&.&.T E 1.4.E :.e.AX. . l.} t.5...;.7.3.*.&.5.v.=.&.=.=.v...q.q.8.q.T q.8.T ` V.| 7.=.7.7.7.=.K 3.;.+X#X#X#X#X#X#X#X#X#X#X#X#X#X#X#X#X#X#X#X#X#X#X#X#X#X#X#X#X#X#X#X#X#X#X#X#X#X#X#X#X#X#X#X#X#X#X#X#X#X#X#X#X#X#X#X#X#X#X#X#X#X#X#X#X#X#X#X#X#X#X#X#X#X#X#X#X#X#X#X#X#X#X#X#X#X#X#X#X#X#X#X#X#X#X#X#X#X#X#X#X#X#X#X#X#X#X#X#X#X#X#X#X#X#X#X#X#X#X#X#X#X#X#X#X#X#X#X#X#X#X#X#X#X#X#X#X#X#X#X#X#X#X#X#X#X#X#X#X#X#X#X#X#X#X#X#X#X#X#X#X#X#X#X#X#X#X#X#X#X#X#X#X#X#X#X#X#X#X#X#X#X#X#X#X#X#X#X#X#X#X#X#X#X#X#X#X#X#X#X#X#X#X#X#X#X#X#X#X#X#X#X#X#X#X#X#X#X#X#X#X#X#X#X#X#X#X#X#X#X#X#X#X#X#X#X",
"#X#X#X#X#X#XmX#X#XmX#XSX#X#X_.SX_._.mX_.mX_.SX_.SXSX_.mXSX_.#XSX_.SX_.SX_.SXSXSXSXSXSXSXSXSXSX$XSXSX$XSX$XSXSXSX$XDX1XDXDXDXDX$XSX$XDX`.DX$XSXDXDXDXDXFX(.SXDXDX5 DX$XSX$XDX8 `.DXDXDXDXDXDX` DXSX$X@ 5 (.FXFXFX5 FXFX5 DX` 5 DXDXDX5 FX@ FX5 ` FX6 5 `.5 SXAXAX#XVX#X#X#X#X#X#X#X#X#X#X#X#X#X#X#X#X#X#X#X#X#X#X#X#X#X#X#X#X#X#X#X#X#X#X#X#X#X#X#X#X#X#X#X#X#X#X#X_ iXxXsXwX3X2X2X0XkXkXpXqXdX3X3X3X3XpXpXpXpXl 9.n.b.g.c.q.n.n.b.m.m.n.g.c.v.Y ;.+X7XP V.m.g.J.z.j.k.d.J.d.d.l.f.f.v.c.c.v.c.f.d.f.f.l.l.f.n.w.b.b.w.m.w.b.m.9.m.#X@X#X#X#X#X#X#X#X#X#X#X#X#X#X#X#X#X#X#X#X#X#X#X#X#X#X#X#X#X#X#X#X#X#X#X#X#X#X#X#X#X#X#X#XCXC.O.*.*.*.*.*.&.7.&.&.T &.R 4.E :.e.. CX. SX5.O.5.*.Y.&.3.7.&.3.3.*.q.T =.=.l.=.q.T T 8.=.=.P . B.| 7.&.K 8.8.8.8.3.B.BX#X#X#X#X#X#X#X#X#X#X#X#X#X#X#X#X#X#X#X#X#X#X#X#X#X#X#X#X#X#X#X#X#X#X#X#X#X#X#X#X#X#X#X#X#X#X#X#X#X#X#X#X#X#X#X#X#X#X#X#X#X#X#X#X#X#X#X#X#X#X#X#X#X#X#X#X#X#X#X#X#X#X#X#X#X#X#X#X#X#X#X#X#X#X#X#X#X#X#X#X#X#X#X#X#X#X#X#X#X#X#X#X#X#X#X#X#X#X#X#X#X#X#X#X#X#X#X#X#X#X#X#X#X#X#X#X#X#X#X#X#X#X#X#X#X#X#X#X#X#X#X#X#X#X#X#X#X#X#X#X#X#X#X#X#X#X#X#X#X#X#X#X#X#X#X#X#X#X#X#X#X#X#X#X#X#X#X#X#X#X#X#X#X#X#X#X#X#X#X#X#X#X#X#X#X#X#X#X#X#X#X#X#X#X#X#X#X#X#X#X#X#X#X#X#X#X#X#X#X#X#X#X#X#X#X",
"#X#X#X#X#X_.#X_.mX_.#X#XSX#XmX#XmX_._.mX_.mXSXSXSXmX_.SX#XmX#XSX#XSXmXSXSX_.SX_.$XSX$XSX$X$XSXSX$XSX$XSXSX$XSX$XDX$XDXDX`.DXDXDXDXDXSXDXDX`.$XDX$X$XDX@ DXDX@ GXFXDXSX`.DX$XSXSXSXDXDXDXDXDX5 DXSX] DX`.DXDX` FXFX5 FXFXFXFX` ` FXDXDX` ` DX` DX5 ' FX5 ' 6 (._.$X`.SX#XVX#X#X#X#X#X#X#X#X#X#X#X#X#X#X#X#X#X#X#X#X#X#X#X#X#X#X#X#X#X#X#X#X#X#X#X#X#X#X#X#X#X#XmX_ 1XxXsXqXqX4X4X0XpXpXpXkXuXeXeX3X4XqX0XkXpXpXnX0.n.w.b.g.g.c.c.n.b.m.b.b.n.g.z.) CX@X` B.S.I.f.c.G.j.d.v.f.d.l.f.l.v.n.c.v.v.d.z.d.d.v.v.v.g.w.b.n.b.b.m.w.w.w.n.W.+XmX#X#X#X#XAXAX#X#X#X#X#X#X#X#X#X#X#X#X#X#X#X#X#X#X#X#X#X#X#X#X#X#X#X#X#X#X#X#X#X#X#X#X+XV.| &.&.&.5.3.7.=.&.&.=.l.*.5...| v.BX. . . q.:.U ..' q.| &.&.&.*.5.*.=.T c.=.c.n.T T 7.b.' +X+Xs.| +.&.=.8.8.8.K +.s.VXVX#X#X#X#X#X#X#X#X#X#X#X#X#X#X#X#X#X#X#X#X#X#X#X#X#X#X#X#X#X#X#X#X#X#X#X#X#X#X#X#X#X#X#X#X#X#X#X#X#X#X#X#X#X#X#X#X#X#X#X#X#X#X#X#X#X#X#X#X#X#X#X#X#X#X#X#X#X#X#X#X#X#X#X#X#X#X#X#X#X#X#X#X#X#X#X#X#X#X#X#X#X#X#X#X#X#X#X#X#X#X#X#X#X#X#X#X#X#X#X#X#X#X#X#X#X#X#X#X#X#X#X#X#X#X#X#X#X#X#X#X#X#X#X#X#X#X#X#X#X#X#X#X#X#X#X#X#X#X#X#X#X#X#X#X#X#X#X#X#X#X#X#X#X#X#X#X#X#X#X#X#X#X#X#X#X#X#X#X#X#X#X#X#X#X#X#X#X#X#X#X#X#X#X#X#X#X#X#X#X#X#X#X#X#X#X#X#X#X#X#X#X#X#X#X#X#X#X#X#X#X#X#X#X#X",
"#X#X#X#X#X#XmX#X#XmX_.SX_.SX#X_.#XmX_.SX_.SXSX#X_.SXSXSXSX_.SXSXSX_.SXSX_.mXSXSXSXSXSXSXSXSXSXSXSXSXSXSX_.$XDX`.SXSX$X`.DXSXSX`.1XDXDXDXDXDXDXDXDX$X1X` DX`.DXDX` (.DX6 FXSXSX$XDXDXDXSXSXDXDXDX` DXDXDXDXDX`.DXDXDX5 5 ` 5 @ ` FX5 @ DXDXSXDXDX`.DX@ 5 ` FX6 5 5 6 6 FXSX#XVXAX#X#X#X#X#X#X#X#X#X#X#X#X#X#X#X#X#X#X#X#X#X#X#X#X#X#X#X#X#X#X#X#X#X#X#X#X#X#X#X#X_ tXsXeXrXwXuXfXfXfXfXfXxXxXsXsXsXqX3X3XuXnXnXuXk 0.b.w.n.f.c.g.c.n.w.b.b.b.v.n.VX@X#X@X` K.n.J.b.v.j.z.J.v.d.d.f.l.f.v.f.l.k.k.l.v.v.v.v.c.v.c.n.b.n.b.m.w.w.s.n.V.#XVX#X)._ _ D D _ _ _ _ #XSX#X#X#X#X#X#X#X#X#X#X#X#X#X#X#X#X#X#X#X#X#X#X#X#X#X#X#X#X#X#X$ V.| &.&.&...*.=.7.&.&.T &.*.*.5.5.5.VX. ` A.=.t.U 5.$XW.U &.&.*.*.3.*.*.=.c.T T q.T &.V.7X+XVXBXs.| &.7.7.7.8.8.8.&.q.#X@X#X#X#X#X#X#X#X#X#X#X#X#X#X#X#X#X#X#X#X#X#X#X#X#X#X#X#X#X#X#X#X#X#X#X#X#X#X#X#X#X#X#X#X#X#X#X#X#X#X#X#X#X#X#X#X#X#X#X#X#X#X#X#X#X#X#X#X#X#X#X#X#X#X#X#X#X#X#X#X#X#X#X#X#X#X#X#X#X#X#X#X#X#X#X#X#X#X#X#X#X#X#X#X#X#X#X#X#X#X#X#X#X#X#X#X#X#X#X#X#X#X#X#X#X#X#X#X#X#X#X#X#X#X#X#X#X#X#X#X#X#X#X#X#X#X#X#X#X#X#X#X#X#X#X#X#X#X#X#X#X#X#X#X#X#X#X#X#X#X#X#X#X#X#X#X#X#X#X#X#X#X#X#X#X#X#X#X#X#X#X#X#X#X#X#X#X#X#X#X#X#X#X#X#X#X#X#X#X#X#X#X#X#X#X#X#X#X#X#X#X#X#X#X#X#X#X#X#X#X#X#X#X#X#X",
"#X#X#X#X% _.#XSX#X_.mX#XmX#XSXSXSX_.#XSX#XSX#XSX_.mXSX$XSXSX$X$X_.SXmX_.mX_.SX_._.SXSX$XSXSX$XSX$XSX$XSX$XSX$XSXSX$X8 SX$XSXSXDXDX(.FX1XDXDXDXDXDXDXDXDXDX$XDXDX(.DXFXFXFXDX` GX6 DX`.SX`.DX`.DX8 DXDXDX` DXDX` DXDX` FXFX1X5 FX' ' FXFX5 5 FX` DXDX` 5 FXDX5 ` FX5 (.6 FX5 DXmXAXVX#XAXAX#X#X#X#X#X#X#X#X#X#X#X#X#X#X#X#X#X#X#X#X#X#X#X#X#X#X#X#X#X#X#X#X#X#XD SXsXqXeXdXeXsXsXsXfXsXuX+ hXuXsXsXwXqX3X4XzXzXzXzXb.0.b.b.v.v.n.q.n.b.b.b.T w.SXBXSX#X#XBX@XR.b.f.c.d.G.z.f.f.d.f.f.l.f.l.l.d.l.v.f.v.v.v.c.c.c.b.b.n.b.w.s.b.m.w.q.W.. _ % 1XjXdXhXhXiXaXyX_ _ _ AXmX#X#X#X#X#X#X#X#X#X#X#X#X#X#X#X#X#X#X#X#X#X#X#X#X#X#X#X+XV.O.*.*.*.*.*.7.&.&.&.=.&.*.*.*.*.U V.m.U | *.3.5.U !.+X8.+.&.&.3.*.*.&.*.=.q.T T &.w.7XBX#X@X#XT 3.7.=.=.7.8.8.=.@.T DX7X#X#X#X#X#X#X#X#X#X#X#X#X#X#X#X#X#X#X#X#X#X#X#X#X#X#X#X#X#X#X#X#X#X#X#X#X#X#X#X#X#X#X#X#X#X#X#X#X#X#X#X#X#X#X#X#X#X#X#X#X#X#X#X#X#X#X#X#X#X#X#X#X#X#X#X#X#X#X#X#X#X#X#X#X#X#X#X#X#X#X#X#X#X#X#X#X#X#X#X#X#X#X#X#X#X#X#X#X#X#X#X#X#X#X#X#X#X#X#X#X#X#X#X#X#X#X#X#X#X#X#X#X#X#X#X#X#X#X#X#X#X#X#X#X#X#X#X#X#X#X#X#X#X#X#X#X#X#X#X#X#X#X#X#X#X#X#X#X#X#X#X#X#X#X#X#X#X#X#X#X#X#X#X#X#X#X#X#X#X#X#X#X#X#X#X#X#X#X#X#X#X#X#X#X#X#X#X#X#X#X#X#X#X#X#X#X#X#X#X#X#X#X#X#X#X#X#X#X#X#X#X#X#X#X",
"#X#X#X#X#X#XmX#X#X#X#X_.#XSXSX$XmXSXSXSXSX_.SXSXmXSX#XSXSX$XSXSXSXSXSX_.SXSXSX#XSXSXSXSXSXSXSXSXSXSXSX$X$XSXSXSX$X`.SX$X$X`.DXDXSXSXDXDXDXDXDXDXFXDX`.DXDXDXDXDX$X$XDXFXDX(.FXFXFXFXDXFXFXDXSXSXSXDXDXDXDX` FX5 DXDXDX` ` DXDXFXFXDX5 FXFXFX5 FXFX5 DX` DXDXDX` FXFXFX5 DX5 / / 5 `.DX`.#XAX#XAX#X#X#X#X#X#X#X#X#X#X#X#X#X#X#X#X#X#X#X#X#X#X#X#X#X#X#X#X#X#X#X_ jXfXeXsXwXwXeXsXsXsXsXzXdXgXfXsXsXsX4X3X4X0XuXxXzX<X9.b.b.n.c.c.n.n.n.n.v.l.!.. #X#X#X#X#XVX+X@XA.l.d.z.z.f.f.f.v.v.f.l.f.v.v.v.v.v.v.l.f.v.v.v.w.b.n.b.b.w.m.m.m.b.R.yXhXgXxXzXzXzXuXfXzXfXhXiX@ D _ _ #XmX#X#X#X#X#X#X#X#X#X#X#X#X#X#X#X#X#X#X#X#X#X#X#X#XCXY.| &.&.&.5.*.&.7.&.&.T &.*.*.&.*.&.| | 3.&.&.3.5.U Q.. b.| 7.&.&.3.3.*.&.T T =.&.q.#X+X#X#X7X`.7.3.7.&.&.7.8.8.8.7.=.' BX#X#X#X#X#X#X#X#X#X#X#X#X#X#X#X#X#X#X#X#X#X#X#X#X#X#X#X#X#X#X#X#X#X#X#X#X#X#X#X#X#X#X#X#X#X#X#X#X#X#X#X#X#X#X#X#X#X#X#X#X#X#X#X#X#X#X#X#X#X#X#X#X#X#X#X#X#X#X#X#X#X#X#X#X#X#X#X#X#X#X#X#X#X#X#X#X#X#X#X#X#X#X#X#X#X#X#X#X#X#X#X#X#X#X#X#X#X#X#X#X#X#X#X#X#X#X#X#X#X#X#X#X#X#X#X#X#X#X#X#X#X#X#X#X#X#X#X#X#X#X#X#X#X#X#X#X#X#X#X#X#X#X#X#X#X#X#X#X#X#X#X#X#X#X#X#X#X#X#X#X#X#X#X#X#X#X#X#X#X#X#X#X#X#X#X#X#X#X#X#X#X#X#X#X#X#X#X#X#X#X#X#X#X#X#X#X#X#X#X#X#X#X#X#X#X#X#X#X#X#X#X#X#X#X",
"#X#X#X#X#X% #X_.#XSX#XmX_.#X#X_._.mX_.mXSXSX$XSX_.SXSXSXSX_.mXSX$XSX$XSX$X$XSXSXSX$X_.#XSXSXSXSXSXSXSX$XSXSX$XSXSXSX$XSX$XDX$XSX$XDX] `.$XSXSXDXFXFX@ 1XFXDXDX`.DXDXDXDX` o DXFXDXDXFX6 FX` DXDXFX5 DXDXSXDXFXDXDX` ` @ DXDX` 5 5 ` DX` 5 FXFX' 6 5 FXFX5 ` 8 5 DXDXDXDX5 FXFXFX6 FX5 6 / DXSXSX#XVX_.#X#X#X#X#X#X#X#X#X#X#X#X#X#X#X#X#X#X#X#X#X#X#X#X#X#X#X#X_ hXdXdXwXeXeXwX2XwX4XuXfXfXfXxXfXsXsX4X3X0XpXpXpXzXzXr 0.b.n.n.c.c.n.n.v.V.`.VX#X#X#X#X#X#X#X#X@X. OXg.k.k.l.v.f.v.c.v.v.v.v.v.v.v.v.l.l.l.c.g.v.n.b.b.b.b.w.w.s.w.s.m.xXkXzXfXfXfXxXfXqXsXfXpXuXfXdXiX1X_ _ #X_.#X#X#X#X#X#X#X#X#X#X#X#X#X#X#X#X#X#X#X#X% #X+XV.| &.&.&...3.&.&.&.&.=.=.&.&.*.*.&.*.*.&.5.O.U :.T #XCXW.3.| +.3.&.&.&.T =.&.3.&.DX+X#X#X#XBX(.&.+.&.*.*.7.8.i.K 7.7.!.+X#X#X#X#X#X#X#X#X#X#X#X#X#X#X#X#X#X#X#X#X#X#X#X#X#X#X#X#X#X#X#X#X#X#X#X#X#X#X#X#X#X#X#X#X#X#X#X#X#X#X#X#X#X#X#X#X#X#X#X#X#X#X#X#X#X#X#X#X#X#X#X#X#X#X#X#X#X#X#X#X#X#X#X#X#X#X#X#X#X#X#X#X#X#X#X#X#X#X#X#X#X#X#X#X#X#X#X#X#X#X#X#X#X#X#X#X#X#X#X#X#X#X#X#X#X#X#X#X#X#X#X#X#X#X#X#X#X#X#X#X#X#X#X#X#X#X#X#X#X#X#X#X#X#X#X#X#X#X#X#X#X#X#X#X#X#X#X#X#X#X#X#X#X#X#X#X#X#X#X#X#X#X#X#X#X#X#X#X#X#X#X#X#X#X#X#X#X#X#X#X#X#X#X#X#X#X#X#X#X#X#X#X#X#X#X#X#X#X#X#X#X#X#X#X#X#X#X#X#X#X#X#X#X#X",
"#X#X#X#X#X#X#XmX#X#X_.#XmX_.mX#XSX_.mX_.SXSX$XSXmXSXSX_.mXSXSX$XSXSX$XSXSXSXSX$X$XSXSXSX$XSX#XSX$XSXSXSXSX$X] SX$XSX$X8 $XSX`.$X$XDXDXSXSX`.DXDX$XDX5 DXDX(.DXFXFXDXDX@ (.DXDXFXDX$X(.FX(.DXFX' GX(.DXDXDXDXDXDX8 SXDXDXDX5 @ ` FX5 $XDXDX(.FX' 6 6 ' 6 ' # ' 6 FX` 5 ` FX6 ` DX5 FX5 ' / GX` 6 6 $XAX#X#XAXVX#X#X#X#X#X#X#X#X#X#X#X#X#X#X#X#X#X#X#X#X#X#X#X#X_ jXsXeXwX3X3X3X3X4XuXfXsXsXsXsXsXsXwX4X4XpX0X4XpXnXzXfXw.0.b.b.n.n.g.q.b.;.CX7XSX#X#X#X#X#X#X#X#X#XCX@X( z.j.v.v.J.d.l.f.v.g.c.c.v.f.v.v.f.v.v.c.n.w.w.b.b.b.m.w.m.w.s.<XfXxXfXfXfXqXfXqXqXqX4XqXuXuXuXfXhX1X_ ZXmX#X#X#X#X#X#X#X#X#X#X#X#X#X#X#X#X#X#X#X#X#XCXV.| &.&.*.*.3.&.7.&.&.=.3.*.=.&.5.&.=.*.| &.n...c.@ +X#X+X` 9.&.s.=.+.3.3.+.7.T ^ +X#X#X#X#X7X] =.3.7.7.&.&.8.i.8.7.&.P BX#X#X#X#X#X#X#X#X#X#X#X#X#X#X#X#X#X#X#X#X#X#X#X#X#X#X#X#X#X#X#X#X#X#X#X#X#X#X#X#X#X#X#X#X#X#X#X#X#X#X#X#X#X#X#X#X#X#X#X#X#X#X#X#X#X#X#X#X#X#X#X#X#X#X#X#X#X#X#X#X#X#X#X#X#X#X#X#X#X#X#X#X#X#X#X#X#X#X#X#X#X#X#X#X#X#X#X#X#X#X#X#X#X#X#X#X#X#X#X#X#X#X#X#X#X#X#X#X#X#X#X#X#X#X#X#X#X#X#X#X#X#X#X#X#X#X#X#X#X#X#X#X#X#X#X#X#X#X#X#X#X#X#X#X#X#X#X#X#X#X#X#X#X#X#X#X#X#X#X#X#X#X#X#X#X#X#X#X#X#X#X#X#X#X#X#X#X#X#X#X#X#X#X#X#X#X#X#X#X#X#X#X#X#X#X#X#X#X#X#X#X#X#X#X#X#X#X#X#X#X#X#X#X#X",
"#X#X#X#X#X#X_.#X#X_.mX#X_.#X_.SX#X#XSX#X#XmXSX$X$X$X$XSXSX$XSX_.SX$XSXSXSXSX$X$X$XSXSXDX`.SXSXSXSXSX_.SX$XSXSX$XSX$X8 $X$X$XDXDXSX] SXSX`.DXDX$XSX`.DX`.DX`.DXDX(.FXDX(.FX` DXDX`.DX5 FXDX$XDXFXFXFXFXFX6 (.8 SXSXSXDX` DX8 DX5 5 DXDXDXDXDXDXDX(.DXFX' FX6 6 FXFXFXFXFXFX' DXDX8 ' FX5 @ 5 5 FX/ 2 5 `.5 ` `.#X@XAXAX#X#X#X#X#X#X#X#X#X#X#X#X#X#X#X#X#X#X#X#X_ aXfXsXwX3X2X3XuXuXxXsXsXfXsXsXsXwXsXxXpXeXfX0XuXkXnXpXzXw.G b.w.b.b.m.V.b.;.7X#X#X#X#X#X#X#X#X#X#X#X@X. / z.d.v.v.l.d.l.l.v.c.v.v.=.v.v.c.v.z.g.w.w.b.w.b.n.w.s.w.m.G ;XuXuXzXuX0X0X0X4XuXqXsXsXqXqXuXuXuXfXjXD _ AXmX#X#X#X#X#X#X#X#X#X#X#X#X#X#X#X#X#X#X#XCXC.| &.&.&.3.3.&.&.&.*.T b.U U 3.5.&.5.:.5.(.CX(.#XBX#X#X#X+XVX$XBXFXH.B.C.P ' VXBX#X#X#X#X#X@XAXq.3.7.7.&.*.8.8.8.8.+.P +X#X#X#X#X#X#X#X#X#X#X#X#X#X#X#X#X#X#X#X#X#X#X#X#X#X#X#X#X#X#X#X#X#X#X#X#X#X#X#X#X#X#X#X#X#X#X#X#X#X#X#X#X#X#X#X#X#X#X#X#X#X#X#X#X#X#X#X#X#X#X#X#X#X#X#X#X#X#X#X#X#X#X#X#X#X#X#X#X#X#X#X#X#X#X#X#X#X#X#X#X#X#X#X#X#X#X#X#X#X#X#X#X#X#X#X#X#X#X#X#X#X#X#X#X#X#X#X#X#X#X#X#X#X#X#X#X#X#X#X#X#X#X#X#X#X#X#X#X#X#X#X#X#X#X#X#X#X#X#X#X#X#X#X#X#X#X#X#X#X#X#X#X#X#X#X#X#X#X#X#X#X#X#X#X#X#X#X#X#X#X#X#X#X#X#X#X#X#X#X#X#X#X#X#X#X#X#X#X#X#X#X#X#X#X#X#X#X#X#X#X#X#X#X#X#X#X#X#X#X#X#X#X#X#X",
"#X#X#X#X#X#X% #X#X% #X_.mX#X#X#X#XSXSX_.SX_._.SXSX$XSX$X$X$XSX$XSXSXSXSXSX$X$XSXSX$X$X$X$XSX$X$XSX_.SXSXSXSXSX$XSXSX$XSXSX8 $X] $X$XDX$X$XDX$X8 DXDXDXDX`.SXSXDXFXFX6 DX@ FXDXFXFXDX(.` DXDXDXDXDX@ FX6 GX6 DXDX6 GX5 DXDXSXDX(.DXDX5 5 5 ` DX@ DXDX5 5 5 FX6 6 FX6 6 ' 6 ' 5 DX5 6 DX8 DX' 6 6 FXFX6 FXFXN 2 6 DX$XSX@XAX#X#X#X#X#X#X#X#X#X#X#X#X#X#X#X#X#X#X_ tXgXrXwX2X2X4XuXsXsXfXsXsXwXeXwX4XkXkXpXgXxX0X4X0XkXkXkXkXI.G 0.b.m.m.B.B.b.!.CX#X#X#X#X#X#X#X#X#X#X#X#X. A u.v.c.v.f.f.l.z.d.l.J.l =.c.c.l.g.<Xb.b.b.w.b.n.m.m.w.m.s.y fXzXuX0X0XuXqXuXuXfXuXuXfXuXuX0XuXuXuXgXaX_ _ AX#XAX#XAX#X#X#X#X#X#X#X#X#X#X#X#X#X#X+XQ.3.&.&.7.3...&.&.&.3.=.VXW.T } :.=.v.T ' CXVX+X@X#X#X#X#XmX@X7X#XBX+X+X+XBX+X@X#X#X#X#X#X#X@X$X=.3.&.&.*.3.7.i.8.K &.R.+X#X#X#X#X#X#X#X#X#X#X#X#X#X#X#X#X#X#X#X#X#X#X#X#X#X#X#X#X#X#X#X#X#X#X#X#X#X#X#X#X#X#X#X#X#X#X#X#X#X#X#X#X#X#X#X#X#X#X#X#X#X#X#X#X#X#X#X#X#X#X#X#X#X#X#X#X#X#X#X#X#X#X#X#X#X#X#X#X#X#X#X#X#X#X#X#X#X#X#X#X#X#X#X#X#X#X#X#X#X#X#X#X#X#X#X#X#X#X#X#X#X#X#X#X#X#X#X#X#X#X#X#X#X#X#X#X#X#X#X#X#X#X#X#X#X#X#X#X#X#X#X#X#X#X#X#X#X#X#X#X#X#X#X#X#X#X#X#X#X#X#X#X#X#X#X#X#X#X#X#X#X#X#X#X#X#X#X#X#X#X#X#X#X#X#X#X#X#X#X#X#X#X#X#X#X#X#X#X#X#X#X#X#X#X#X#X#X#X#X#X#X#X#X#X#X#X#X#X#X#X#X#X#X#X",
"#X#X#X#X#XSX#X#X_.#X#XmX_.#XSX#XSX#X_.mXSX#XSX_.SXSXSXSX$X`.$X$X$XSX$X$XSXSXSXSX$XSX] $X$X$XDX`.mXSXDX`.SXSXSX$XSXSXSX$X$XSXSX$X8 `.`.DX8 $X`.`.DX`.SXSXDXDX` DXDXSX(.` (.FXFX(.# FXDX@ FX5 FXFXFXDX`.FXGX' FX6 HXHXFX` SX` FXDXDX8 `.5 FXDX5 FX5 5 FX` ` FX6 FXDX5 6 GX6 6 6 6 2 GXFX5 DX5 6 FX` 5 FX6 6 FXFX/ 6 6 / FX$X#X#X#XVX).#X#X#X#X#X#X#X#X#X#X#X% #XD hXhXjX4X3X2XfXsXxXsXsXsXeX3XwXfXnXkXkXxXxXxXuX4X4XuXpXpXkXpX<Xs.s.b.w.m.B.m.S.#X7X_.#X#X#X#X#X#X#X#X#X#XCX) Y v.v.v.v.l.l.l.l.T xXpXl i.v.l.g.g.c.b.b.m.b.n.w.s.w.w.s.B.gXuXqXuXqXqXuXuXpXpXzXzXzXuXfXzXfXxXxXzXxXhXOX7 _ _ _ D _ _ _ _ AXAXAX#X#X#X#X#X#X#X+XP 3.&.&.7.&.*.*.&.&.3.q.VX. VXV.w.2 AX7X+X#X#X#X#X#X#X#X% #X#X#X#X#XAX#X#X#X#X#X#X#X#X#X#X#X7XSX=.+.&.7.&.*.&.K 8.8.+.Z.BX#X#X#X#X#X#X#X#X#X#X#X#X#X#X#X#X#X#X#X#X#X#X#X#X#X#X#X#X#X#X#X#X#X#X#X#X#X#X#X#X#X#X#X#X#X#X#X#X#X#X#X#X#X#X#X#X#X#X#X#X#X#X#X#X#X#X#X#X#X#X#X#X#X#X#X#X#X#X#X#X#X#X#X#X#X#X#X#X#X#X#X#X#X#X#X#X#X#X#X#X#X#X#X#X#X#X#X#X#X#X#X#X#X#X#X#X#X#X#X#X#X#X#X#X#X#X#X#X#X#X#X#X#X#X#X#X#X#X#X#X#X#X#X#X#X#X#X#X#X#X#X#X#X#X#X#X#X#X#X#X#X#X#X#X#X#X#X#X#X#X#X#X#X#X#X#X#X#X#X#X#X#X#X#X#X#X#X#X#X#X#X#X#X#X#X#X#X#X#X#X#X#X#X#X#X#X#X#X#X#X#X#X#X#X#X#X#X#X#X#X#X#X#X#X#X#X#X#X#X#X#X#X#X#X",
"#X#X#X#X#X#X_.#XmX_.% #XmX#X#X#X#XmX#X_._.mX#X_.SXSX#X_.SX$XDX`.$X`.`.$X$XSX$X$XSXSX$XSXSX`.$Xo $X`.DXDXSXSXDX$XSX_.SX`.SXSXSX$XSX$X8 $X`.8 o DX`.DX8 $XDXDXDXSXDXDXDXDXDXDXSXSXFXGXFX' # (.DX5 (.DXDXDXFX@ (.FX6 ' FXFXFXHX6 DX] SXSXDX5 ` DXDX' 6 FXDX5 FXFXFXDX` FX6 (.@ (.DXFX6 ' 6 FX5 6 (.DXDXDX6 ' 5 5 5 ' ' 6 m : ' 5 6 ' o #XAXVXAX#X#X#X#X#X#X#X#X#X_ iXsXhXeXqXxXsXsXsXsXwXeX3X3XzXnXnXnXxXnXxXxXfXuXuXpXuXuXuXpXpXxXw.s.b.m.m.B.b.V.#XBXmX#X#X#X#X#X#X#X#X#X#X. L.*.&.=.=.l.f.f.c.0.nXpXpXg.=.v.c.g.n.w.b.w.b.b.b.m.w.b.m.G gX0XqXfXfX0XpX0XuXpXuXuXzXzXzXxXzXxXxXxXzXzXzXdXhXhXhXdXhXaXO yXD )._ _ _ D #X#X#X#X+XP 3.&.7.&.&.*.*.&.7.U b.7X#X@XCX+XBX@XVX#X#X#X#X#X#X#X#X#X#X#X#X#X#X#X#X#X#X#X#X#X#X#X#X#X#XBXW.&.&.=.&.&.*.&.8.8.7.+.Z.+X#X#X#X#X#X#X#X#X#X#X#X#X#X#X#X#X#X#X#X#X#X#X#X#X#X#X#X#X#X#X#X#X#X#X#X#X#X#X#X#X#X#X#X#X#X#X#X#X#X#X#X#X#X#X#X#X#X#X#X#X#X#X#X#X#X#X#X#X#X#X#X#X#X#X#X#X#X#X#X#X#X#X#X#X#X#X#X#X#X#X#X#X#X#X#X#X#X#X#X#X#X#X#X#X#X#X#X#X#X#X#X#X#X#X#X#X#X#X#X#X#X#X#X#X#X#X#X#X#X#X#X#X#X#X#X#X#X#X#X#X#X#X#X#X#X#X#X#X#X#X#X#X#X#X#X#X#X#X#X#X#X#X#X#X#X#X#X#X#X#X#X#X#X#X#X#X#X#X#X#X#X#X#X#X#X#X#X#X#X#X#X#X#X#X#X#X#X#X#X#X#X#X#X#X#X#X#X#X#X#X#X#X#X#X#X#X#X#X#X#X#X#X#X#X#X#X#X#X#X#X#X#X#X#X",
"#X#X#X#X#X#X% #X_.#X#X_.#X_.mX_.mX_.mX_.mX#X_.SXSXmXSXSXmXSX$XSXo `.o DX$X$X`.$XSXSX$XSX$Xo SXSX`.DX$X$XSX`.DXSX_.SXDX$XSXSXDX`.SX$X$X$X] o `.] o DX`.$XDXDXSX$XDXDXDXDXDX8 DX` FX' GXFX(.FXFXFXFXFX5 FX` FXDXDXFXFX(.@ / / FX5 @ FXHX' FXDXSX8 FX` DX` 5 5 FX` 5 FXFXFX5 5 DXFX6 6 ' GX6 6 ' 6 6 ` 5 GX5 DXDXDX5 6 6 FX6 6 FX5 2 : / DXDX$X@XVX#X#XAX#X#X#X#XD o fXeXhXsXfXsXsXsXsXwXwXqXnXnXnXnXnXnXxXgXxXxXfXuXuXuXuXuXuXuXpXxXG m.b.m.m.B.b.S._.7XSX#X#X#X#X#X#X#XAX_ _ tXxXl l l l.f.v.g.9.I.pXkXnXq.v.c.c.b.w.b.b.w.n.n.m.w.s.w.-.<XpXpX0XuXfXuXuXuXuXuXpXpX0XpXpXuXuXpXuXuXuXpXpXpXkXpXpXpXpXzXfXgXgXhXiXiXSX_ _ _ ZXCX' 3.&.&.7.&.*.*.&.&.3.b.@XVX#X#X#X#X#X#X#X#X#X#X#X#X#X#X#X#X#X% #X#X#X#X#X#X#X#X#X#X#X#X#X#XBX(.&.+.&.&.*.*.&.8.8.8.+.Z.+X#X#X#X#X#X#X#X#X#X#X#X#X#X#X#X#X#X#X#X#X#X#X#X#X#X#X#X#X#X#X#X#X#X#X#X#X#X#X#X#X#X#X#X#X#X#X#X#X#X#X#X#X#X#X#X#X#X#X#X#X#X#X#X#X#X#X#X#X#X#X#X#X#X#X#X#X#X#X#X#X#X#X#X#X#X#X#X#X#X#X#X#X#X#X#X#X#X#X#X#X#X#X#X#X#X#X#X#X#X#X#X#X#X#X#X#X#X#X#X#X#X#X#X#X#X#X#X#X#X#X#X#X#X#X#X#X#X#X#X#X#X#X#X#X#X#X#X#X#X#X#X#X#X#X#X#X#X#X#X#X#X#X#X#X#X#X#X#X#X#X#X#X#X#X#X#X#X#X#X#X#X#X#X#X#X#X#X#X#X#X#X#X#X#X#X#X#X#X#X#X#X#X#X#X#X#X#X#X#X#X#X#X#X#X#X#X#X#X#X#X#X#X#X#X#X#X#X#X#X#X#X#X#X#X",
"#X#X#X#X#X#X_.#X#X% _.#XmX#X#X#X#X#X#XmX#XSXSX#X_._.SX$X_.SXSXSX_.SXSX$XDXDXDX`.$XDX$XSXSXSX$X$Xo SX$XDX`.DXDX$XSXDX(.o SXSX`.SXSXSXSXSXo `.SXSXSX`.DX8 `.DXDXDXDXDXDXSX$XDXFXFX`.o FX5 DX6 ' FXGXGXDXSXFX6 DXFXFXFXDXDXGXGXFXDX' 2 JX6 DXDXDXGX5 DXDX8 DX5 5 ` FXFX5 ' 6 (.DX5 (.FX6 6 GX/ GX6 GX6 2 2 6 FXFX5 ' 6 GXDX5 6 ' ' 6 GX/ FX6 2 6 `.#XSXSXVX).#X#X).).dXuXfXfXsXsXsXsXwX3XqXnXnXnXzXxXnXxXfXuXfXsXfXzXxXxXuXzXfXzXkXzXw.m.w.b.m.m.B.b.V.SX@X#X#X#X#XmXAX_ _ aXsXuXwXwXwXwXk q.n.n.n.w.zXlXkXq.c.v.c.n.b.b.m.m.b.b.b.w.b.w.0.Y.tXeXqXuXpXpXpXpXuXfXuXfXfXuXuXfXuXuXfXfXfXfXuXfXuXuXfXfXuXuXuXpXpXpXpXzXsXhXhXOX$XCXD =.+.&.=.&.+.*.&.&.U 0.7XVX#X#X#X#X#X#X#X#X#X#X#X#X#X#X#X#X#X#X#X#X#X#X#X#X#X#X#X#X#X#X#X#X@XVXq.3.&.&.&.*.&.8.K 7.&.P BX#X#X#X#X#X#X#X#X#X#X#X#X#X#X#X#X#X#X#X#X#X#X#X#X#X#X#X#X#X#X#X#X#X#X#X#X#X#X#X#X#X#X#X#X#X#X#X#X#X#X#X#X#X#X#X#X#X#X#X#X#X#X#X#X#X#X#X#X#X#X#X#X#X#X#X#X#X#X#X#X#X#X#X#X#X#X#X#X#X#X#X#X#X#X#X#X#X#X#X#X#X#X#X#X#X#X#X#X#X#X#X#X#X#X#X#X#X#X#X#X#X#X#X#X#X#X#X#X#X#X#X#X#X#X#X#X#X#X#X#X#X#X#X#X#X#X#X#X#X#X#X#X#X#X#X#X#X#X#X#X#X#X#X#X#X#X#X#X#X#X#X#X#X#X#X#X#X#X#X#X#X#X#X#X#X#X#X#X#X#X#X#X#X#X#X#X#X#X#X#X#X#X#X#X#X#X#X#X#X#X#X#X#X#X#X#X#X#X#X#X#X#X#X#X#X#X#X#X#X#X#X#X#X#X",
"#X#X#X#X#X#X#X_.#X#X#XSX#XSX#XSX#XSX#X_.#X_.#XmX_.mXSX_.mXSX$XSXSX$XSXSX`.$XDXDXDXDXDX$X`.DX$XSXSX$X$X`.o $X`.DXDX`.DX`.$XDXDXSXSXSX] $XSXSXDX$X8 $X`.o SXDXDX`.`.`.`.SX$XDX` DXSX`.DXDXFXFXDX8 ` / GX6 FXOXFXDXFXFXDX@ ' 6 FX$XDXFX6 GX' FXHX( @ DXSXSX8 FXFXDXDX` FX6 FX5 5 FX5 FX5 ` FX5 ' 6 6 / 6 6 6 6 6 6 6 ' FX` DX5 6 6 ' ' 6 ' ' 6 3 m FX5 6 FXDX#X@XVX_ rXuXsXsXsXsXeXwX3XfXxXnXnXxXxXxXfXfXuXzXzXxXfXuXuXxXpX0XuXnXnXpXy s.w.w.b.m.B.B.b.;.7XAX#XAX_ CX_ iXdXuXfXsXsXwXeXwXgXi.n.n.n.G l kX[.v.c.c.c.c.w.w.m.m.w.n.b.m.b.w.n.S._ _ _.yXtXhXrXsXfXpXpXpXpXpXuXuXuXuXpXpXuXqXuXuXqXuXqXfXfXfXfXfXfXuXuXfXpXpXpXuXsXdXaX9.+.=.7.7.&.*.&.&.3.q.#XVX#X#X#X#X#X#X#X#X#X#X#X#X#X#X#X#X#X#X#X#X#X#X#X#X#X#X#X#X#X#X#X#XVX@X0.3.7.&.&.*.&.8.8.7.7.' +X#X#X#X#X#X#X#X#X#X#X#X#X#X#X#X#X#X#X#X#X#X#X#X#X#X#X#X#X#X#X#X#X#X#X#X#X#X#X#X#X#X#X#X#X#X#X#X#X#X#X#X#X#X#X#X#X#X#X#X#X#X#X#X#X#X#X#X#X#X#X#X#X#X#X#X#X#X#X#X#X#X#X#X#X#X#X#X#X#X#X#X#X#X#X#X#X#X#X#X#X#X#X#X#X#X#X#X#X#X#X#X#X#X#X#X#X#X#X#X#X#X#X#X#X#X#X#X#X#X#X#X#X#X#X#X#X#X#X#X#X#X#X#X#X#X#X#X#X#X#X#X#X#X#X#X#X#X#X#X#X#X#X#X#X#X#X#X#X#X#X#X#X#X#X#X#X#X#X#X#X#X#X#X#X#X#X#X#X#X#X#X#X#X#X#X#X#X#X#X#X#X#X#X#X#X#X#X#X#X#X#X#X#X#X#X#X#X#X#X#X#X#X#X#X#X#X#X#X#X#X#X#X#X#X",
"#X#X#X#X#X#X#X#X#XSX#X#X#X#X#X#X_.#XSX#XSX_.SX#XSX_._.#XSXSXSXmXSXSX_.SXSXSX$XSX$XDXDXDXDXDX$X$X`.`.SX$XSX$XDX$X`.DX$Xo `.DXDXSXSX(.FX] SXSXDX`.$X8 o ] `.8 `.8 DXDXDXDXDXDXDX] DX@ DX` DXDXSXDXDXGX/ HX(.@ ' FX' 6 FXDXFXFXFXDXDXFX(.GXFXGXHX/ ' 5 FX( 2 FX5 DXSXDXFX` 5 ` ` 5 5 ' 5 FX' DXFX6 5 FX6 6 / 2 / / 6 6 6 5 5 / / 5 DXDX5 6 2 2 FXFX6 5 FX2 3 2 DXDXZ aXqXfXsXeXwXwX3XfXnXnXzXzXxXzXsXxXzXxXxXxXxXxXzXpXpXpXpXkXnXkXkXgX-.b.m.w.b.m.m.m.B.`.. _ D DXjXgXzXpXsXsXeXsXwX3X4XuXg.q.n.n.b.<X{.l.J.n.b.g.g.b.m.b.w.m.n.n.m.w.w.n.V.#X@XD _ _ _ _ D _.tXdXsXsXfXfXpXpX0XuXqX0XpXuXuX0XuX0X0XuX4XuXuXuXqXfXfXuXuXuXuXuXpX0Xg.K =.8.7.7.*.*.&.3.b.VX@X#X#X#X#X#X#X#X#X#X#X#X#X#X#X#X#X#X#X#X#X#X#X#X#X#X#X#X#X#X#X#X#X#X7Xs.| &.&.&.*.*.8.8.7.&.W.BX#X#X#X#X#X#X#X#X#X#X#X#X#X#X#X#X#X#X#X#X#X#X#X#X#X#X#X#X#X#X#X#X#X#X#X#X#X#X#X#X#X#X#X#X#X#X#X#X#X#X#X#X#X#X#X#X#X#X#X#X#X#X#X#X#X#X#X#X#X#X#X#X#X#X#X#X#X#X#X#X#X#X#X#X#X#X#X#X#X#X#X#X#X#X#X#X#X#X#X#X#X#X#X#X#X#X#X#X#X#X#X#X#X#X#X#X#X#X#X#X#X#X#X#X#X#X#X#X#X#X#X#X#X#X#X#X#X#X#X#X#X#X#X#X#X#X#X#X#X#X#X#X#X#X#X#X#X#X#X#X#X#X#X#X#X#X#X#X#X#X#X#X#X#X#X#X#X#X#X#X#X#X#X#X#X#X#X#X#X#X#X#X#X#X#X#X#X#X#X#X#X#X#X#X#X#X#X#X#X#X#X#X#X#X#X#X#X#X#X#X#X#X#X#X#X#X#X#X#X#X#X#X#X#X",
"#X#X#X#X#X#X#X#X_.#X#X_.mX_.#XSX#XmX#XmX_.mX#XSX_.mX#XSXSX_._._.SX$XmX$XSX$XSXSXSXSXDX(.DX$XDX(.@ $Xo $XDX$XDX`.DX$XSX`.DXDXDX`.DXFX` $X$XSX`.SXSXSX] `.o `.$Xo `.DXDXDXDXDXDXDXDX` DXDX`.DX` FXFX` DX5 FXFX6 GX6 GXGX5 DXFX6 FX# ' 6 FX` FXGX/ 6 GX/.3 JX6 FXDX5 6 ` DXDX8 DXFXFXFX5 FX5 5 ' FXFX5 FXGXFXFX6 2 2 2 / 2 HX2 2 ' 5 ` 5 / 2 6 5 5 6 2 N 6 N 2 2 6 2 b hXqXsXwXwX4XfXxXzXxXgXsXfXzXxXxXnXxXzXzXzXxXzXuXpXzXkXzXkXkXkXnXm.s.b.m.w.b.m.B.b.C.oXhXgXzXkXkXzXsXsXsXwXwX3X3X0XxXm.9.n.n.n.b.S.n.n.w.b.n.n.n.m.b.m.m.b.n.w.s.b.b.b.(.BX#X#X#X#X#X).D _ _ _ ).)._.yXaXyX$XZ aXqXpX0XqX4XuX4X4X0XuX4XuX0XpX0XqXqXqXqXqXuX4Xl @.7.8.=.i.&.*.&.3.V.. ZX#X#X#X#X#X#X#X#X#X#X#X#X#X#X#X#X#X#X#X#X#X#X#X#X#X#X#X#X#X#X#X#X#X$ H.| 8.7.=.&.*.=.K 7.&.' BX#X#X#X#X#X#X#X#X#X#X#X#X#X#X#X#X#X#X#X#X#X#X#X#X#X#X#X#X#X#X#X#X#X#X#X#X#X#X#X#X#X#X#X#X#X#X#X#X#X#X#X#X#X#X#X#X#X#X#X#X#X#X#X#X#X#X#X#X#X#X#X#X#X#X#X#X#X#X#X#X#X#X#X#X#X#X#X#X#X#X#X#X#X#X#X#X#X#X#X#X#X#X#X#X#X#X#X#X#X#X#X#X#X#X#X#X#X#X#X#X#X#X#X#X#X#X#X#X#X#X#X#X#X#X#X#X#X#X#X#X#X#X#X#X#X#X#X#X#X#X#X#X#X#X#X#X#X#X#X#X#X#X#X#X#X#X#X#X#X#X#X#X#X#X#X#X#X#X#X#X#X#X#X#X#X#X#X#X#X#X#X#X#X#X#X#X#X#X#X#X#X#X#X#X#X#X#X#X#X#X#X#X#X#X#X#X#X#X#X#X#X#X#X#X#X#X#X#X#X#X#X#X#X#X",
"#X#X#X#X#XmX#X% #X#XSX#X#X#XmX#X_.#X_.#XmX#X_.mX_.SX_.SX_.mXSXmXSXSX_.SX$X`.SX$X$XSX$XDX$XDXDXDX(.DX`.DXDX`.SXSXDX`.DXDX$X$XDXDXDXDX1X`.8 DXDXSXSX$XDXo ] SXDXDX] DXDXDX`.DXDXDXDXDXDXDXDX` FX` `.8 DXDX5 5 FX5 $X` / / GXGXGX6 5 FX@ FX(.DXFXGXFXFX6 GX6 GX/ GX3 JX5 DXSXSXDX6 6 ` DXDX5 FX5 ' FX5 ' ' 5 DXDX5 ' GX6 6 FX/ 2 6 GX/ 6 6 6 ' 5 ` FX6 6 FX6 6 6 6 6 C hXqXeX3XqXfX0XuXiXmX. iXkXxXxXnXMXnXzXpXpXuXkXkXnXnXnXzXkXkXzXzX<X-.b.b.w.b.w.m.m.-.I.kXlXkXzXxXfXfXsXwXwX3X3X4XgXS.B.n.n.n.n.b.m.w.b.b.b.b.n.b.w.m.m.m.w.b.n.b.w.w.q.;.+X#X#X#X#X#X#X#X#X_.AX).).)._ _ _ D )._ D dX0X0X4XqXqXuXqX0X0X0XuXeXsX0X0X0XuXqXqXqX<X@.K =.8.i.8.*.&.+.I.tXmX_ _ D #XmX#X#X#X#X#X#X#X#X#X#X#X#X#X#X#X#X#X#X#X#X#X#X#X#X#X#X#X#X+XZ.3.K 7.&.&.*.&.=.&.T ` 7X#X#X#X#X#X#X#X#X#X#X#X#X#X#X#X#X#X#X#X#X#X#X#X#X#X#X#X#X#X#X#X#X#X#X#X#X#X#X#X#X#X#X#X#X#X#X#X#X#X#X#X#X#X#X#X#X#X#X#X#X#X#X#X#X#X#X#X#X#X#X#X#X#X#X#X#X#X#X#X#X#X#X#X#X#X#X#X#X#X#X#X#X#X#X#X#X#X#X#X#X#X#X#X#X#X#X#X#X#X#X#X#X#X#X#X#X#X#X#X#X#X#X#X#X#X#X#X#X#X#X#X#X#X#X#X#X#X#X#X#X#X#X#X#X#X#X#X#X#X#X#X#X#X#X#X#X#X#X#X#X#X#X#X#X#X#X#X#X#X#X#X#X#X#X#X#X#X#X#X#X#X#X#X#X#X#X#X#X#X#X#X#X#X#X#X#X#X#X#X#X#X#X#X#X#X#X#X#X#X#X#X#X#X#X#X#X#X#X#X#X#X#X#X#X#X#X#X#X#X#X#X#X#X#X",
"#X#X#X#X% _.#X_.#XmX#X_.mX_.#X#XmX#XmX_.#XmX_.SX#X#XSX#XSXSXSXSX_.#XSXSXSXSXSXSX$XSXSXSX$XSX$XSXDXFXDX(.DXDX`.DXDX$XSX`.SX$XDXDXDXDXDXDXDXFX`.SX] FXDX] $XSXDXDX$X8 `.DX$XDXDXDXDXDXDXDXDX@ DXDX$XDXFX5 (.DXDXDX8 FXGXHXGX' GXGX` FX' FXFXFXFXFX' DXFXGX' ' GX/ ( 2 ' FX6 3 ) 6 FX5 ] 8 6 6 FXFXFX' 6 6 6 FX5 FXFX' ' FX@ 6 6 6 / 2 2 6 2 6 FX` 6 2 FX5 5 5 6 6 6 b O qXsXqX4XqX0X4XZ _ D _ hXzXxXnXnXnXnXpX0XpXkXlXkXnXxXzXpXzXzXkXnX-.m.b.b.w.b.m.m.m.o.gXpXxXxXzXuXqXqXwX3XqX4XgXo.o.S.w.n.n.n.b.b.b.b.b.b.n.n.S.V.b.m.m.m.b.b.b.w.s.n.S.VX#X#X#X#X#X#X#X#X#X#X#X#X#X#X_.#X#X#X#X_ _ jX0XpX0XqXsXfXuXuX0XpXgXjXuXfXsX4X0X4X4XxXy.8.7.=.8.8.*.&.K l uXxXhXjX$X_ _.#X#X#X#X#X#X#X#X#X#X#X#X#X#X#X#X#X#X#X#X#X#X#X#X#X#X#X#X+X^ &.7.7.&.&.*.7.7.+.n.VX@X#X#X#X#X#X#X#X#X#X#X#X#X#X#X#X#X#X#X#X#X#X#X#X#X#X#X#X#X#X#X#X#X#X#X#X#X#X#X#X#X#X#X#X#X#X#X#X#X#X#X#X#X#X#X#X#X#X#X#X#X#X#X#X#X#X#X#X#X#X#X#X#X#X#X#X#X#X#X#X#X#X#X#X#X#X#X#X#X#X#X#X#X#X#X#X#X#X#X#X#X#X#X#X#X#X#X#X#X#X#X#X#X#X#X#X#X#X#X#X#X#X#X#X#X#X#X#X#X#X#X#X#X#X#X#X#X#X#X#X#X#X#X#X#X#X#X#X#X#X#X#X#X#X#X#X#X#X#X#X#X#X#X#X#X#X#X#X#X#X#X#X#X#X#X#X#X#X#X#X#X#X#X#X#X#X#X#X#X#X#X#X#X#X#X#X#X#X#X#X#X#X#X#X#X#X#X#X#X#X#X#X#X#X#X#X#X#X#X#X#X#X#X#X#X#X#X#X#X#X#X#X#X#X#X",
"#X#X#X#X_.#X#XmX#X_.mX#X#X#XSX#X_.#X_.#XmX_.SX#XmX_.SXSX_.mXSX#XSX_.SXSX_._.SX$XSXSXSX$X`.$X$X$XSXDXFX@ FXFXFX(.DXDXDXDXDXDX`.$X$XDXDXDXDXDXDX$XDXFX(.DXSX`.DXDX$XSXSX`.8 DXDX`.8 `.DXDXDX` DXDX` DXDX` DX`.DX` FXGXFXDXFX6 FX6 2 GX/.2 ' DXFX' GXFX6 GXGXFX` 6 2 GXFXGX( 3 S GX5 5 $X' 2 ` DXDX` 5 6 / FX' 6 6 6 6 6 5 FXGX2 2 GX2 2 2 2 / / 2 2 2 6 ` DX5 ' 6 / 6 b hXqX4X0X0X0XhXb 5 / ] Z gXzXnXnXnXxXpXpXkXnXlXlXzXnXnXpXpXkXlXkXw.-.m.b.b.w.b.w.m.-.B.xXpXpXuXuX4X3X4X4X0X0XT.o.Y.C.V.c.c.c.b.m.b.w.w.c.v.V.% C.9.m.m.m.w.b.b.m.w.b.m.SX@X#X#X#X#X#X#X#X#X#X#X#X#X#X#X#X#X#X#X#X)._ 1XeXsX0XpXfXsXfXfX0XpXpXuXqXsXuXuXuX4XqXc.K 8.8.i.i.&.&.+.k sXzXzXpXxX1X_ #X#X#X#X#X#X#X#X#X#X#X#X#X#X#X#X#X#X#X#X#X#X#X#X#X#X% #X7XSX8.+.=.7.=.&.&.=.&.q.SXVX#X#X#X#X#X#X#X#X#X#X#X#X#X#X#X#X#X#X#X#X#X#X#X#X#X#X#X#X#X#X#X#X#X#X#X#X#X#X#X#X#X#X#X#X#X#X#X#X#X#X#X#X#X#X#X#X#X#X#X#X#X#X#X#X#X#X#X#X#X#X#X#X#X#X#X#X#X#X#X#X#X#X#X#X#X#X#X#X#X#X#X#X#X#X#X#X#X#X#X#X#X#X#X#X#X#X#X#X#X#X#X#X#X#X#X#X#X#X#X#X#X#X#X#X#X#X#X#X#X#X#X#X#X#X#X#X#X#X#X#X#X#X#X#X#X#X#X#X#X#X#X#X#X#X#X#X#X#X#X#X#X#X#X#X#X#X#X#X#X#X#X#X#X#X#X#X#X#X#X#X#X#X#X#X#X#X#X#X#X#X#X#X#X#X#X#X#X#X#X#X#X#X#X#X#X#X#X#X#X#X#X#X#X#X#X#X#X#X#X#X#X#X#X#X#X#X#X#X#X#X#X#X#X#X",
"#X#XSX#X#XmX_.#XSX#X#XSX#XSX#X#X#XmX#XmX#X_.SX#X#XSX#XSX#XSX_.SX_.SXSX#XSXmXSXSX_.SX$X`.o SX`.SX$X$X`.$XDX1XDXFX(.DX(.FXDX$Xo ] $XDXDXDXDXDXDXDX$XDXDXDX`.FX` $XSXSXDXDX] $X] DXDX$XDX` DXDXDX5 DXDX` @ DXSXDXFX' 5 `.SX5 FXFX6 GX5 DXGX3 GXGXGXGX6 FXFXFX@ FXGXGX6 DX(.6 2 HX/ 6 GX2 S GXDXDX8 8 8 GXGX5 5 ' ' 2 2 FXFX5 6 6 GX6 ' 6 / / 2 / 2 2 2 2 2 6 / / 6 GX6 ` 5 jXjXhXtX+ b ` DX6 3 C hXpXxX<XxXnXuXpXxXnXlXkXkXnXkXkXkXkXzXkX<X-.B.V.b.b.w.b.m.w.o.;XkXkXpX0X4X4X4X4X4XwXq o.C.Y.C.V.w.n.m.m.w.b.v.w.!.@X. A.q.m.m.m.m.b.b.m.b.b.w.` 7X#X#X#X#X#X#X#X#X#X#X#X#X#X#X#X#X#X#X#X#X#X_ _ _ aXqXpX0XuXfXfXuX0X0XpXpXuXuXuXuX0Xl 6.8.i.8.p.T &.@.k fXxXxXfXkXhXCX_ _ _ #XSX#X#X#X#X#X#X#X#X#X#X#X#X#X#X#X#X#X#X#X#X#X#X#XVX@X9.+.=.7.=.&.&.8.+.q.#X@X#X#X#X#X#X#X#X#X#X#X#X#X#X#X#X#X#X#X#X#X#X#X#X#X#X#X#X#X#X#X#X#X#X#X#X#X#X#X#X#X#X#X#X#X#X#X#X#X#X#X#X#X#X#X#X#X#X#X#X#X#X#X#X#X#X#X#X#X#X#X#X#X#X#X#X#X#X#X#X#X#X#X#X#X#X#X#X#X#X#X#X#X#X#X#X#X#X#X#X#X#X#X#X#X#X#X#X#X#X#X#X#X#X#X#X#X#X#X#X#X#X#X#X#X#X#X#X#X#X#X#X#X#X#X#X#X#X#X#X#X#X#X#X#X#X#X#X#X#X#X#X#X#X#X#X#X#X#X#X#X#X#X#X#X#X#X#X#X#X#X#X#X#X#X#X#X#X#X#X#X#X#X#X#X#X#X#X#X#X#X#X#X#X#X#X#X#X#X#X#X#X#X#X#X#X#X#X#X#X#X#X#X#X#X#X#X#X#X#X#X#X#X#X#X#X#X#X#X#X#X#X#X#X#X",
"#X#X#X#XSX#X% #X#X#XSX#X_.#XSX#XSX#X_.#XSX#X#XSX_.SX_.#XmXSX#XSXmXSX_.SXSXSXSX_.mXSX$XSXSXSX$XDXSX$XSX$XSXSX$XDXFXFXFX(.DX@ (.@ `.DX$XDXDXDX1X` DXDXDXDXDXFXDXSXSX5 ' DX`.SXDXFXDXDX8 DXDX8 DXDX` DXDXDXDXFXDXDX@ DXDXFXFXFXFX5 DXDX8 FXHX3 HXFXFXGXFX6 GXFX' 6 6 GXDXSXDXGXGX6 GX/ JX4 GX' 5 FX6 ( 2 5 FX8 DX/ 2 ' FX6 ' 6 6 / 6 FX6 6 / 2 6 6 / GX6 2 2 N = / 6 5 DX` V b B B b 5 6 6 6 / n & zXzXxXxXnXzXuXfXkXkXnXkXkXuXzXnXzXnXkXxX-.m.S.m.b.w.b.w.m.B.-.hXjXiXiXiXiXyX1X$XZX(.Y.H.L.L.Y.Y.V.m.w.b.w.;.#XCXVX7X` w.b.m.m.m.b.b.w.w.b.b.' BX#X#X#X#X#X#X#X#X#X#X#X#X#X#X#X#X#X#X#X#X#X_._.AX_ _ rXpXpXpXuXsXuXfXuXuXuXuXuXuX0X<X6.8.8.i.p.9.7.@.g.zXuXfXfXfXxXhXhXhXaXD AX#X#X#X#X#X#X#X#X#X#X#X#X#X#X#X#X#X#X#X#X#X#X#X#XBXB.3.K 7.7.=.=.7.+.w.7XAX#X#X#X#X#X#X#X#X#X#X#X#X#X#X#X#X#X#X#X#X#X#X#X#X#X#X#X#X#X#X#X#X#X#X#X#X#X#X#X#X#X#X#X#X#X#X#X#X#X#X#X#X#X#X#X#X#X#X#X#X#X#X#X#X#X#X#X#X#X#X#X#X#X#X#X#X#X#X#X#X#X#X#X#X#X#X#X#X#X#X#X#X#X#X#X#X#X#X#X#X#X#X#X#X#X#X#X#X#X#X#X#X#X#X#X#X#X#X#X#X#X#X#X#X#X#X#X#X#X#X#X#X#X#X#X#X#X#X#X#X#X#X#X#X#X#X#X#X#X#X#X#X#X#X#X#X#X#X#X#X#X#X#X#X#X#X#X#X#X#X#X#X#X#X#X#X#X#X#X#X#X#X#X#X#X#X#X#X#X#X#X#X#X#X#X#X#X#X#X#X#X#X#X#X#X#X#X#X#X#X#X#X#X#X#X#X#X#X#X#X#X#X#X#X#X#X#X#X#X#X#X#X#X#X",
"#X#X#X#X#X_.#XSX#X#X#X#XmX_._.SX#XSX#X_.#XSX#X_.mX_.mXSXSXSX_._.SXSXmXSXSX$XSXSXSXSXSXSXSX$XSXSXSX$XDXDX`.$X`.$XDXFXFX@ OXFXGXFXDXDXDXDXDXDXDXDXDXDXDX(.@ DX(.DXDXGXGXDXDXSXDXDXDX] $X] DXDXDXDXDXDXDXDX` 5 DXDX` ` DX` FX5 DXDX` ` ' 6 6 6 GXGX5 GXHX3 ( HXFX` FX6 6 FX' GX6 1XFXGX2 3 3 GXGX( 4 u GX5 5 DXFX2 6 ` 5 5 5 5 FX6 GX6 6 6 6 / 6 5 5 GX2 2 2 HX3 2 6 6 6 / 3 6 5 ` DXDX' 2 2 6 FXB X zXqXxXxXpX0X0XzXnXnXkXfXfXpXuXzXpXkXzXB.B.B.S.b.n.w.b.m.m.b.D.. _ ~._ _ _ D D ).@XSX#X(.e.S.S.V.w.b.n.V.BX+X_.#X#X@XY.b.m.m.m.m.b.b.b.w.q.R.+X#X#X#X#X#X#X#X#X#X#X#X#X#X#X#X#X#X#X#X#X#X#X#X#X_.D _ aXrXrXuXpXuXfXfXfXfXuXuXuX0XxX .8.8.i.p.9.7.@.l kX0X4X4XfXuXzXnXzXzXjX_ #X#X#X#X#X#X#X#X#X#X#X#X#X#X#X#X#X#X#X#X#X#X#X#X+X;.3.7.=.7.=.=.&.3.V.BX#X#X#X#X#X#X#X#X#X#X#X#X#X#X#X#X#X#X#X#X#X#X#X#X#X#X#X#X#X#X#X#X#X#X#X#X#X#X#X#X#X#X#X#X#X#X#X#X#X#X#X#X#X#X#X#X#X#X#X#X#X#X#X#X#X#X#X#X#X#X#X#X#X#X#X#X#X#X#X#X#X#X#X#X#X#X#X#X#X#X#X#X#X#X#X#X#X#X#X#X#X#X#X#X#X#X#X#X#X#X#X#X#X#X#X#X#X#X#X#X#X#X#X#X#X#X#X#X#X#X#X#X#X#X#X#X#X#X#X#X#X#X#X#X#X#X#X#X#X#X#X#X#X#X#X#X#X#X#X#X#X#X#X#X#X#X#X#X#X#X#X#X#X#X#X#X#X#X#X#X#X#X#X#X#X#X#X#X#X#X#X#X#X#X#X#X#X#X#X#X#X#X#X#X#X#X#X#X#X#X#X#X#X#X#X#X#X#X#X#X#X#X#X#X#X#X#X#X#X#X#X#X#X#X#X",
"#X#X#X#X#XmX_.#XSXSX#XSX#XmX#XSX_.SX#XmXSX_._.mX#X#X_.SX_.mX_.mXSX_._.SXSXSX_.SXSX$X_.SXSX$XSXSXSXo $XDXSXDXDX$X$XDXDX`.DX` FXGXFX(.FXFXDX`.$X(.DXDX(.@ `.$XDXDXFX(.FXDX8 DX6 DX$XSXSXDXDXDXDX] DXDXDXDX(.` DX` @ 5 (.5 DXDXDXDXFXGX6 FX` DX` ' 6 / / FX6 HXHXGX/ / HXGX6 ' GX6 FXFXGXHX2 6 / 2 HX3 2 GXFX2 3 GXDX5 DX8 ` 6 / 6 FX5 6 ' 6 6 ' 5 FX5 6 FXDXGX2 ( 2 ( 2 2 2 3 2 ' 5 5 2 : GX' ' ] # dXdXgXuX0X0X0XfXxXfXuXfXuXuXzXzXzXzXzXy -.B.S.w.n.b.b.b.m.b.S.#X@X#X#X#X#X#X#X#X#X+X+Xm.v.w.m.B.w.b.w.n.A.7X#X#X#XBXZ.q.m.m.m.m.b.b.b.w.q.;.BX#X#X#X#X#X#X#X#X#X#X#X#X#X#X#X#X#X#X#X#X#X#X#X#X#X#X#X_ _ _ $XrXuXkXpXpX0XuXfXfXuXxXy.8.8.i.i.0.8.8.nXkXuX4X4X0X0X0XzXnXzXgX).AX#X#X#X#X#X#X#X#X#X#X#X#X#X#X#X#X#X#X#X#X#X#X#X+X^ +.K =.7.=.=.&.3.C.+X#X#X#X#X#X#X#X#X#X#X#X#X#X#X#X#X#X#X#X#X#X#X#X#X#X#X#X#X#X#X#X#X#X#X#X#X#X#X#X#X#X#X#X#X#X#X#X#X#X#X#X#X#X#X#X#X#X#X#X#X#X#X#X#X#X#X#X#X#X#X#X#X#X#X#X#X#X#X#X#X#X#X#X#X#X#X#X#X#X#X#X#X#X#X#X#X#X#X#X#X#X#X#X#X#X#X#X#X#X#X#X#X#X#X#X#X#X#X#X#X#X#X#X#X#X#X#X#X#X#X#X#X#X#X#X#X#X#X#X#X#X#X#X#X#X#X#X#X#X#X#X#X#X#X#X#X#X#X#X#X#X#X#X#X#X#X#X#X#X#X#X#X#X#X#X#X#X#X#X#X#X#X#X#X#X#X#X#X#X#X#X#X#X#X#X#X#X#X#X#X#X#X#X#X#X#X#X#X#X#X#X#X#X#X#X#X#X#X#X#X#X#X#X#X#X#X#X#X#X#X#X#X#X#X#X",
"#X#X#X#X#X_.mX#X#XmX_.SXSX_.mX_._.mX_.SXSXSXmX_._.mX_.mX#X_.SXSX_.#XSXmXSX_.SXSX$XSXSXSX$XSXSXSXSX$XSXSXSX$XDX$XSX`.`.DX$XSX$X(.GX# OX(.(.FX@ FXDX`.DXDXSXDX(.FX(.@ FX(.DXFXGXDXSXSXFXFXDX8 SXDXFXDXDXDXDXDXDX@ ` (.5 5 DX5 5 DXFXFXFX] DXFX6 FX' FX5 DX] FXJX4 3 HXHX2 FX' GXGXFXFXFX2 / 6 FXGX2 GX2 ( 3 ) S 2 5 DX8 ` 6 ( HXFX5 ` FX6 6 6 6 6 ' ' 6 ' ' 6 DXDX6 2 2 2 2 2 2 / 6 / 6 2 / 6 DXB tXeXtXgXpXpXuXqXqXfXzXuXfXfXxXfXzXzXzXkXkXB.-.B.B.n.n.w.b.m.m.b.P +X_.#X#X#X#X#X_.VX+XY.v.n.g.n.w.w.b.m.b.B._.@X#X#X7X` w.m.m.m.B.m.b.b.s.n.Y.@X#X#X#X#X#X#X#X#X#X#X#X#X#X#X#X#X#X#X#X#X#X#X#X#X#X#X#X_.#X#X_ _ 1XtXrXsXqXuXpXpXpXfXT 6.i.i.i.0.i.6.MXkXnXzX4X4X4X4XuXxXzXgXAX).#X#X#X#X#X#X#X#X#X#X#X#X#X#X#X#X#X#X#X#X#X#X#X7X_.9.7.8.7.7.=.&.3.C.+X#X#X#X#X#X#X#X#X#X#X#X#X#X#X#X#X#X#X#X#X#X#X#X#X#X#X#X#X#X#X#X#X#X#X#X#X#X#X#X#X#X#X#X#X#X#X#X#X#X#X#X#X#X#X#X#X#X#X#X#X#X#X#X#X#X#X#X#X#X#X#X#X#X#X#X#X#X#X#X#X#X#X#X#X#X#X#X#X#X#X#X#X#X#X#X#X#X#X#X#X#X#X#X#X#X#X#X#X#X#X#X#X#X#X#X#X#X#X#X#X#X#X#X#X#X#X#X#X#X#X#X#X#X#X#X#X#X#X#X#X#X#X#X#X#X#X#X#X#X#X#X#X#X#X#X#X#X#X#X#X#X#X#X#X#X#X#X#X#X#X#X#X#X#X#X#X#X#X#X#X#X#X#X#X#X#X#X#X#X#X#X#X#X#X#X#X#X#X#X#X#X#X#X#X#X#X#X#X#X#X#X#X#X#X#X#X#X#X#X#X#X#X#X#X#X#X#X#X#X#X#X#X#X#X#X",
"#X#X#X#X#X#X#X#X_.#XmX_.SXSXSXSX#X#XSXmXSXmXSXSX#X_.SX_.SXSX#X_.mXSXSXSX_.mXSX$XSXSXSXSXSXSXSX$X$XSXSXSXSX$XSXSXSX`.DXDXDX`.o 8 @ ' FXGXGX# ' FXFXDXDXDX(.@ DXDXDXDX` @ FXFXFXFXDXFXHXGXDX`.SX` FXDX8 8 `.DXDX` 5 DXDXDX` FX` (.5 5 DXDX` FX' 5 FX5 FXDX5 GXm ( / GXGX/ 2 ) 3 HX6 5 ' GXGX6 FXGX2 GX6 / 2 3 4 3 GX/ 2 u S GX6 6 ` 8 6 3 GX5 6 6 6 6 6 / 6 ' 5 FXFX6 6 6 6 6 / 6 2 2 2 / 6 6 ' b hX4XfXxXxXuXqXsXqXpXpXuXuXuXpXpXkXlXlXlXxXS.B.V.S.w.q.b.w.b.m.b.V.AX@XmX#X#X#XmX#X. ( v.n.n.b.b.w.w.m.m.m.V.SXVX#X#XAX@XS.b.m.B.m.B.m.w.w.n.S.VXAX#X#X#X#X#X#X#X#X#X#X#X#X#X#X#X#X#X#X#X#X#X#X#X#X#X#X#X#X#X#X#XD _ _ D ).$XrXgXqXpXv. .8.i.i.a.p.q.nXzXnXnXkXkXkXuXuXnXnXhXZXAX#X#X#X#X#X#X#X#X#X#X#X#X#X#X#X#X#X#X#X#X#X#X#X#XBXH.+.8.K =.=.=.3.;.BX#X#X#X#X#X#X#X#X#X#X#X#X#X#X#X#X#X#X#X#X#X#X#X#X#X#X#X#X#X#X#X#X#X#X#X#X#X#X#X#X#X#X#X#X#X#X#X#X#X#X#X#X#X#X#X#X#X#X#X#X#X#X#X#X#X#X#X#X#X#X#X#X#X#X#X#X#X#X#X#X#X#X#X#X#X#X#X#X#X#X#X#X#X#X#X#X#X#X#X#X#X#X#X#X#X#X#X#X#X#X#X#X#X#X#X#X#X#X#X#X#X#X#X#X#X#X#X#X#X#X#X#X#X#X#X#X#X#X#X#X#X#X#X#X#X#X#X#X#X#X#X#X#X#X#X#X#X#X#X#X#X#X#X#X#X#X#X#X#X#X#X#X#X#X#X#X#X#X#X#X#X#X#X#X#X#X#X#X#X#X#X#X#X#X#X#X#X#X#X#X#X#X#X#X#X#X#X#X#X#X#X#X#X#X#X#X#X#X#X#X#X#X#X#X#X#X#X#X#X#X#X#X#X#X#X",
"#X#X#X#X#X#X#XmX#X_.#X#X_.mXSXSXSXSX_.#X_._.mXSXSXmXSXmXSXSXSX_.SX_.SXSX_.SXSXSXSX_.SX$XSXSXSX$X] $XSX$X$XSXSX$X`.DXDXDXDXDX`.DXDX1X`.DXFXFXGXOX' OXGXFX@ DX] DX`.DXFX` FXDX(.FX5 FXFX' @ DXDX6 ` DX$XSX8 DXDXDXDXDXDXDXDX5 FXDX(.5 5 (.FXFX5 (.DXDXFX6 2 GXFXDX5 6 6 6 ) 3 / HX) 6 6 GXGX2 6 / 2 / GXFXGX/ HX3 2 3 3 4 S HX' FXDX6 3 2 ` 5 FX5 5 GX3 6 6 6 6 6 6 6 6 ' ' 6 2 ( GX6 2 2 2 2 2 V hXqXsXxXxXfX0X4XuXuXuXpXuXpXuXkXpXxXX + B Z.m.B.S.H.w.n.b.b.m.m.b.R.BX#X#X#X#X_.+X' g.n.b.b.w.w.w.m.B.m.b.C.VX#X#X#X#XBXP b.m.m.B.m.B.b.b.b.B.$X@X#X#X#X#X#X#X#X#X#X#X#X#X#X#X#X#X#X#X#X#X#X#X#X#X#X#X#X#X#X#X#X#X#X#XAX)._ _ _ ZXiXe.@.8.i.p.0.a.g.kXzXnXzXcXcXcXpXpXnXkXhX_ _ ).mX#X#X#X#X#X#X#X#X#X#X#X#X#X#X#X#X#X#X#X#X#X#X+X/ +.=.8.7.=.=.*.Q +X#X#X#X#X#X#X#X#X#X#X#X#X#X#X#X#X#X#X#X#X#X#X#X#X#X#X#X#X#X#X#X#X#X#X#X#X#X#X#X#X#X#X#X#X#X#X#X#X#X#X#X#X#X#X#X#X#X#X#X#X#X#X#X#X#X#X#X#X#X#X#X#X#X#X#X#X#X#X#X#X#X#X#X#X#X#X#X#X#X#X#X#X#X#X#X#X#X#X#X#X#X#X#X#X#X#X#X#X#X#X#X#X#X#X#X#X#X#X#X#X#X#X#X#X#X#X#X#X#X#X#X#X#X#X#X#X#X#X#X#X#X#X#X#X#X#X#X#X#X#X#X#X#X#X#X#X#X#X#X#X#X#X#X#X#X#X#X#X#X#X#X#X#X#X#X#X#X#X#X#X#X#X#X#X#X#X#X#X#X#X#X#X#X#X#X#X#X#X#X#X#X#X#X#X#X#X#X#X#X#X#X#X#X#X#X#X#X#X#X#X#X#X#X#X#X#X#X#X#X#X#X#X#X#X#X",
"#X#X#X#X#XSX#X_.#XmX_.mX#X#X_.$XSX$XSXSXSXSX_.SXSXSX$XSXSX_.SXmX_.mX_.#XSXSX$XSX#XSXSXSXSXSXSX$XSXSXSX] $XSXSXSXDX$XSX$XSXDXDX$X`.$XDXDXSXSXDX' GXGXGXGX' DXFX' @ DXDXDXDXDX(.DX(.FXFXFX` DXFXGXDXSXSXFXGXDXDX`.8 ' FXDXDXDX5 5 DX5 FX5 ` ` 5 5 DXDXFXGX6 5 DXDXFX6 6 GX2 ' FX` JX4 4 3 /.3 GXFX' GX6 6 HXOX6 HXFX' GX( 4 3 2 ( 3 u S FX5 DXSX8 DXGX3 6 ' ' 6 / 3 2 6 FX6 6 / 6 ' (.FXFX/ 2 2 a + sXqXsXxXfXuX4X4XuXpXpXuXzXuXuXpXhXB b 8 6 B.B.S.C.V.n.b.w.b.m.m.B._.@X_.#X#X@XDXn.c.b.w.w.w.w.b.w.B.V.m.Y.VXAX#X#X#X@XSXm.s.m.B.m.B.m.w.b.w.` 7X#X#X#X#X#X#X#X#X#X% #X#X#X#X#X#X#X#X#X#X#X#X#X#X#X#X#X#X#X#X#X#X#X#X#X#X#X#X#X).. E.&.i.i.i.p.-.<XkXzXnXzXkXlXlXkXzXnXkXuXdXiXD _ D SX#X#X#X#X#X#X#X#X#X#X#X#X#X#X#X#X#X#X#X#X7X_.T @.8.7.=.T *.Q.BX#X#X#X#X#X#X#X#X#X#X#X#X#X#X#X#X#X#X#X#X#X#X#X#X#X#X#X#X#X#X#X#X#X#X#X#X#X#X#X#X#X#X#X#X#X#X#X#X#X#X#X#X#X#X#X#X#X#X#X#X#X#X#X#X#X#X#X#X#X#X#X#X#X#X#X#X#X#X#X#X#X#X#X#X#X#X#X#X#X#X#X#X#X#X#X#X#X#X#X#X#X#X#X#X#X#X#X#X#X#X#X#X#X#X#X#X#X#X#X#X#X#X#X#X#X#X#X#X#X#X#X#X#X#X#X#X#X#X#X#X#X#X#X#X#X#X#X#X#X#X#X#X#X#X#X#X#X#X#X#X#X#X#X#X#X#X#X#X#X#X#X#X#X#X#X#X#X#X#X#X#X#X#X#X#X#X#X#X#X#X#X#X#X#X#X#X#X#X#X#X#X#X#X#X#X#X#X#X#X#X#X#X#X#X#X#X#X#X#X#X#X#X#X#X#X#X#X#X#X#X#X#X#X#X#X",
"#X#X#X#X#X#X#XmX#X_.#X#XmX_.mX#X_.SX$X$X$X$XSXmX_.$XSX$XSX$XSXSX_.SXSX_.SXSX_.SXSXSXSXSX_.SX$XSXSXSX$X$XSXSXSX`.DXSXSXSXSX`.`.] o DX@ DX$X`.DXDXFXGX/ GXGXGXHXHXFX(.DX` DXFXFX5 FX` ` DXDX(.FX' ` 8 DX( ( 5 DX8 DXFXFXDXDXDXDXDXDX` ` FXFX` DX(.FX' FX5 5 DX` ' GX6 GX6 ` 5 5 DX/ 4 4 3 HXHXGX( 4 3 ( GX/ 6 2 / FX$XFX3 ( GXGX3 ) u S 6 6 6 6 3 M 3 2 ' 5 DX5 2 S 2 FX6 6 / 6 2 2 / 6 6 6 / GXOXb + fXfXsXfXuX4X0X0XpXpXpXuXuXuXpXoXB 6 6 FXY.m.V.S.S.b.n.b.b.m.m.b.P +X@X#X#X+XP c.n.b.w.m.b.V.S.b.B.B.T.Y.@XAX#X#X#X#X7X;.b.m.m.B.m.B.m.b.b.!.BX#X#X#X#X#X#X#X#X#X#X#X#X#X#X#X#X#X#X#X#X#X#X#X#X#X#X#X#X#X#X#X#X#X#X#X#X#X#X#X#X@XmX9.@.i.i.a.a.<XkXkXzXnXkXlXkXpXzXvXpXuXzXzXdXjXAX_ AXSX#X#X#X#X#X#X#X#X#X#X#X#X#X#X#X#X#X#XAX7X-.+.8.K 7.=.T `.7X#X#X#X#X#X#X#X#X#X#X#X#X#X#X#X#X#X#X#X#X#X#X#X#X#X#X#X#X#X#X#X#X#X#X#X#X#X#X#X#X#X#X#X#X#X#X#X#X#X#X#X#X#X#X#X#X#X#X#X#X#X#X#X#X#X#X#X#X#X#X#X#X#X#X#X#X#X#X#X#X#X#X#X#X#X#X#X#X#X#X#X#X#X#X#X#X#X#X#X#X#X#X#X#X#X#X#X#X#X#X#X#X#X#X#X#X#X#X#X#X#X#X#X#X#X#X#X#X#X#X#X#X#X#X#X#X#X#X#X#X#X#X#X#X#X#X#X#X#X#X#X#X#X#X#X#X#X#X#X#X#X#X#X#X#X#X#X#X#X#X#X#X#X#X#X#X#X#X#X#X#X#X#X#X#X#X#X#X#X#X#X#X#X#X#X#X#X#X#X#X#X#X#X#X#X#X#X#X#X#X#X#X#X#X#X#X#X#X#X#X#X#X#X#X#X#X#X#X#X#X#X#X#X#X#X",
"#X#X#X#X#X#X_.#X_.mX#X_.#X#X_.mX#X_.SXSX$X$XSX$XSX_.SXSXSX$X$X_.SX$XSXSXmX_.SX#XSXSXSXSXSX$XSXSXSX$XSXSXSXSX$XDX$XSXSX$XDXSXSXSXDXDX` DXDX@ DXDXDXFXDX@ ' GX/ HXGXFXFXGX' ` DX`.@ (.@ (.(.# FX(.@ FXGXGXGXFXDXSXFX6 DXDX8 SXDX` @ DXDXDXDX` DX@ FXFX5 ` FXFXFXFXFX' 5 DXFX' FX2 2 GXGX2 2 @ / 4 S 3 KXHX5 5 / GXGX6 / HX2 FXFXGX3 3 u 3 GX3 S 1 A 3 ' FX5 DX6 3 2 FX5 6 5 ' 6 / 6 6 6 6 6 6 6 / ' b hXuXfXqXqXqXuXpXuXuXuXfXzXpXhXB DX' ' 5 A.m.V.S.S.V.b.b.b.w.m.m.V.6 o ).@X+XZ.v.n.b.w.w.n.T.B.m.e.T.b.` 7X#X#X#X#X#X7X_.m.m.B.B.m.V.m.w.q.R.+X#X#X#X#X#X#X#X#X#X#X#X#X#X#X#X#X#X#X#X#X#X#X#X#X#X#X#X#X#X#X#X#X#X#X#X#X#X#X#X#X#X7Xs.7.i.i.p.-.{.lXkXzXkXzXzXkXpXpXpXuXfXuXuXuXzXgXaX_ _ #X#X#X#X#X#X#X#X#X#X#X#X#X#X#X#X#X#X#XBXC.+.8.8.7.=.q.DX7X#X#X#X#X#X#X#X#X#X#X#X#X#X#X#X#X#X#X#X#X#X#X#X#X#X#X#X#X#X#X#X#X#X#X#X#X#X#X#X#X#X#X#X#X#X#X#X#X#X#X#X#X#X#X#X#X#X#X#X#X#X#X#X#X#X#X#X#X#X#X#X#X#X#X#X#X#X#X#X#X#X#X#X#X#X#X#X#X#X#X#X#X#X#X#X#X#X#X#X#X#X#X#X#X#X#X#X#X#X#X#X#X#X#X#X#X#X#X#X#X#X#X#X#X#X#X#X#X#X#X#X#X#X#X#X#X#X#X#X#X#X#X#X#X#X#X#X#X#X#X#X#X#X#X#X#X#X#X#X#X#X#X#X#X#X#X#X#X#X#X#X#X#X#X#X#X#X#X#X#X#X#X#X#X#X#X#X#X#X#X#X#X#X#X#X#X#X#X#X#X#X#X#X#X#X#X#X#X#X#X#X#X#X#X#X#X#X#X#X#X#X#X#X#X#X#X#X#X#X#X#X#X#X#X#X",
"#X#X#X#X#X#X% #X#X_.#XmX_.mX#X_.mX#X#X_.SXSX$X`.$Xo SX$X_.SXSXSX$X`.SXSXSXSXSXSXSXSX#XSXSXSX$XSXSX$X$XSXSX$X$X] SXSX$XDX`.SXSX$X`.DX$XSX`.DXDXSXDXDXDXDXDXDXDX6 HXGXGXGXFXFXDX(.6 FXFX@ FX(.DXFXFXFXFX' GXFXDX` HX6 ] 8 SXDXFX5 ` DX8 5 FXDX` 5 FX5 (.@ FX' FX5 5 FX5 DX@ ' 2 2 ' 5 FX5 ' 2 2 3 / 2 HXKX3 4 JX3 3 2 2 / / GX6 FXHXJX3 HX' XX3 4 ) / 2 6 6 ( 3 HX' 5 ` DX` 5 / 6 FX6 6 6 / 6 2 2 6 8 ` O dXuXsXsXfXfXfXuXpXuXX 2 b ` DX5 / 2 6 S.B.V.S.S.V.b.b.b.m.m.m.S.3 : SX@Xe.c.n.b.w.w.n.n.w.m.T.b.!.BX#X#X#X#X#X#X#XBX;.n.B.B.m.B.B.m.q.;.7X#X#X#X#X#X#X#X#X#X#X#X#X#X#X#X#X#X#X#X#X#X#X#X#X#X#X#X#X#X#X#X#X#X#X#X#X#X#X% #X@X#Xq.@.i.i.y.a.X sXzXzXkXkXnXzXkXpXpX0XuXfXqXuXqXuXzXhXSX_ D #X#X#X#X#X#X#X#X#X#X#X#X#X#X#X#X#X+XQ +.8.8.7.&.w.#XVX#X#X#X#X#X#X#X#X#X#X#X#X#X#X#X#X#X#X#X#X#X#X#X#X#X#X#X#X#X#X#X#X#X#X#X#X#X#X#X#X#X#X#X#X#X#X#X#X#X#X#X#X#X#X#X#X#X#X#X#X#X#X#X#X#X#X#X#X#X#X#X#X#X#X#X#X#X#X#X#X#X#X#X#X#X#X#X#X#X#X#X#X#X#X#X#X#X#X#X#X#X#X#X#X#X#X#X#X#X#X#X#X#X#X#X#X#X#X#X#X#X#X#X#X#X#X#X#X#X#X#X#X#X#X#X#X#X#X#X#X#X#X#X#X#X#X#X#X#X#X#X#X#X#X#X#X#X#X#X#X#X#X#X#X#X#X#X#X#X#X#X#X#X#X#X#X#X#X#X#X#X#X#X#X#X#X#X#X#X#X#X#X#X#X#X#X#X#X#X#X#X#X#X#X#X#X#X#X#X#X#X#X#X#X#X#X#X#X#X#X#X#X#X#X#X#X#X#X#X#X#X#X#X#X#X",
"#X#X#X#X#X#X#X_.#XmX_.#XmX#XSX#X_.mX_.SX#X_.SX$X$XDX`.`.$XSX$XSXSX$X$XSX$XSX_._.SXSXSXSXSXSXSXSXSXSXSXSXSX] $X$X$XSX`.$XSX$XSXDXo $X8 SX$XDXDX$X`.1X` FXDX`.$XDXFX/ ( GXOXGXGXHXGX(.DXDX5 FXDXFXFX' FXFXFXFXFX' HXGX`.SX5 4 2 DXDX`.DXGXFX` @ 5 ` DX5 5 FX5 FXFX5 DXFXFX' # ' 6 5 DX5 6 / / / GX@ FX` 2 u u ) HX4 ( 6 GX2 2 / FXHX2 ( ( 2 6 GX2 3 3 3 3 3 u u 6 5 5 DX8 DX6 3 / ' FX5 6 ' / 2 6 FX' 5 Z , sXuXuXuXuXpXpXpXdXV a 3 3 / 2 2 3 GXZ.B.B.V.H.C.V.b.b.m.m.m.S.M 4 > A c.n.b.b.b.n.g.b.w.b.n.!.+X#X#X#X#X#X#X#X#X7X] m.w.m.B.m.V.m.n.Y.@XAX#X#X#X#X#X#X#X#X#X#X#X#X#X#X#X#X#X#X#X#X#X#X#X#X#X#X#X#X#X#X#X#X#X#X#X#X#X#X#X+X;.+.8.i.i.i.6.~ . iXlXzXzXzXzXzXxXzXuX0X0XuXqXfXqXuXpXfXhXSX_ mX#X#X#X#X#X#X#X#X#X#X#X#X#X#X#XBXW.8.K 8.K +.V.+X#X#X#X#X#X#X#X#X#X#X#X#X#X#X#X#X#X#X#X#X#X#X#X#X#X#X#X#X#X#X#X#X#X#X#X#X#X#X#X#X#X#X#X#X#X#X#X#X#X#X#X#X#X#X#X#X#X#X#X#X#X#X#X#X#X#X#X#X#X#X#X#X#X#X#X#X#X#X#X#X#X#X#X#X#X#X#X#X#X#X#X#X#X#X#X#X#X#X#X#X#X#X#X#X#X#X#X#X#X#X#X#X#X#X#X#X#X#X#X#X#X#X#X#X#X#X#X#X#X#X#X#X#X#X#X#X#X#X#X#X#X#X#X#X#X#X#X#X#X#X#X#X#X#X#X#X#X#X#X#X#X#X#X#X#X#X#X#X#X#X#X#X#X#X#X#X#X#X#X#X#X#X#X#X#X#X#X#X#X#X#X#X#X#X#X#X#X#X#X#X#X#X#X#X#X#X#X#X#X#X#X#X#X#X#X#X#X#X#X#X#X#X#X#X#X#X#X#X#X#X#X#X#X#X#X#X",
"#X#X#X#X#XSX#X#X#X_.mX#X#X_.#X_.mX#XSX#XSXSX#X_.SX$X$XDXDX`.`.SX_.SXSXSX`.$X_.o $XSXSX$XSX_.SXSXSX$XSXSXSX$XSXSXSX$Xo SXSXSX`.DXDXSXSX$XDX`.$X] DXDXFX@ @ FXDXDXDXFX' FX6 / 2 HXHX# (.FXGXFXFX5 DX@ DX` FXFX' 6 GX6 5 DX2 ) 2 ` DX8 FXGX5 DXDXDXDXFX5 (.FX5 5 5 5 FX' FXFX' FXFX@ `.DXGX2 6 6 5 5 5 5 6 4 3 3 HX3 ( 3 1 JXJXHX6 / 6 3 HXGXGXGXGX( 2 GX) 3 4 u 3 6 FX2 ) 4 4 JX2 6 5 DX' GX3 2 ' ' 6 6 N n & dXdXhXhXjXjX+ V N 2 2 / 2 6 FX6 6 m V.B.S.S.H.S.m.b.b.m.m.B.;.2 > n.c.b.b.b.n.g.n.n.n.n.Q.. @X#X#X#X#X#X#X#X#X#X+XZ.0.m.B.B.B.B.n.V.VXVX#X#X#X#X#X#X#X#X#X#X#X#X#X#X#X#X#X#X#X#X#X#X#X#X#X#X#X#X#X#X#X#X#X#X#X#X#X#X#XBXs.*.i.8.i.i.@.K.. $XkXlXpXzXzXzXzXzXxXzXuX0X0XqXqXfX4X0XpXgXD _ #XmX#X#X#X#X#X#X#X#X#X#X#X#X#X7X` 8.8.8.8.3.m.BXAX#X#X#X#X#X#X#X#X#X#X#X#X#X#X#X#X#X#X#X#X#X#X#X#X#X#X#X#X#X#X#X#X#X#X#X#X#X#X#X#X#X#X#X#X#X#X#X#X#X#X#X#X#X#X#X#X#X#X#X#X#X#X#X#X#X#X#X#X#X#X#X#X#X#X#X#X#X#X#X#X#X#X#X#X#X#X#X#X#X#X#X#X#X#X#X#X#X#X#X#X#X#X#X#X#X#X#X#X#X#X#X#X#X#X#X#X#X#X#X#X#X#X#X#X#X#X#X#X#X#X#X#X#X#X#X#X#X#X#X#X#X#X#X#X#X#X#X#X#X#X#X#X#X#X#X#X#X#X#X#X#X#X#X#X#X#X#X#X#X#X#X#X#X#X#X#X#X#X#X#X#X#X#X#X#X#X#X#X#X#X#X#X#X#X#X#X#X#X#X#X#X#X#X#X#X#X#X#X#X#X#X#X#X#X#X#X#X#X#X#X#X#X#X#X#X#X#X#X#X#X#X#X#X#X#X",
"#X#X#X#X#X#X#X#XmX#X#X_.mX#XSXSX#X_.#XmX#X_.SXmX#X_.SX$X$XDXDXDX$X$X$XSXSX$XSXDXDXSX$XSXSXSXSXSXSXSXSX$XSXSXSXSX$XSX] $XSX$XDX`.SX$X`.DXDXSXSXDXDXDXDXDX`.` (.DXDXDX(.DXDXDX(.FXGX2 GX/.HXGXFXDXDX(.DXFX' FX6 FX(.6 OX' OXGX/ FXDX` 2 GXDXDX] ] 5 FXDX5 ` 5 (.DXDXFX6 FX5 ' FX5 ' FX6 6 ' FX` FX/ 6 2 3 GX/ 2 ( 2 2 3 4 ) ) u ( 5 / ( 2 2 2 HX3 3 / FXGX3 ) 4 ) ( 3 3 S q u / 6 6 ` DX6 3 HXFXFX5 6 6 5 6 n B b b B B b ~ 6 6 6 6 / 2 2 2 HX2 2 ;.B.B.S.S.H.V.w.b.m.m.B.S.: S n.n.w.w.b.n.n.b.n.c.Y.VXFX$XBX@X#X#X#X#X#X#X#XBX' b.m.m.B.B.V.m.V.AX#X#X#X#X#X#X#X#X#X#X#X#X#X#X#X#X#X#X#X#X#X#X#X#X#X#X#X#X#X#X#X#X#X#X#X#X#X#X#XVX7Xn.+.q.8.i.i.6.-.VXCXAXgXlXkXpXzXuXuXzXxXxXzXuX0X4XqXsXuXqXfXgXaX_ AX#X#X#X#X#X#X#X#X#X#X#X#X#XBXP 7.6.8.8.+.9.mX@X#X#X#X#X#X#X#X#X#X#X#X#X#X#X#X#X#X#X#X#X#X#X#X#X#X#X#X#X#X#X#X#X#X#X#X#X#X#X#X#X#X#X#X#X#X#X#X#X#X#X#X#X#X#X#X#X#X#X#X#X#X#X#X#X#X#X#X#X#X#X#X#X#X#X#X#X#X#X#X#X#X#X#X#X#X#X#X#X#X#X#X#X#X#X#X#X#X#X#X#X#X#X#X#X#X#X#X#X#X#X#X#X#X#X#X#X#X#X#X#X#X#X#X#X#X#X#X#X#X#X#X#X#X#X#X#X#X#X#X#X#X#X#X#X#X#X#X#X#X#X#X#X#X#X#X#X#X#X#X#X#X#X#X#X#X#X#X#X#X#X#X#X#X#X#X#X#X#X#X#X#X#X#X#X#X#X#X#X#X#X#X#X#X#X#X#X#X#X#X#X#X#X#X#X#X#X#X#X#X#X#X#X#X#X#X#X#X#X#X#X#X#X#X#X#X#X#X#X#X#X#X#X#X#X#X",
"#X#X#X#X#X_.#X#X_.#X% #X_.#X#X#XSX#XSX_.SX#X_.SX_.mXSXSXSX$XDXDXDXDXDX$X$X$X$X$X`.$X$X`.SXSXSX$XSXSXSXSX$XSXSXSX`.SXSXSXSX$XDX$XSX$XDXDXSX`.SXDXDX`.`.DX$XDXFXDXDXDXDX(.DXDXDXDXDXGXHXHXXX/ GXGX2 / @ FX` DXOXDX# 6 FX# 6 6 6 FXFX' 3 ' 8 DXSX6 GX` DXDXDXFX6 DX` FX' 5 ` 5 FX6 ' FX6 ' 6 5 DX' 2 HX( 6 5 5 5 ' 2 2 M 4 2 / 4 1 KX1 JX4 3 2 2 2 ( HX6 6 2 GX3 2 GX3 HX3 JX2 2 / FXFXS 4 2 6 5 5 DXDX5 ( 4 FX' 6 6 6 6 6 ' 6 6 FXDX6 / 2 2 2 2 GX2 S.B.V.S.H.H.B.w.b.m.m.V.Y.e.n.w.m.b.n.b.b.n.n.e.4 > c S 2 DXAX@X@X#XAX#X#XAX@XC.b.m.B.B.B.B.Y.#XVX#X#X#X#X#X#X#X#X#X#X#X#X#X#X#X#X#X#X#X#X#X#X#X#X#X#X#X#X#X#X#X#X#X#X#X#X#X_.BXDX7.7.i.i.8.i.8.0.`.@X_ _ dXkXlXpXzXzXuXzXzXzXzXfXpXuXqXqX0XqXpXfXyX_ D mX#X#X#X#X#X#X#X#X#X#X#X+XC.7.8.8.8.K =.' +X#X#X#X#X#X#X#X#X#X#X#X#X#X#X#X#X#X#X#X#X#X#X#X#X#X#X#X#X#X#X#X#X#X#X#X#X#X#X#X#X#X#X#X#X#X#X#X#X#X#X#X#X#X#X#X#X#X#X#X#X#X#X#X#X#X#X#X#X#X#X#X#X#X#X#X#X#X#X#X#X#X#X#X#X#X#X#X#X#X#X#X#X#X#X#X#X#X#X#X#X#X#X#X#X#X#X#X#X#X#X#X#X#X#X#X#X#X#X#X#X#X#X#X#X#X#X#X#X#X#X#X#X#X#X#X#X#X#X#X#X#X#X#X#X#X#X#X#X#X#X#X#X#X#X#X#X#X#X#X#X#X#X#X#X#X#X#X#X#X#X#X#X#X#X#X#X#X#X#X#X#X#X#X#X#X#X#X#X#X#X#X#X#X#X#X#X#X#X#X#X#X#X#X#X#X#X#X#X#X#X#X#X#X#X#X#X#X#X#X#X#X#X#X#X#X#X#X#X#X#X#X#X#X#X#X",
"#X#X#X#X#X#X#X#XmX#X_.mX#X#XSX#X#XSX#XSX#XmXSX#XSX_.SXSXSX_.$X$XDXDX(.DXDXDXSXSX$XSX$XDX`.SX$X`.$XSXSXSXSXSX$XSX$X$XSXSX$X] $XSX] SX`.`.SX$XDXDXDXSXSXSXDXDX`.SX`.FX6 FXDXFXFXFX5 5 GX( GXHXHXHXHX/.FXFXFX' FXFX' FX' FX` FXFXFX(.FX2 GXDXSXGXu 3 ` 5 DX8 GXHX5 ` 5 5 ' FXDXFX6 6 ' 5 5 FX6 # ' 6 GX6 FX5 ' 6 GX2 2 2 2 5 6 ` 3 1 1 JXJX1 3 6 3 HX3 2 HX/ 6 ( 3 2 6 GX3 3 ) 3 ( 3 4 A u GX' 5 DX8 8 8 3 2 5 6 6 / N 2 2 2 6 ' ' 5 6 ' FX6 6 GX5 @ ;.B.S.S.S.H.C.B.b.w.m.V.V.b.n.b.w.n.g.n.n.n.n.> : > > S c c S 2 SX#X#X@X#X#XBX] m.m.m.m.B.m.Y.SX).#X#X#X#X#X#X#X#X#X#X#X#X#X#X#X#X#X#X#X#X#X#X#X#X#X#X#X#X#X#X#X#X#X#X#X#X#X#X+XS.3.8.=.i.8.i.i.6.!.BXmXZX_ aXdXpXkXkXuXuXzXuXuXuXxXzXzXuXuX4XqXfXfXjXD ZXSX#X#X#X#X#X#X#X#X#X#X7XS.K 8.i.8.=.+.Z.+X#X#X#X#X#X#X#X#X#X#X#X#X#X#X#X#X#X#X#X#X#X#X#X#X#X#X#X#X#X#X#X#X#X#X#X#X#X#X#X#X#X#X#X#X#X#X#X#X#X#X#X#X#X#X#X#X#X#X#X#X#X#X#X#X#X#X#X#X#X#X#X#X#X#X#X#X#X#X#X#X#X#X#X#X#X#X#X#X#X#X#X#X#X#X#X#X#X#X#X#X#X#X#X#X#X#X#X#X#X#X#X#X#X#X#X#X#X#X#X#X#X#X#X#X#X#X#X#X#X#X#X#X#X#X#X#X#X#X#X#X#X#X#X#X#X#X#X#X#X#X#X#X#X#X#X#X#X#X#X#X#X#X#X#X#X#X#X#X#X#X#X#X#X#X#X#X#X#X#X#X#X#X#X#X#X#X#X#X#X#X#X#X#X#X#X#X#X#X#X#X#X#X#X#X#X#X#X#X#X#X#X#X#X#X#X#X#X#X#X#X#X#X#X#X#X#X#X#X#X#X#X#X#X#X#X",
"#X#X#X#X#X#X% _.#XSX#X#XmX_.#XmX_.#XmX_._.SXSXmX_.mX_.mXSXSX#XSXSX$XDXDX1X` DX$XDX$XSXSXDX$XDXDX$XSX$X$XSXSXSXSXSXSXSX`.o $XSXSXSXDXDXSXSX$XDXDX`.SX$XDX` DXSXSXDX5 FXDXDXFXFXFXDXDXFXFX(.6 2 ( HXJX2 GXGXHX/ FX5 DX@ ' @ FXFX' 6 6 OX6 5 FX/ 3 3 ' FX8 FX2 ' 5 DXDXDXFXFX5 5 FXFXFX5 5 FX6 / 6 ' ' 6 FX(.6 2 2 2 6 ' FX' 6 6 2 S 4 4 S JX2 4 y S 4 4 6 GX6 2 HXGX(.6 ( 3 3 HX2 3 ) S u 2 6 6 FX/ ) 4 ( GX6 ' 5 ` 5 3 u ( 6 6 6 / 6 ' 6 6 / 6 6 6 m V.B.S.S.S.H.C.m.b.m.B.S.m.b.b.b.n.c.g.n.c.n.c : 4 M M > S u u 2 ' 6 @ #X@X@X7XY.0.m.B.m.m.S.SXVX#X#X#X#X#X#X#X#X#X#X#X#X#X#X#X#X#X#X#X#X#X#X#X#X#X#X#X#X#X#X#X#X#X#X#X#X#X7XDX8.7.8.7.8.8.8.i.@.C.BX#X_.AX_ _ SXtXuXkXpXuXuXzXuXzXfXfXxXfXuXfXsXfXpXhX_ D mX#X#X#X#X#X#X#X#XVX#Xs.8.8.i.8.8.3.S.BX#X#X#X#X#X#X#X#X#X#X#X#X#X#X#X#X#X#X#X#X#X#X#X#X#X#X#X#X#X#X#X#X#X#X#X#X#X#X#X#X#X#X#X#X#X#X#X#X#X#X#X#X#X#X#X#X#X#X#X#X#X#X#X#X#X#X#X#X#X#X#X#X#X#X#X#X#X#X#X#X#X#X#X#X#X#X#X#X#X#X#X#X#X#X#X#X#X#X#X#X#X#X#X#X#X#X#X#X#X#X#X#X#X#X#X#X#X#X#X#X#X#X#X#X#X#X#X#X#X#X#X#X#X#X#X#X#X#X#X#X#X#X#X#X#X#X#X#X#X#X#X#X#X#X#X#X#X#X#X#X#X#X#X#X#X#X#X#X#X#X#X#X#X#X#X#X#X#X#X#X#X#X#X#X#X#X#X#X#X#X#X#X#X#X#X#X#X#X#X#X#X#X#X#X#X#X#X#X#X#X#X#X#X#X#X#X#X#X#X#X#X#X#X#X#X#X#X#X#X#X#X#X#X#X#X",
"#X#X#X#X#X#X#X#XmX#X#XSX#XmX#X_.#XSX#X#XSX#X_._.SXSX_.mX_.mXSXSX_.SXSX$XDX(.FX(.FXDX$X$X$X`.DXDXDX$XDXDXSXSXSX$XSXSX$X$X] SXSX$X`.`.SXSX$XDXDXDXSX$XDX` DX$XSXDXDXDXDXDX$XDX5 FX`.DXFXDX@ ` @ DXFXHXJXHXHXXXGX6 FXFX/ GXFX6 FXFXOXFXFXFXFXGX6 HX( 6 5 FX2 3 DXDX8 SXSX5 ' 5 FXDX5 FX5 FX5 FX6 ' FX5 ' 6 6 GXFX' 6 FX5 6 2 ( 4 4 6 6 3 3 6 OX3 4 ) KX1 ) 6 2 3 ( 3 GX2 3 3 HX/ GXGX( & 4 ) 2 2 3 S q A HX6 6 5 DXSX6 S 4 GXFX/ 2 / 2 2 2 2 / 6 ' GX# ( V.B.S.S.S.H.S.m.m.m.B.V.b.b.n.n.n.n.n.n.c.c 2 M M 4 M 2 @ ' 6 6 2 3 2 6 ` +X`.w.m.m.B.m.m.`.7X#X#X#X#X#X#X#X#X#X#X#X#X#X#X#X#X#X#X#X#X#X#X#X#X#X#X#X#X#X#X#X#X#X#X#X#X#XCXZ.3.i.8.7.7.8.8.i.@.s.#X@X#X#X#X#X_ _ D dXpXkXpXpXfXuXfXzXfXxXxXfXsXsXsXuXhXD _ #X#X#X#X#X#X#X#X7XDX7.7.i.i.8.K +.m.7XVX#X#X#X#X#X#X#X#X#X#X#X#X#X#X#X#X#X#X#X#X#X#X#X#X#X#X#X#X#X#X#X#X#X#X#X#X#X#X#X#X#X#X#X#X#X#X#X#X#X#X#X#X#X#X#X#X#X#X#X#X#X#X#X#X#X#X#X#X#X#X#X#X#X#X#X#X#X#X#X#X#X#X#X#X#X#X#X#X#X#X#X#X#X#X#X#X#X#X#X#X#X#X#X#X#X#X#X#X#X#X#X#X#X#X#X#X#X#X#X#X#X#X#X#X#X#X#X#X#X#X#X#X#X#X#X#X#X#X#X#X#X#X#X#X#X#X#X#X#X#X#X#X#X#X#X#X#X#X#X#X#X#X#X#X#X#X#X#X#X#X#X#X#X#X#X#X#X#X#X#X#X#X#X#X#X#X#X#X#X#X#X#X#X#X#X#X#X#X#X#X#X#X#X#X#X#X#X#X#X#X#X#X#X#X#X#X#X#X#X#X#X#X#X#X#X#X#X#X#X#X#X#X#X#X",
"#X#X#X#X#X#X#XSX#X_.mX#X_.#XmX#X#X_.mX#X#XSXmX_.mXSXSX_.SX_.SX$XSX$XSX_.SX$XDXDX(.FX@ ` DX$XSX$X`.o DXDXSXSXDX`.SXSXSXSX$XSXSX$XDX$XSXSX`.DX`.`.SXDXDXDX`.o ] DXFXDXDXDXSX`.DXOXDX`.5 FX' FXDXDXDX` 2 JX4 HXGXHXHXHX3 GXFXFXDX' FXDX# 6 GXGX6 GXFXFXGX/ ( ( DXDXSX5 ( 2 5 5 DX` 6 GX5 5 FX' ' FX5 6 FX' 6 6 5 ' 6 5 (.@ GX3 3 2 5 (.6 ' 2 3 4 4 3 ( 3 u u y S JXS 2 HX2 ( # GX' FX3 ) HX2 FXGX3 3 S 3 2 2 2 FX' 2 4 HX2 2 / 6 5 ' 6 3 ) HX6 6 6 GXFX@ ;.B.B.S.S.H.C.S.m.m.B.S.w.n.b.n.n.n.n.c.w.3 M u c 2 FXFXFX6 6 6 6 / 3 S M DXo S.s.m.m.B.s.R.BX#X#X#X#X#X#X#X#X#X#X#X#X#X#X#X#X#X#X#X#X#X#X#X#X#X#X#X#X#X#X#X#X#X#X#X#X#X+XC.3.8.8.&.7.8.8.8.i.8.^ BX#X#X#X#X#X#XD _ yXsXqXpXpX0XuXqXfXfXfXxXfXfXsXfXuXdXD _ mX_.#X#X#X#X#XBX^ +.8.i.8.i.8.+.b.VX).#X#X#X#X#X#X#X#X#X#X#X#X#X#X#X#X#X#X#X#X#X#X#X#X#X#X#X#X#X#X#X#X#X#X#X#X#X#X#X#X#X#X#X#X#X#X#X#X#X#X#X#X#X#X#X#X#X#X#X#X#X#X#X#X#X#X#X#X#X#X#X#X#X#X#X#X#X#X#X#X#X#X#X#X#X#X#X#X#X#X#X#X#X#X#X#X#X#X#X#X#X#X#X#X#X#X#X#X#X#X#X#X#X#X#X#X#X#X#X#X#X#X#X#X#X#X#X#X#X#X#X#X#X#X#X#X#X#X#X#X#X#X#X#X#X#X#X#X#X#X#X#X#X#X#X#X#X#X#X#X#X#X#X#X#X#X#X#X#X#X#X#X#X#X#X#X#X#X#X#X#X#X#X#X#X#X#X#X#X#X#X#X#X#X#X#X#X#X#X#X#X#X#X#X#X#X#X#X#X#X#X#X#X#X#X#X#X#X#X#X#X#X#X#X#X#X#X#X#X#X#X#X#X#X",
"#X#X#X#X#X#X#X#X#X% _.mX#X_.#XSX#XSX#X_.mX_.#XmX_.#XSXmXSXSX_.SXSX_.SXSXSX_.SX$XDX1X(.FXFXDX$XDX$XSX`.DX$X`.FXDX$X$X`.SXSXSXSXSX$XSXSX$XDX$XDXSXSXDXDXDXSX$X`.DX(.DXSX$X8 DXFX] DXDX(.' GXFXFXFXFXFXFX2 ( HX3 ) JXJXJXHX' FXGXHX6 FX6 FXFXGXFXFX@ ' 2 GXHXHXFXDXFX3 A 3 DX5 DX5 / 2 ' 5 FX5 5 FXFX' FX6 6 GX6 ' 5 6 GXN GXFX/ 6 FXFX6 2 3 3 M 3 GX' 5 6 u 1 JXJXKXu GX2 ( 2 3 2 GX3 ( 2 ( GXGXGXHX3 3 3 3 ( 3 4 1 4 ' 2 ( 6 FXDXFX2 HX( / 6 ' 6 6 / 6 2 B.B.B.V.S.H.H.V.m.B.V.Y.w.n.b.b.n.c.n.2 = q y 4 5 5 5 6 ' 6 / 2 2 2 2 2 2 6 A w.B.m.B.m.b.W.CX@XVX_.#X#X#X#X#X#X#X#X#X#X#X#X#X#X#X#X#X#X#X#X#X#X#X#X#X#X#X#X#X#X#X#X#X+Xm.&.0.8.7.&.7.=.8.8.+.L.+X#X#X#X#X#X#X#X#X_ _ ).iXuXpXpX0XuXfXuXfXxXxXfXsXsXuXgX)._ mX#X#X#X#X#XCXZ.3.8.p.i.8.8.7.T $X@X#X#X#X#X#X#X#X#X#X#X#X#X#X#X#X#X#X#X#X#X#X#X#X#X#X#X#X#X#X#X#X#X#X#X#X#X#X#X#X#X#X#X#X#X#X#X#X#X#X#X#X#X#X#X#X#X#X#X#X#X#X#X#X#X#X#X#X#X#X#X#X#X#X#X#X#X#X#X#X#X#X#X#X#X#X#X#X#X#X#X#X#X#X#X#X#X#X#X#X#X#X#X#X#X#X#X#X#X#X#X#X#X#X#X#X#X#X#X#X#X#X#X#X#X#X#X#X#X#X#X#X#X#X#X#X#X#X#X#X#X#X#X#X#X#X#X#X#X#X#X#X#X#X#X#X#X#X#X#X#X#X#X#X#X#X#X#X#X#X#X#X#X#X#X#X#X#X#X#X#X#X#X#X#X#X#X#X#X#X#X#X#X#X#X#X#X#X#X#X#X#X#X#X#X#X#X#X#X#X#X#X#X#X#X#X#X#X#X#X#X#X#X#X#X#X#X#X#X#X#X#X#X#X#X",
"#X#X#X% #X_.#XSX#X_.#X#X_.#XmX#XSX#X#XmX_.#XmX#XSX#XSX_.SXmXSXmX_.SXmXSX$XSXSXSXSX$XDX(.FXFXFXFXDXSXo $XDXDXDXDX$X8 @ `.SX$XSX$XSXSXSX`.8 `.SXSX`.DX`.] $XDX] DXDXDX] DXDXFXDXSXDXDXFX@ ` DXFXGXFXDX(.FXFXFX5 GX2 HXJX4 / HXJXJX2 GX` DXFXFXFX' ' GX/ / GXGX/ 6 2 3 ) ( FX5 DX6 3 GXFX5 ` 8 GX2 ' FX6 FX5 ' 6 ' 6 6 / GX6 FX6 6 FXDXFXHX2 2 GX6 ' 6 6 2 S 4 4 ) ( 4 2 1 A JX4 3 / 2 FX2 4 3 GXFX2 2 HXJXFXGX) 4 4 3 2 ( 2 ' 5 DX6 3 HXFXFX6 FXFX6 ' 6 # Z.m.B.V.H.S.H.H.S.m.m.;.> n.T c.c.b.( SX4 r q 6 6 FX` DXDX6 2 2 / / FX6 ' 6 m.s.B.m.m.B.b.C.@ / SX7X@X#XSX#X#X#X#X#X#X#X#X#X#X#X#X#X#X#X#X#X#X#X#X#X#X#X#X#X#X#X#X#X#XBXB.+.i.8.8.7.7.8.8.8.+.B.7XVX#X#X#X#X#X#X#X#XAXD _ ).rXuXpX0XqXuXfXfXfXxXxXfXsXuXgXD _ SX#X#X#X#XBXs.| K i.i.8.8.7.8.` BX#X#X#X#X#X#X#X#X#X#X#X#X#X#X#X#X#X#X#X#X#X#X#X#X#X#X#X#X#X#X#X#X#X#X#X#X#X#X#X#X#X#X#X#X#X#X#X#X#X#X#X#X#X#X#X#X#X#X#X#X#X#X#X#X#X#X#X#X#X#X#X#X#X#X#X#X#X#X#X#X#X#X#X#X#X#X#X#X#X#X#X#X#X#X#X#X#X#X#X#X#X#X#X#X#X#X#X#X#X#X#X#X#X#X#X#X#X#X#X#X#X#X#X#X#X#X#X#X#X#X#X#X#X#X#X#X#X#X#X#X#X#X#X#X#X#X#X#X#X#X#X#X#X#X#X#X#X#X#X#X#X#X#X#X#X#X#X#X#X#X#X#X#X#X#X#X#X#X#X#X#X#X#X#X#X#X#X#X#X#X#X#X#X#X#X#X#X#X#X#X#X#X#X#X#X#X#X#X#X#X#X#X#X#X#X#X#X#X#X#X#X#X#X#X#X#X#X#X#X#X#X#X#X#X",
"#X#X#X_.#XmX#X#X#XmX#X_.% #X_.#X#X#XSX_.SX_.#XSX_.mX_.SXSX_.SXSXSXmX_.$XSX$X$XSX$XSXSX$XDX(.FXFX' FX` DX$X`.DXDXDXDX` `.SXSXDX`.SXSX$Xo $XSXSX`.DX$Xo SXSXDXDXDXDXSXDXDXDXDXDX] SX(.DXDXDXDXDX5 6 FXDXDX(.FXFX5 `.DX6 JXJX3 JX3 HX2 GX2 ( GXFX6 FXFX2 GXFX/ GXGX/ HXHX2 6 FX' JX3 5 5 DXSX5 GX6 5 5 5 5 ' 5 @ FX6 6 6 6 6 6 6 6 6 GX2 ' ' 6 ' FX6 / ( u 4 3 3 3 4 3 3 4 S 3 JXu 2 6 6 3 HX2 2 2 HX2 4 2 DXGX2 3 4 S 4 3 HX2 6 u A 3 6 6 5 5 DX8 FX/ 4 GXo ;.m.B.S.S.S.H.C.V.m.S.6 3 A Y.S 3 2 ( S S 2 2 HX2 / 5 5 6 ( ( GX2 FX' 5 2 w.w.m.m.B.m.B.m.c 1 c 6 #X@X@X#XAX@XVX#X_.#X#X#X#X#X#X#X#X#X#X#X#X#X#X#X#X#X#X#X#X#X#X#XVXVX9.+.=.i.i.8.3.7.=.8.8.7.P +X#X#X#X#X#X#X#X#X#X#X#XD _ SXrXuXpX0XuXuXfXxXxXfXfXsXuXdXD ).#X#X#XBX(.+.&.8.i.i.i.K 7.7.!.BX#X#X#X#X#X#X#X#X#X#X#X#X#X#X#X#X#X#X#X#X#X#X#X#X#X#X#X#X#X#X#X#X#X#X#X#X#X#X#X#X#X#X#X#X#X#X#X#X#X#X#X#X#X#X#X#X#X#X#X#X#X#X#X#X#X#X#X#X#X#X#X#X#X#X#X#X#X#X#X#X#X#X#X#X#X#X#X#X#X#X#X#X#X#X#X#X#X#X#X#X#X#X#X#X#X#X#X#X#X#X#X#X#X#X#X#X#X#X#X#X#X#X#X#X#X#X#X#X#X#X#X#X#X#X#X#X#X#X#X#X#X#X#X#X#X#X#X#X#X#X#X#X#X#X#X#X#X#X#X#X#X#X#X#X#X#X#X#X#X#X#X#X#X#X#X#X#X#X#X#X#X#X#X#X#X#X#X#X#X#X#X#X#X#X#X#X#X#X#X#X#X#X#X#X#X#X#X#X#X#X#X#X#X#X#X#X#X#X#X#X#X#X#X#X#X#X#X#X#X#X#X#X#X#X",
"#X#X#X#X#X_.#XSX#X_.#XmX_.#XmX_.mX_.#X#XSX#X_.mX_.#XmXSX#XSX#XSXSXSX$X$XSXSXSXSX$XSXSXSXSX$XDXFXFXFXOXFXDX$X`.DX`.DXDXDX$XDX(.DX$X8 ] SXSXSX$XDX`.8 SXSXSXDXDXDX$X8 `.DXDX`.DXDXDXFXFXDXDXDXDXDXFXFXDX` FXFXGXFXDXFXFXFXHX) 4 KXKX( JXJX4 / GX6 ` FXGXFXGX2 6 GX2 GXGXGX6 GX/ JX( ` DX8 DXu 4 ` 5 5 5 FX2 / ` 5 GX/ ' FXFX6 6 / / 6 / = / 6 DX' 2 3 3 3 2 ' ' 6 2 ( ( 3 S 3 JXKXu KXy u GX3 ( ( 2 2 ) 2 / # ' HXJX) 4 4 JX3 4 A 1 2 / 6 5 DXDX` DX4 S FX5 FXV.s.B.V.S.S.C.H.B.B.Z.# # o @ 2 2 3 2 DX' 3 ( 3 4 ) ' 2 JX6 6 FX5 DX8 2 w.b.B.m.m.m.m.m.V.> u A 1 > DX@X#XDXSX@X@X#X#X#X#X#X#X#X#X#X#X#X#X#X#X#X#X#X#X#X#X#X#X#X@X#Xq.+.=.=.+.H.V.3.7.7.=.+.;.CX#X#X#X#X#X#X#X#X#X#X#X#X#X_ _ #XsXpX0XuXfXfXxXxXzXfXfXuXjX_ #X#X#X+XZ.| 8.8.8.i.8.8.K +.Z.+X#X#X#X#X#X#X#X#X#X#X#X#X#X#X#X#X#X#X#X#X#X#X#X#X#X#X#X#X#X#X#X#X#X#X#X#X#X#X#X#X#X#X#X#X#X#X#X#X#X#X#X#X#X#X#X#X#X#X#X#X#X#X#X#X#X#X#X#X#X#X#X#X#X#X#X#X#X#X#X#X#X#X#X#X#X#X#X#X#X#X#X#X#X#X#X#X#X#X#X#X#X#X#X#X#X#X#X#X#X#X#X#X#X#X#X#X#X#X#X#X#X#X#X#X#X#X#X#X#X#X#X#X#X#X#X#X#X#X#X#X#X#X#X#X#X#X#X#X#X#X#X#X#X#X#X#X#X#X#X#X#X#X#X#X#X#X#X#X#X#X#X#X#X#X#X#X#X#X#X#X#X#X#X#X#X#X#X#X#X#X#X#X#X#X#X#X#X#X#X#X#X#X#X#X#X#X#X#X#X#X#X#X#X#X#X#X#X#X#X#X#X#X#X#X#X#X#X#X#X#X#X#X#X#X",
"#X#X#X#X#XmX#X#X#XmX_.#XmX_.#X#X#XmX#XmX_.mX_.SX#XmX_.SXSX_.SXmX_.SXSXSXSXSX$XSXSXSX$X$XSXSXSX$XDX(.GXGXGXFXFXFXo SX`.DXDXDXFXDX`.DXDX`.SXSXSX`.SX$XSXDXDXDXDX] SX$XDXDXDXo _.DXFXFXDX] SX`.` FXDX8 DX@ FXGXGXFX6 6 GX' # ( JX( JX3 S KXKXHXGXHX2 ( 6 / / 6 FXGXGXDX6 6 / 2 GXHX3 FX5 5 ) q 4 5 FX` DXFX3 2 ` 5 6 FX6 6 DXFX/ 2 6 6 6 6 6 6 6 GX/ m GX6 6 FX6 6 / m 2 3 4 3 ' ' 3 KXr S 6 KX4 2 6 GX2 HX2 6 OX' HX( 4 3 ( 3 ) 4 ) ) ( 2 FXGXu u 4 4 HX' 6 8 Z.m.m.V.S.H.S.C.H.B.;.6 6 6 / 6 6 GX2 3 ) ( HX( 3 4 3 4 4 S S 3 4 3 DX3 b.b.w.B.m.m.m.m.m.S > u c q A 3 4 c 1 2 SX@XBX@X#XSX#X#X#X#X#X#X#X#X#X#X#X#X#X#X#X#X#X#XAXBXB.3.7.7.7.i.' s.+.7.7.+.s.@XVX#X#X#X#X#X#X#X#X#X#X#X#X#X#X_ D rXpX0X0XuXfXfXxXxXxXfXfXyX_ mX#X+XH.| 7.7.8.8.i.8.=.+.Y.BX#X#X#X#X#X#X#X#X#X#X#X#X#X#X#X#X#X#X#X#X#X#X#X#X#X#X#X#X#X#X#X#X#X#X#X#X#X#X#X#X#X#X#X#X#X#X#X#X#X#X#X#X#X#X#X#X#X#X#X#X#X#X#X#X#X#X#X#X#X#X#X#X#X#X#X#X#X#X#X#X#X#X#X#X#X#X#X#X#X#X#X#X#X#X#X#X#X#X#X#X#X#X#X#X#X#X#X#X#X#X#X#X#X#X#X#X#X#X#X#X#X#X#X#X#X#X#X#X#X#X#X#X#X#X#X#X#X#X#X#X#X#X#X#X#X#X#X#X#X#X#X#X#X#X#X#X#X#X#X#X#X#X#X#X#X#X#X#X#X#X#X#X#X#X#X#X#X#X#X#X#X#X#X#X#X#X#X#X#X#X#X#X#X#X#X#X#X#X#X#X#X#X#X#X#X#X#X#X#X#X#X#X#X#X#X#X#X#X#X#X#X#X#X#X#X#X#X#X#X#X#X#X#X#X",
"#X#X#X#X#X_.#XSX#X_.#XmX_.mX#X_.mX_.#X_.SX#XmX_.mX_.SXSX#XmXSX_.#XSX$XSXSXSXSX$X_.SX$XSX$X$X$X`.$X$XDXFXFXGX' GX' DXDXDXDXDX5 DXDXDXFXDXSX$X8 $XSXSXDX@ `.DXDX$XSXDXDXDXDX] SXDX5 DX] DXDX5 FXDXDX`.DX' FX5 DX` ' GXFXFXFXFXFX5 FX2 HX3 KXu HX( JX4 3 GX5 DX` / 6 FXGX/ 2 HX2 / 2 GX2 GX2 S ) ' 6 ` 5 ( 3 / FX5 5 DXm HX5 6 N / 6 ' FX' 6 2 HX/ @ GXGX6 6 ' 2 ( 3 3 3 FXFX6 5 ' 5 N 4 KX4 KXu 3 4 q ( 4 JX/ 2 HX3 3 3 HXGXGX2 JX4 S 4 ( 3 4 1 q q 3 2 GX# DXSX;.s.B.V.S.S.C.C.S.Y.GX2 : / 6 GXGX2 ( 2 FXFXDXFX/ 2 ) c q q A c 1 3 A.b.b.b.m.m.m.m.m.s.V.> > u 1 c u u u c q A 4 / DX@X XBX@X#XSX#X#X#X#X#X#X#X#X#X#X#X#X#X_.@X. K.| &.=.8.3.=.b.+.=.7.7.3./ +XSX#X#X#X#X#X#X#X#X#X#X#X#X#X#XD _ tX0XpX0XuXuXfXxXxXxXxXfX1X_ @XVXT 3.7.=.K 8.i.8.8.+.B.BX#X% #X#X#X#X#X#X#X#X#X#X#X#X#X#X#X#X#X#X#X#X#X#X#X#X#X#X#X#X#X#X#X#X#X#X#X#X#X#X#X#X#X#X#X#X#X#X#X#X#X#X#X#X#X#X#X#X#X#X#X#X#X#X#X#X#X#X#X#X#X#X#X#X#X#X#X#X#X#X#X#X#X#X#X#X#X#X#X#X#X#X#X#X#X#X#X#X#X#X#X#X#X#X#X#X#X#X#X#X#X#X#X#X#X#X#X#X#X#X#X#X#X#X#X#X#X#X#X#X#X#X#X#X#X#X#X#X#X#X#X#X#X#X#X#X#X#X#X#X#X#X#X#X#X#X#X#X#X#X#X#X#X#X#X#X#X#X#X#X#X#X#X#X#X#X#X#X#X#X#X#X#X#X#X#X#X#X#X#X#X#X#X#X#X#X#X#X#X#X#X#X#X#X#X#X#X#X#X#X#X#X#X#X#X#X#X#X#X#X#X#X#X#X#X#X#X#X#X#X#X#X#X#X",
"#X#X#X#X_.mX#X#X#XmX_.#X#XSX_.mX#X#XSX#X#X#X_.SX#XSX#X_.SXSXSXSX#XSXSX_.mXSX$XSXSX$X$X$X$X8 SXSXSXSXSX$X`.DXOXGXGXFXGXFX`.$XDXDXDXDXFXDXSXSX(.DXSXSXDX`.SX$XSXSXDXDXDX8 SXSXDXDX` DXDXDX5 FX` DXDXSXDXDXDX` DXDXDXFXGXDXDXFXFXFX6 FXDX(.6 4 4 ) JXHXHX/ XXGX) 3 GX6 / 6 GXGX' FXOX' GXFXGX) 3 GX' 5 ( S 2 FX5 DXDX` GXGX5 FX6 5 6 6 6 ' 6 GX6 6 6 6 6 2 2 6 6 2 2 / 6 5 FX' FX2 2 ) 2 S 1 M 2 ) u 1 4 JX4 3 6 6 6 2 GX2 FX$XOXHX) & 2 2 JX) ) 4 4 HX2 2 6 FX2 3 Y.m.B.V.S.H.C.H.C.3 3 HX6 GX2 2 2 2 2 2 / FX3 4 4 u q q A q 1 > S u w.b.n.m.B.m.w.m.m.b.S.u c 1 u S S S S c c q q q 3 ' 3 FX+X+XVX#XSX#X#X#X#X#X#X#X#X#XSXBXVXY.T &.&.&.=.8.3.5.7.7.&.7.| S.+X#X#X#X#X#X#X#X#X#X#X#X#X#X#X#X#XAX_ _.rXpX0X0XuXfXxXfXxXzXsXSX. (.&.+.=.&.=.8.i.K 7.+.m.7X#X#X#X#X#X#X#X#X#X#X#X#X#X#X#X#X#X#X#X#X#X#X#X#X#X#X#X#X#X#X#X#X#X#X#X#X#X#X#X#X#X#X#X#X#X#X#X#X#X#X#X#X#X#X#X#X#X#X#X#X#X#X#X#X#X#X#X#X#X#X#X#X#X#X#X#X#X#X#X#X#X#X#X#X#X#X#X#X#X#X#X#X#X#X#X#X#X#X#X#X#X#X#X#X#X#X#X#X#X#X#X#X#X#X#X#X#X#X#X#X#X#X#X#X#X#X#X#X#X#X#X#X#X#X#X#X#X#X#X#X#X#X#X#X#X#X#X#X#X#X#X#X#X#X#X#X#X#X#X#X#X#X#X#X#X#X#X#X#X#X#X#X#X#X#X#X#X#X#X#X#X#X#X#X#X#X#X#X#X#X#X#X#X#X#X#X#X#X#X#X#X#X#X#X#X#X#X#X#X#X#X#X#X#X#X#X#X#X#X#X#X#X#X#X#X#X#X#X#X#X#X#X#X#X",
"#X#X#X#X#X#X_.mX_.#X#XSX#X_.mX_.SX#X#XSX#XSX#XSX#X#XSXmX_.mXSX_.SX_.SXSX_.SXSX$XSX$X] SXSX$XSXSX$X$X$XSX$XSXDX(.FXGXGXGXFXDXFX(.`.DXDX` `.DX6 (.`.DXDXDXSXSXSX`.DXDX] $XSX`.DXDXDX`.DXDX(.DXDXDXDXDXFXFXDXDXDXDXDX' 6 ` ` 6 6 / GX5 FX@ ` FX3 4 KXKXKX4 4 HXKX4 FXGX6 DX/ GXFXFX2 GX2 HX2 GX2 2 6 GX2 S 2 DX` 8 DX6 2 / 5 5 5 FX( 3 ' FX6 6 / GX6 6 6 ' GX/ FX6 6 6 6 ' 6 6 2 ) S 4 ( 2 3 / ' 6 3 4 4 3 KXu 3 GX3 3 OX3 2 2 2 2 3 ( # / 2 2 3 4 JX( 3 3 3 2 1 * HXS.m.B.S.S.S.C.H.Y.& ' 6 2 2 2 2 HX( 2 2 4 q q q q q q q q q q * e.b.b.n.q.w.m.s.w.m.w.m.q * c S S u u > S u c 1 A q q q q S @ _.@XAX#X@X@XAX#X#X#X#X#X@X#Xq.| 3.=.&.&.7.7.5.u.&.7.&.=.3.q.7XVX#X#X#X#X#X#X#X#X#X#X#X#X#X#X#X#X#X_ _ iX0XpX0X4XfXsXfXxXzXdXCX] 3.&.7.7.7.7.8.8.7.+.9.% @X#X#X#X#X#X#X#X#X#X#X#X#X#X#X#X#X#X#X#X#X#X#X#X#X#X#X#X#X#X#X#X#X#X#X#X#X#X#X#X#X#X#X#X#X#X#X#X#X#X#X#X#X#X#X#X#X#X#X#X#X#X#X#X#X#X#X#X#X#X#X#X#X#X#X#X#X#X#X#X#X#X#X#X#X#X#X#X#X#X#X#X#X#X#X#X#X#X#X#X#X#X#X#X#X#X#X#X#X#X#X#X#X#X#X#X#X#X#X#X#X#X#X#X#X#X#X#X#X#X#X#X#X#X#X#X#X#X#X#X#X#X#X#X#X#X#X#X#X#X#X#X#X#X#X#X#X#X#X#X#X#X#X#X#X#X#X#X#X#X#X#X#X#X#X#X#X#X#X#X#X#X#X#X#X#X#X#X#X#X#X#X#X#X#X#X#X#X#X#X#X#X#X#X#X#X#X#X#X#X#X#X#X#X#X#X#X#X#X#X#X#X#X#X#X#X#X#X#X#X#X#X#X#X",
"#X#X#X#X#XmX#X#X#XmX_.#XmX#X_.mXSXSXSX_.#X#XSX_.#XSXSXSX#X_.SX_.mXSXSXSX#XSXSXSXSXSXSX$XSX$X$X$XSXSXSX$X$XDX$XDXDX(.' GX2 GXGXGXDX`.DX@ DXFX' FXDXDX` ` `.$XSX$X8 `.SXDXFXDXDXDX`.SX`.DX@ DXDXDXDXDXFXFXDX`.8 DX6 FX`.DXDX' GX2 GX' GXGXGXFX6 4 S 3 KXKXS 4 KXu 2 / GX( 3 2 6 2 / 6 2 / FX6 GX6 ( HX( KX2 5 DX` M y 1 5 FX5 ` 6 3 HX6 6 6 6 6 6 ' FX/ FX5 6 6 6 FX' 6 / 6 FXGXHX( 2 2 / 6 6 5 5 2 u S 4 S HXHX( y q 3 u ) 3 ( 2 3 3 HX( GXFX2 JX3 4 ( HX) u 1 ) # A.s.B.B.S.H.S.C.;.GX' 6 6 6 GX2 3 3 2 4 A c 1 c A q q A q q q q e.b.b.w.b.n.m.m.w.b.b.b.m.1 u S c > S c u A q q c u c c q y y q GX+X@XFXFX#X+X@XAX_.#XCXY.| *.&.&.&.&.&.&.5.4.*.&.&.*.*.*.DX+X_.#X#X#X#X#X#X#X#X#X#X#X#X#X#X#X#X#XAX_ _.eXpX0XuXfXfXsXfXzXiXW 3.7.&.7.&.7.8.8.8.&.T $X@X#X#X#X#X#X#X#X#X#X#X#X#X#X#X#X#X#X#X#X#X#X#X#X#X#X#X#X#X#X#X#X#X#X#X#X#X#X#X#X#X#X#X#X#X#X#X#X#X#X#X#X#X#X#X#X#X#X#X#X#X#X#X#X#X#X#X#X#X#X#X#X#X#X#X#X#X#X#X#X#X#X#X#X#X#X#X#X#X#X#X#X#X#X#X#X#X#X#X#X#X#X#X#X#X#X#X#X#X#X#X#X#X#X#X#X#X#X#X#X#X#X#X#X#X#X#X#X#X#X#X#X#X#X#X#X#X#X#X#X#X#X#X#X#X#X#X#X#X#X#X#X#X#X#X#X#X#X#X#X#X#X#X#X#X#X#X#X#X#X#X#X#X#X#X#X#X#X#X#X#X#X#X#X#X#X#X#X#X#X#X#X#X#X#X#X#X#X#X#X#X#X#X#X#X#X#X#X#X#X#X#X#X#X#X#X#X#X#X#X#X#X#X#X#X#X#X#X#X#X#X#X#X#X",
"#X#X#X#X#X_.#XSX#X_.#XmX#XSX#XSX_._.mXSXSXSX#X#XmX_.mX_.#XSXSX#XSXSXSX#XSX$XSX_.SXSX$XSXSX$X$XSXSXo `.$XDX$XDXDX$XSXo FXFXGXGX2 GXFXGXDXDXDX(.@ DXDXFXFXDX] SXDX`.SXSXDXDXDXDXDX] o DX` DXDX8 DXDXDXFX` DXDXDXFX' ` 8 DXFX# ' FX5 5 GX2 # FXFXGXGX6 ' 2 JXS KX1 4 JXHXKXS 3 HXFX5 ` 2 GX' GX6 / HX3 3 3 2 / 2 HXS q 1 6 6 DX5 3 JX2 6 6 ' 5 FX6 ' FX6 6 6 6 / 6 FX` 5 / GXGX2 / 6 GX6 6 6 6 6 2 4 4 ) u S GXFX3 S u JX( u 3 6 6 2 3 ) 3 2 GXHX3 3 S GXOX3 ) ) HX3 2 Y.m.B.B.S.S.S.C.2 # GX5 ' GX2 3 4 4 1 c u u c * A c * c 2 / 2 c n.b.w.b.n.n.b.m.b.w.b.n.q u u c q r r 1 * A * c u u u u 1 c q q ) 3 q q u 2 $X@XBX7X#XT t.*.&.&.*.*.*.&.*.u.4.*.&.*.*.| Y.CX#X#X#X#X#X#X#X#X#X#X#X#X#X#X#X#X#X#X#X#X_ D rX0X0X0XuXfXsXfXfXv.+.&.=.7.*.&.K 8.7.7.T DX7X#X#X#X#X#X#X#X#X#X#X#X#X#X#X#X#X#X#X#X#X#X#X#X#X#X#X#X#X#X#X#X#X#X#X#X#X#X#X#X#X#X#X#X#X#X#X#X#X#X#X#X#X#X#X#X#X#X#X#X#X#X#X#X#X#X#X#X#X#X#X#X#X#X#X#X#X#X#X#X#X#X#X#X#X#X#X#X#X#X#X#X#X#X#X#X#X#X#X#X#X#X#X#X#X#X#X#X#X#X#X#X#X#X#X#X#X#X#X#X#X#X#X#X#X#X#X#X#X#X#X#X#X#X#X#X#X#X#X#X#X#X#X#X#X#X#X#X#X#X#X#X#X#X#X#X#X#X#X#X#X#X#X#X#X#X#X#X#X#X#X#X#X#X#X#X#X#X#X#X#X#X#X#X#X#X#X#X#X#X#X#X#X#X#X#X#X#X#X#X#X#X#X#X#X#X#X#X#X#X#X#X#X#X#X#X#X#X#X#X#X#X#X#X#X#X#X#X#X#X#X#X#X#X",
"#X#X#X#X#X% #X#X#XmX#X_.#X#X_.SX#XmX_.SXSXmXSX_.#XSX_.mX_.SX_.SX_.SXSXSX$XSXSX#XSX$XSXSXSXSXSXSX`.DX$XSXSXSX$X$X] DX$XSX$XDXGXGXGX/ GXGXDX`.DXFXDXDXFXFXDXSXDX6 DXSX`.DX`.DX`.SXSXDXDXDXDXSXSXDX` 5 ` DXDXDX5 FX` DXDX8 FXFXDX` FX` FXGXGX' FXFXFX6 6 6 FXFXFX) u 4 S JXHX) JX/ GX) JXHX6 / GX6 3 2 ' 2 ( HX( 3 3 4 3 / 6 5 / u ) 6 GX5 DX5 5 ( 2 6 6 6 6 FX5 FX' 6 ' # 2 2 2 6 GX/ 6 5 GX2 JX4 4 3 6 6 / 3 3 ( 4 3 ) HXKX1 ( q r JXJX3 ( 3 3 3 4 JXGX2 2 3 4 KXu 3 GXY.m.B.V.S.S.B.C.m @ DX5 ( HXJXu u u u c 1 1 c u c 1 2 (.DX$X( b.b.b.w.b.w.m.b.b.b.b.q.b.c u 1 r k q c c c 1 u S c c c u 1 q q y q c c q y q 1 6 CXDXl.*.7.7.7.5.*.*.*.....u.E *.*.&.U T VX@X#X#X#X#X#X#X#X#X#X#X#X#X#X#X#X#X#X#X#X_.D _ yXuXpX0X0XqXxXfXf.6.9.&.8.&.&.7.7.7.7.7.(.BX#X#X#X#X#X#X#X#X#X#X#X#X#X#X#X#X#X#X#X#X#X#X#X#X#X#X#X#X#X#X#X#X#X#X#X#X#X#X#X#X#X#X#X#X#X#X#X#X#X#X#X#X#X#X#X#X#X#X#X#X#X#X#X#X#X#X#X#X#X#X#X#X#X#X#X#X#X#X#X#X#X#X#X#X#X#X#X#X#X#X#X#X#X#X#X#X#X#X#X#X#X#X#X#X#X#X#X#X#X#X#X#X#X#X#X#X#X#X#X#X#X#X#X#X#X#X#X#X#X#X#X#X#X#X#X#X#X#X#X#X#X#X#X#X#X#X#X#X#X#X#X#X#X#X#X#X#X#X#X#X#X#X#X#X#X#X#X#X#X#X#X#X#X#X#X#X#X#X#X#X#X#X#X#X#X#X#X#X#X#X#X#X#X#X#X#X#X#X#X#X#X#X#X#X#X#X#X#X#X#X#X#X#X#X#X#X#X#X#X#X#X#X#X#X#X#X#X#X#X#X#X#X#X",
"#X#X#X#X_.#X_.mX_.#X#XmX_.mX#X#X_.#XmX_.SXSX$XSXSX#XSX#XSXmX_.#XSXSXmX_.SXSX_.SX$XSXSX_.SX$XSXSX$X$XSXSX$X`.SXo DXDXSX$X$XSXDX(.FXHXHXHX2 FXGX' `.DXFXFX(.DXFX/ @ DXDXDXDX$XSX8 DXDX` DXSX`.DXDXDX(.DXDXDXDX(.5 DXDXDXDX6 GX5 DX5 (.@ GXGX6 ` FXGXGX' FXFXFXFX' HX4 u u u 1 ) 4 JX1 4 3 2 / 5 FX) # DXHX( 2 2 3 JX( GX2 / 6 3 1 ) ' 5 ` 8 DX6 3 6 6 6 GX6 6 6 ' 5 2 6 6 / / 2 / 6 6 ' FX2 3 ) ( / / 6 ' 6 2 2 / 3 u u 4 2 4 u y r 2 ( KX3 2 FX5 ) HX/ 2 ' XXJX4 4 HXGX+ S.m.B.B.S.S.B.H.6 @ 3 4 4 4 S 4 4 S u c 1 u A q 3 GXGXGX# ) b.b.b.b.b.m.w.b.b.b.b.n.q.e.: u r r q q A 1 S c * 1 u c q y q A c u u c c 1 c q q 4 V.&.7.7.7.i.7.5.*.E E ....u...*.*.*.5.Z.+X#X#X#X#X#X#X#X#X#X#X#X#X#X#X#X#X#X#X#X#X#X#X_ ).rX0X0X0XqXsXv.p.G 7.8.&.*.7.7.7.&.&.^ +X#X#X#X#X#X#X#X#X#X#X#X#X#X#X#X#X#X#X#X#X#X#X#X#X#X#X#X#X#X#X#X#X#X#X#X#X#X#X#X#X#X#X#X#X#X#X#X#X#X#X#X#X#X#X#X#X#X#X#X#X#X#X#X#X#X#X#X#X#X#X#X#X#X#X#X#X#X#X#X#X#X#X#X#X#X#X#X#X#X#X#X#X#X#X#X#X#X#X#X#X#X#X#X#X#X#X#X#X#X#X#X#X#X#X#X#X#X#X#X#X#X#X#X#X#X#X#X#X#X#X#X#X#X#X#X#X#X#X#X#X#X#X#X#X#X#X#X#X#X#X#X#X#X#X#X#X#X#X#X#X#X#X#X#X#X#X#X#X#X#X#X#X#X#X#X#X#X#X#X#X#X#X#X#X#X#X#X#X#X#X#X#X#X#X#X#X#X#X#X#X#X#X#X#X#X#X#X#X#X#X#X#X#X#X#X#X#X#X#X#X#X#X#X#X#X#X#X#X#X#X#X#X#X",
"#X#X#X#X#X#X#X#X#X_.mX_.#X#XSX#XSXSX_.mX#X_.SXSX$X$XSX_.SX_.SXmXSXSXSX_.SXmXSXSX$X$XmXSX$XSX_.SX$XSXSX$X`.DX$XSX$X$X$X`.DXDXDXDXDXDX6 HXHXHXHX2 FXDXDX` FXFXFX6 ' DXDX5 FXDXo $XDXDXDXSX`.6 FXDXDXDX] SXDXDX5 ` DX$X5 FX' FX` DX8 DX' FX` ` DXFXGX2 2 GXGXGX2 2 FX3 A u 1 q KXS u u 4 HXJX2 2 ( ( / 2 3 2 2 3 3 GXGX/ 2 3 3 ) u 3 5 ` 5 ' 4 q ( FX' 5 5 6 ( 3 2 FX6 2 2 6 6 6 6 FX6 2 2 2 / 2 6 6 6 6 6 GX2 2 3 4 4 3 2 6 FX3 1 S JXHXS u 2 3 q 3 3 ) HX# FXHX3 3 2 HX2 S m.B.B.B.V.S.B.H.A.y 1 2 3 M M 3 3 2 3 : y 0 1 ' GX2 2 2 3 w.9.b.b.w.b.f.v.m.b.n.n.q.n.c u r y y y * c * c q q y y y y y * u u c 1 u u u c 1 q &.9.p.i.3.*.&...*.u.R u...E E ..*.*.| w.BXAX#X#X#X#X#X#X#X#X#X#X#X#X#X#X#X#X#X#X#X#X#X#X_ _ 1XqX0X4XqXg.@.8.8.8.7.5.&.7.7.7.3.Z.+X#X#X#X#X#X#X#X#X#X#X#X#X#X#X#X#X#X#X#X#X#X#X#X#X#X#X#X#X#X#X#X#X#X#X#X#X#X#X#X#X#X#X#X#X#X#X#X#X#X#X#X#X#X#X#X#X#X#X#X#X#X#X#X#X#X#X#X#X#X#X#X#X#X#X#X#X#X#X#X#X#X#X#X#X#X#X#X#X#X#X#X#X#X#X#X#X#X#X#X#X#X#X#X#X#X#X#X#X#X#X#X#X#X#X#X#X#X#X#X#X#X#X#X#X#X#X#X#X#X#X#X#X#X#X#X#X#X#X#X#X#X#X#X#X#X#X#X#X#X#X#X#X#X#X#X#X#X#X#X#X#X#X#X#X#X#X#X#X#X#X#X#X#X#X#X#X#X#X#X#X#X#X#X#X#X#X#X#X#X#X#X#X#X#X#X#X#X#X#X#X#X#X#X#X#X#X#X#X#X#X#X#X#X#X#X#X#X#X#X#X#X#X#X#X#X#X#X#X#X#X#X#X#X",
"#X#X#X#X#X#XSX#XSX#X#X#XmX#XSX_.#X#X#XSXSXSXSX_.SXSX$XSXmXSX#X_.SXSX_.#XSXSX_.SXSXSXSXSX$XSXSXSX`.SXSXSXSX$X] $XSXDXDXDXDX$XDXDX`.SX$X(.FXGXHX3 HXFXGXFXDX5 DXFXFX@ ` GXFX`.8 SX` DXSXSXDXFXDXDXDXDXSXDXDX5 DXDXDXDXDXFXFX5 DXDX` FX6 FXDXDXDX6 / GXGXFX6 2 2 GX6 2 JXGXHX/ 3 S q 1 A ) 3 KXS u 3 3 2 2 FXFX( 2 FX2 2 HX) JX3 4 ) 6 ` 2 4 q y 3 5 6 FX` ' 3 JX2 ' 6 GX/ FX` 5 6 ' 2 ( 2 GX6 2 6 GX6 FXGX( M 3 ( 2 DXFX2 6 FX2 S u u u JXJX3 u r KX4 u HX2 ( ( 3 3 JX4 # Z.m.V.B.B.B.B.V.B.m.A & 3 S 4 3 2 2 3 FX3 0 r 6 6 GX2 HX6 # V.n.b.b.b.b.n.v.n.b.n.n.n.c.b.q 1 c * A A A q q q k k y y q q A c c c u A 1 c q * A 7.0.9.&.O.u.3.3.&.&...u.....u.E ..*.U b.@XVX#X#X#X#XmX#X).AXmX#X#X#X#X#X#X#X#X#X#X#X#X#X#X#X_ $XuX4X4Xk @.7.=.8.8.3.E 7.7.&.3.Y.+X% #X#X#X#X#X#X#X#X#X#X#X#X#X#X#X#X#X#X#X#X#X#X#X#X#X#X#X#X#X#X#X#X#X#X#X#X#X#X#X#X#X#X#X#X#X#X#X#X#X#X#X#X#X#X#X#X#X#X#X#X#X#X#X#X#X#X#X#X#X#X#X#X#X#X#X#X#X#X#X#X#X#X#X#X#X#X#X#X#X#X#X#X#X#X#X#X#X#X#X#X#X#X#X#X#X#X#X#X#X#X#X#X#X#X#X#X#X#X#X#X#X#X#X#X#X#X#X#X#X#X#X#X#X#X#X#X#X#X#X#X#X#X#X#X#X#X#X#X#X#X#X#X#X#X#X#X#X#X#X#X#X#X#X#X#X#X#X#X#X#X#X#X#X#X#X#X#X#X#X#X#X#X#X#X#X#X#X#X#X#X#X#X#X#X#X#X#X#X#X#X#X#X#X#X#X#X#X#X#X#X#X#X#X#X#X#X#X#X#X#X#X#X#X#X#X#X#X#X#X#X#X#X",
"#X#X#X#X#X#X#X#X#X#XSX#X_.#X#XSX#XSX#XSX_.mX_.mXSX$X$X$X`.$XSXSXmX_.mXSXSX_.mXSX$XSXSXSX$XSX_.SXo SXSXSX$Xo $XDXDXDX$XSX$X$XSX$XDXDXDXSXDXDXGXGXGX2 HXHXFXDX`.` FX` FX' 6 DXSXDXGXDX] DXDXDXDXDX8 $XDXDX` (.DX] $XDX` FXFXDXDX5 FXGX' 5 DXDXDX6 # 5 5 DX5 GX2 GXFXFXFX@ ' 6 2 GX2 JXq q 4 S oXu S ( GX' FX2 HXGX/ 2 ( 3 3 3 3 HX3 ( 3 3 2 u A 3 6 6 5 5 2 4 ( 2 6 ' 6 5 6 : 2 6 6 6 GX/ 6 6 GX6 / 2 GX/ 6 HX/ 6 / 6 6 6 ' 3 4 4 ) S 1 3 6 3 3 3 u 3 KXu / 6 6 / HXGX3 FX/ B.m.V.m.m.B.B.B.B.B.Y.JX4 S 3 2 A y u q 0 4 FXGXGXFX6 3 4 u w.n.b.b.b.b.b.n.b.b.n.n.c.c.m.* q q q q y q A y k y y r y q c q r y y y q q q u u q.7.+.q.S.*.s.H.&.7.8.*.u.....E 5.5.| c.@XVX#X#X#X#X_.D D _ ).mX#X#X#X#X#X#X#X#X#X#X#X#X#X#X#X. iX4XqXg.@.8.8.8.8.7.*.7.&.&.3.B.BX#X#X#X#X#X#X#X#X#X#X#X#X#X#X#X#X#X#X#X#X#X#X#X#X#X#X#X#X#X#X#X#X#X#X#X#X#X#X#X#X#X#X#X#X#X#X#X#X#X#X#X#X#X#X#X#X#X#X#X#X#X#X#X#X#X#X#X#X#X#X#X#X#X#X#X#X#X#X#X#X#X#X#X#X#X#X#X#X#X#X#X#X#X#X#X#X#X#X#X#X#X#X#X#X#X#X#X#X#X#X#X#X#X#X#X#X#X#X#X#X#X#X#X#X#X#X#X#X#X#X#X#X#X#X#X#X#X#X#X#X#X#X#X#X#X#X#X#X#X#X#X#X#X#X#X#X#X#X#X#X#X#X#X#X#X#X#X#X#X#X#X#X#X#X#X#X#X#X#X#X#X#X#X#X#X#X#X#X#X#X#X#X#X#X#X#X#X#X#X#X#X#X#X#X#X#X#X#X#X#X#X#X#X#X#X#X#X#X#X#X#X#X#X#X#X#X#X#X#X#X#X#X#X",
"#X#X#X#X#X#XSX#X_.mX#X#XmX_.mX#X#XSX_.#XmX_.SXSX_.SXSXSX$X$X$X$XSXSX_.SXmX_._.SXSXSX_.SXSXSXSX$XSX$XSXSX`.SXSXSX$X$XSXSX`.DX$X`.$XDX`.DXDX`.`.@ FXGXHX3 ( # FXHX6 DXDXDX' FXDX6 / FXDXDX` ` `.] $X8 DX5 DXDXSXSXDX` @ 5 ` DXDX5 FXFX5 ` DXDXFX' FXFXFXFXDX5 /.2 GX` GX2 GX2 6 FXFXFX# 4 u 4 S KX1 JX4 HXS A ) HX/ 3 / GX3 / FXFX( 3 3 GX2 4 KX2 6 ' ' 3 4 3 6 6 # 5 5 ' 3 S 2 FX' 6 2 2 / 6 FX6 / 2 ( 6 ' GX2 2 6 ` 6 / 3 4 ) ( 2 FXGX( 4 3 ) 4 3 JXu u KXHXy r HXHXJXHX2 S.w.m.B.B.m.m.B.B.m.b.Y.4 q q y r k k k y 2 ( 3 GX' / & JXA m.n.n.n.b.n.n.g.c.b.b.n.n.c.n.q q y y q q y q q q q q q q q q c q k k q c A A 1 > m.7.&.=.B.=.i.-.8.7.i.&.R E *...t.t.O.=.#X@X#X#X#X#XZXaXfXdXAX).#X#X#X#X#X#X#X#X#X#X#X#X_.mXBX@X] rXJ.7.&.7.=.=.8.7.7.7.&.&.3.w.7XVX#X#X#X#X#X#X#X#X#X#X#X#X#X#X#X#X#X#X#X#X#X#X#X#X#X#X#X#X#X#X#X#X#X#X#X#X#X#X#X#X#X#X#X#X#X#X#X#X#X#X#X#X#X#X#X#X#X#X#X#X#X#X#X#X#X#X#X#X#X#X#X#X#X#X#X#X#X#X#X#X#X#X#X#X#X#X#X#X#X#X#X#X#X#X#X#X#X#X#X#X#X#X#X#X#X#X#X#X#X#X#X#X#X#X#X#X#X#X#X#X#X#X#X#X#X#X#X#X#X#X#X#X#X#X#X#X#X#X#X#X#X#X#X#X#X#X#X#X#X#X#X#X#X#X#X#X#X#X#X#X#X#X#X#X#X#X#X#X#X#X#X#X#X#X#X#X#X#X#X#X#X#X#X#X#X#X#X#X#X#X#X#X#X#X#X#X#X#X#X#X#X#X#X#X#X#X#X#X#X#X#X#X#X#X#X#X#X#X#X#X#X#X#X#X#X#X#X#X#X#X#X#X",
"#X#X#X#X#X#X#X% #X#X_.mX_.#X_.mX_.SX#XmX_._.mX_.mX_.SXSXSXSXo `.DXSXSX_.SX#XSX$XSXmXSXSXSXSX$XSXSXSXSX$X$XSXSX$XSX] $X`.DXDX$XSXSX$XDXDXDXDX@ DX`.`.DXGXHXJXHX3 3 FXDXFXFXFXOX' GXGX` DXFXFXDXDX] DXDXDXDXSXDXFX5 5 FX` DX8 DXFXFXFXDXDXDXDX' GXFX` DX5 DX6 2 ' @ 5 / 2 ( ) GX6 / (.6 6 4 A A q y 1 u KXHXq S OX2 2 FX2 ( 2 / HX3 ( 3 3 M HX2 3 2 / 2 4 1 ) 2 / ' 5 FX6 3 4 / ' 6 6 6 6 6 6 ' 2 GX6 2 6 6 6 6 2 FX$XFXGXHX4 3 2 / DX' 2 2 2 2 4 u S KX4 u S k 0 2 JXu JX= Y.s.w.w.m.m.m.m.m.m.b.b.e.q r r r r k 0 u GXJX( / 3 S O Y.T.m.b.b.q.n.n.n.c.f.v.n.n.q.c.c.b.q q q q q q q q q A c q q A c u S r r q y c u u 3 Y.@.7.&.3.7.=.&.=.8.i.8.5.u...5.t.t.O...`.. @X@XAX#X_ dXkXlXjX_ SX#X#X#X#X#X#X#X#X#X#X#X#X+X` =.7.p.8.3.7.7.=.7.=.7.7.7.+.&.3.b.7XAX#X#X#X#X#X#X#X#X#X#X#X#X#X#X#X#X#X#X#X#X#X#X#X#X#X#X#X#X#X#X#X#X#X#X#X#X#X#X#X#X#X#X#X#X#X#X#X#X#X#X#X#X#X#X#X#X#X#X#X#X#X#X#X#X#X#X#X#X#X#X#X#X#X#X#X#X#X#X#X#X#X#X#X#X#X#X#X#X#X#X#X#X#X#X#X#X#X#X#X#X#X#X#X#X#X#X#X#X#X#X#X#X#X#X#X#X#X#X#X#X#X#X#X#X#X#X#X#X#X#X#X#X#X#X#X#X#X#X#X#X#X#X#X#X#X#X#X#X#X#X#X#X#X#X#X#X#X#X#X#X#X#X#X#X#X#X#X#X#X#X#X#X#X#X#X#X#X#X#X#X#X#X#X#X#X#X#X#X#X#X#X#X#X#X#X#X#X#X#X#X#X#X#X#X#X#X#X#X#X#X#X#X#X#X#X#X#X#X#X#X#X#X#X#X#X#X#X#X#X#X#X#X",
"#X#X#X% _.% #X_.#XSX#X#XmX#XmX_.#X#XmX#XSXmX_.SX_.SX$XSX$X_.SXSX$X`.`.$XSXSXSXSXSX_.SX$XSX_.SXSX$X$XSX$X`.SX_.$XDX$XSXSX$X`.`.DXDXDX`.DXDX$X$XDXDX$XDXDXDXGX( 3 ) 3 GXHX6 DXFX@ ' GXFX5 GX/ DX8 `.5 ` DX] $X' 6 DX(.5 DXSX`.` FXFX` DXDX` DXFXFX5 DXDXDXFX2 GXDXDX` 2 3 3 2 GX2 ( HX2 ' HXq 1 u S u S 1 KXy 1 3 ) GXu u 4 3 2 ) 2 2 HX2 / # ( 2 ) 3 XXHXu 4 2 2 6 ' ' 3 S HX6 GX6 ' 5 6 HX6 ' 6 6 / / 2 2 6 5 ' 6 / 2 2 2 ( / / 6 6 2 ( 2 3 3 ) S 4 4 ( GX3 1 1 ( JXKXu + ;.b.m.w.b.w.w.m.w.b.w.b.b.e.y y y k 0 k 1 4 S 3 ) q r q b.T.B.B.b.n.q.c.c.c.c.l.v.c.g.c.c.v.w.q q A c c c c q q q q q q q c S q y A r r * c 1 q b.8.8.7.&.7.=.8.8.8.=.&.5.E u.4.E R t.e.3 S / @X+XCXrXpXuXgX_ ).#X#X#X#X#X#X#X#X#X#X#X@X#X=.| *.8.i.+.*.&.&.=.7.7.*.&.&.&.3.n.CXZXmX#X#X#X#X#X#X#X#X#X#X#X#X#X#X#X#X#X#X#X#X#X#X#X#X#X#X#X#X#X#X#X#X#X#X#X#X#X#X#X#X#X#X#X#X#X#X#X#X#X#X#X#X#X#X#X#X#X#X#X#X#X#X#X#X#X#X#X#X#X#X#X#X#X#X#X#X#X#X#X#X#X#X#X#X#X#X#X#X#X#X#X#X#X#X#X#X#X#X#X#X#X#X#X#X#X#X#X#X#X#X#X#X#X#X#X#X#X#X#X#X#X#X#X#X#X#X#X#X#X#X#X#X#X#X#X#X#X#X#X#X#X#X#X#X#X#X#X#X#X#X#X#X#X#X#X#X#X#X#X#X#X#X#X#X#X#X#X#X#X#X#X#X#X#X#X#X#X#X#X#X#X#X#X#X#X#X#X#X#X#X#X#X#X#X#X#X#X#X#X#X#X#X#X#X#X#X#X#X#X#X#X#X#X#X#X#X#X#X#X#X#X#X#X#X#X#X#X#X#X#X#X",
"#X#X_.#X#X#X_.mX#X#X#XSX#X_.#XmX#XSX_.mX_._.mXSXmXSXmX_.SXSXmXSXSX$XDXDX`.SXSXSX#XSXSX$XSX_.SX$XSXSX$X$XSXSXSX`.DXSXSX$XDXo o DXDXDXDXSXSX`.8 DXDXDXDXDX$XSXDX' GXJX) ( JX6 DX`.FX6 FX(.GXGX5 `.SXGX6 DX8 DXDXDX` @ DX] DX5 @ 5 DXDXDXDX5 FX' FXFXDXDX' / GXFXDXDXFXFXGX6 FX5 FX3 3 / FXDXGXHX2 GX6 S q 1 q y u u JXu q 1 ( GX2 5 FXHXGX6 / HXHX3 4 3 4 ) ) 4 2 6 6 2 1 1 5 FX6 5 5 FX6 3 / 6 GX6 6 FX6 ' 6 ' 2 2 / HX2 / GX2 / # ' FXGX3 ) 3 ( 2 2 2 / FX6 ) S u 4 JX4 JXS m.B.S.b.b.m.b.b.b.b.b.n.9.m.y r r r r y y r r y r r e.T.b.T.g.v.n.c.c.c.c.v.v.l.v.c.c.c.v.n.A * q q c q q y y y r y y r y q q A q q y y q y * * f.@.8.8.7.7.7.7.=.=.=.*...*.u.R E t.v.* q y u / _ iXpXuXkXjX. VX#XAXD _ _ _ D AX).AXCXZ.| 3.*.=.q.&.&.+.*.&.&.=...5.&.&.+.l.jXCX).#X#X#X#X#X#X#X#X#X#X#X#X#X#X#X#X#X#X#X#X#X#X#X#X#X#X#X#X#X#X#X#X#X#X#X#X#X#X#X#X#X#X#X#X#X#X#X#X#X#X#X#X#X#X#X#X#X#X#X#X#X#X#X#X#X#X#X#X#X#X#X#X#X#X#X#X#X#X#X#X#X#X#X#X#X#X#X#X#X#X#X#X#X#X#X#X#X#X#X#X#X#X#X#X#X#X#X#X#X#X#X#X#X#X#X#X#X#X#X#X#X#X#X#X#X#X#X#X#X#X#X#X#X#X#X#X#X#X#X#X#X#X#X#X#X#X#X#X#X#X#X#X#X#X#X#X#X#X#X#X#X#X#X#X#X#X#X#X#X#X#X#X#X#X#X#X#X#X#X#X#X#X#X#X#X#X#X#X#X#X#X#X#X#X#X#X#X#X#X#X#X#X#X#X#X#X#X#X#X#X#X#X#X#X#X#X#X#X#X#X#X#X#X#X#X#X#X#X#X#X#X",
"#X#X#X#XSX#XmX_.#XSX#X#X#XmX_.#X#X#XSX_.mX#X_.SXSX_.#XSXmXSXSXSXSXSXSX$Xo DXDX`.SXSXSXSXSXSX`.o SXSXSX$XSXSX$XDX$XSXSXSX`.SXSX`.o $X$X$XDXDX`.DXDXDXDXDXDX`.DXDX(.2 4 3 JX4 HX6 JX6 DXFXFXGXFXDXFX( 2 DXDXDXFX` DX`.8 DX5 (.5 (.DXSXSX5 FXFXFX5 DX5 FXFX6 FX5 DX8 5 (.FXFX' ' FX' ( 3 GXFX' GX2 2 / 3 3 6 / 1 1 1 1 KXHX4 S 4 GX2 S S 3 HX2 m 2 3 ) 3 2 3 JXJX3 6 3 ) u u GX5 5 ` DXDX/ 3 2 6 6 6 5 / 6 6 FX6 2 / 6 2 / 2 6 6 / 2 GXGX/ 3 / FX2 2 2 2 6 6 2 4 u u u 1 JXO KXV.m.V.V.V.H.m.b.b.b.b.b.n.n.m.r r r r r r r k k k r A T.m.B.m.c.c.c.c.v.l.l.c.v.l.v.v.v.c.q.e.c c q q q q q y y q y q q y y y q q q A q y q q q k u.S.7.*.7.&.&.&.&.=.&.*.&...4.R :.v.> c c q y c X xXpXpXhX] _.@XmXyXaXaXaX$XAX#XAX. C.5.*.5.5.l.*.7.&.3.*.*.&.&.u.*.+.&.=.xXrX_ D mX#X#X#X#X#X#X#X#X#X#X#X#X#X#X#X#X#X#X#X#X#X#X#X#X#X#X#X#X#X#X#X#X#X#X#X#X#X#X#X#X#X#X#X#X#X#X#X#X#X#X#X#X#X#X#X#X#X#X#X#X#X#X#X#X#X#X#X#X#X#X#X#X#X#X#X#X#X#X#X#X#X#X#X#X#X#X#X#X#X#X#X#X#X#X#X#X#X#X#X#X#X#X#X#X#X#X#X#X#X#X#X#X#X#X#X#X#X#X#X#X#X#X#X#X#X#X#X#X#X#X#X#X#X#X#X#X#X#X#X#X#X#X#X#X#X#X#X#X#X#X#X#X#X#X#X#X#X#X#X#X#X#X#X#X#X#X#X#X#X#X#X#X#X#X#X#X#X#X#X#X#X#X#X#X#X#X#X#X#X#X#X#X#X#X#X#X#X#X#X#X#X#X#X#X#X#X#X#X#X#X#X#X#X#X#X#X#X#X#X#X#X#X#X#X#X#X#X#X#X",
"#X#X#X#X#X#X_.mX#X#X#XSX#X_.mX#XSX#X#XSX_.#XSXSX_.SXSXSXSX_.SX_.SX$X$X$XSX$XDXDX`.$XSXSX#XSXSXSXSXSXSX$XSXSX$X8 $XSXSXDX`.SXSXDX8 `.SXSX@ DXSX$XDXDXDXDX` @ DXFXFXDXDX' HX( 4 3 4 ) FXDX` 6 FX' GX2 2 FXDX` 6 6 DXDXDXDXDX` 5 DX] FXGXFX` 5 5 DXDXFX5 ' FX` DX5 FXGX2 GX' FX6 FX5 HX( 2 6 6 HX2 GX2 FXFXGXGXGX) 1 1 A KXq u u 1 A y u ( HX( 2 FX2 4 FXDXJX3 2 ( ) ( JXu S 2 FX5 DX6 q q ( 6 ' FX5 6 3 3 ( ' FXGX2 2 GX6 / GX6 GX/ 2 2 2 HX6 / 2 GX2 / / ) 4 4 ) 3 S S ) 4 u V.m.m.B.V.V.V.m.b.b.n.n.n.n.c.w.y r r r y y y r r k I.B.m.V.Y.C.m.c.n.w.c.l.l.v.c.v.v.c.v.v.c.r y q q A q q c q q q q q q c q q q q y y y y y q q d.*.Y O.+.&.*.3.*.7.&.*.&.4.X.} ..u 4 u u u c q c c <Xy c c S & hXsXuXfXxXgXgXgXgXiX! @.3.q.s.t.5.&.7.&.3.*.&.*.u.U &.&.@.gXuXtX_ ).mX#X#X#X#X#X#X#X#X#X#X#X#X#X#X#X#X#X#X#X#X#X#X#X#X#X#X#X#X#X#X#X#X#X#X#X#X#X#X#X#X#X#X#X#X#X#X#X#X#X#X#X#X#X#X#X#X#X#X#X#X#X#X#X#X#X#X#X#X#X#X#X#X#X#X#X#X#X#X#X#X#X#X#X#X#X#X#X#X#X#X#X#X#X#X#X#X#X#X#X#X#X#X#X#X#X#X#X#X#X#X#X#X#X#X#X#X#X#X#X#X#X#X#X#X#X#X#X#X#X#X#X#X#X#X#X#X#X#X#X#X#X#X#X#X#X#X#X#X#X#X#X#X#X#X#X#X#X#X#X#X#X#X#X#X#X#X#X#X#X#X#X#X#X#X#X#X#X#X#X#X#X#X#X#X#X#X#X#X#X#X#X#X#X#X#X#X#X#X#X#X#X#X#X#X#X#X#X#X#X#X#X#X#X#X#X#X#X#X#X#X#X#X#X#X#X#X#X#X",
"#X#X#X#X#XSX#X#X_.#XSX#XmX#X#XSX#X#XSX_.#XSX_.#XSXmXSX$X_.mX$XSX$XSXSX$XSXSX$X`.DXDXDX$XSXSXSX$XSXSXSXSXSXSXSX$X$XSX$XDX`.SXSX`.DX`.SX$X`.DXDXDXDXFXDX$XFXDXDXDXDXDXDXDXFXOXHX) 4 S ) GX( HX` GX' GX/ 6 FXFX/ / DXDX] FX5 DXDXSX5 ( 6 FX5 (.DX] DXFXFXFXFX` DXFX6 GXGXFXFXDXDX` GX2 6 ' FXFX2 HX3 GX2 ( 2 ( 3 6 u r y y r q u q 1 q 1 JX4 HX2 2 3 ) 6 GX3 3 3 3 4 3 ) 4 4 2 ' 6 2 1 r q ( 5 6 ` 5 2 HX) 2 ' 6 6 2 2 ' FX6 FX2 / GX2 / 2 2 2 2 2 6 GXHX3 4 S 3 3 ( 2 2 3 u 4 S m.m.B.B.m.B.m.c.n.b.n.n.n.c.c.b.r y r r y y r r 0 r B.S.C.H.B.T.m.V.B.V.m.v.v.n.c.c.c.v.f.l.k y q y q q q A q c A c q q q q y e.y y y q y y y q q R t.....3.3.*.&.&.7.&.5.4.:.4.A > c u c u S c q q j S 1 c q q A q dXsXfXpXkXkXkXzXtXB.3.9.S.T 9.7.i.7.3.*.*.....E &.7.+.<XqXuXjX_ #X% #X#X#X#X#X#X#X#X#X#X#X#X#X#X#X#X#X#X#X#X#X#X#X#X#X#X#X#X#X#X#X#X#X#X#X#X#X#X#X#X#X#X#X#X#X#X#X#X#X#X#X#X#X#X#X#X#X#X#X#X#X#X#X#X#X#X#X#X#X#X#X#X#X#X#X#X#X#X#X#X#X#X#X#X#X#X#X#X#X#X#X#X#X#X#X#X#X#X#X#X#X#X#X#X#X#X#X#X#X#X#X#X#X#X#X#X#X#X#X#X#X#X#X#X#X#X#X#X#X#X#X#X#X#X#X#X#X#X#X#X#X#X#X#X#X#X#X#X#X#X#X#X#X#X#X#X#X#X#X#X#X#X#X#X#X#X#X#X#X#X#X#X#X#X#X#X#X#X#X#X#X#X#X#X#X#X#X#X#X#X#X#X#X#X#X#X#X#X#X#X#X#X#X#X#X#X#X#X#X#X#X#X#X#X#X#X#X#X#X#X#X#X#X#X#X#X#X",
"#X#X#X#XSX#X#XSX#XSX#XSX_.SX#X#XSX#XSX#XmX_.mX#XSXSX#X_.mXSXSXSXSX_.SXSXSX$XSXSXSX`.DXDXDX`.SXSX_.SX$XSXSX$XDX`.SXSXSX`.SXSX$XDXDXSXSXSXDXDX$XDX(.DXDX$X`.`.DX`.DX5 DX` DXDXDXGXHXHXJXKX) ) GX5 DXDX6 OXFX6 HXGXDXDX] GXGXDX] `.6 FXDX` FX5 8 `.@ 5 FX5 DX5 DXFXFX' ' FX5 5 5 6 2 GX' 5 DX' 2 HX3 HX/ 2 JX3 3 / 3 q 1 S S u 4 q y q q S 4 KXu q S 3 2 ( 3 3 ( ( 4 ) 3 3 3 JX2 3 ) S u q 3 6 6 5 ' 3 S 3 GX6 FX' 6 ' 6 2 6 DX6 2 2 2 GX/ 6 GX2 / GX/ 2 ( 3 4 GX2 3 2 2 2 3 4 & Y.b.m.b.m.w.b.f.l.n.b.n.n.n.c.c.n.e.y q y y r k k w.B.C.C.V.m.m.S.K.B.m.H.S.n.c.b.b.v.l...g.q q y y q q q q q y q A y q c q q q q y q q y q S 1 ;XI.q JXKXe.3.3.7.7.t.r.2.} 4.q 4 y c > S S * q q q c c c u c S 4 x x u ;XgXxXfXsXzXpXgX9.+.| 9.9.7.p.*.4.5.5.5...Y ..&.K <XwXfXsXAX_ _.#X#X#X#X#X#X#X#X#X#X#X#X#X#X#X#X#X#X#X#X#X#X#X#X#X#X#X#X#X#X#X#X#X#X#X#X#X#X#X#X#X#X#X#X#X#X#X#X#X#X#X#X#X#X#X#X#X#X#X#X#X#X#X#X#X#X#X#X#X#X#X#X#X#X#X#X#X#X#X#X#X#X#X#X#X#X#X#X#X#X#X#X#X#X#X#X#X#X#X#X#X#X#X#X#X#X#X#X#X#X#X#X#X#X#X#X#X#X#X#X#X#X#X#X#X#X#X#X#X#X#X#X#X#X#X#X#X#X#X#X#X#X#X#X#X#X#X#X#X#X#X#X#X#X#X#X#X#X#X#X#X#X#X#X#X#X#X#X#X#X#X#X#X#X#X#X#X#X#X#X#X#X#X#X#X#X#X#X#X#X#X#X#X#X#X#X#X#X#X#X#X#X#X#X#X#X#X#X#X#X#X#X#X#X#X#X#X#X#X#X#X#X#X#X#X#X#X",
"#X#X#X#X#X#X#X#X#X#XSX#XSX_.mX#X#XmX#X_._.SX_.#X_.SX_.SXSXSX$XSXmXSX$XSXSXSX$XSX$XDXDX`.DX(.DX$XSXSXSXSXSXSXDX`.SXSXSX$XSX$XDXDX$XSX$X`.DXSXSXDXDXDXDXDXDXDXDXDXDX(.@ DXDXDXDXDXFXGX3 u KX4 u ( FX( HX` FXFX/ / FXDX` 3 / DXDXDXFX' DXDXDX] DXFX5 FXFX` DXDX` FX' # ' 5 DX' GX/ GXGXFX` DX6 2 2 ' ' DX6 3 3 / 6 / GXFX# ( ' 1 q A q r y 4 1 JX1 q 4 JX2 2 6 6 6 4 4 2 (.( ) 3 GXFXHXu u 2 / 6 FX2 A S FX2 6 5 FX` 5 4 3 5 ' GX/ 2 2 / 6 ' FX6 2 ( 3 3 2 HX2 2 HXGX2 3 3 3 4 u 4 e.b.b.b.b.n.n.v.l.c.b.n.q.c.v.c.b.y r r y r r r e.S.S.V.m.S.H.B.V.B.V.V.H.V.b.B.g.z.f.d.f.q A q c q q e.q r 0 r y q q q q q A q q q q r q JXS 1 JXFXGXHXO A &.4.} <.>.>.>.f.u y r y q r q y q q A 1 u c 1 S > 3 HX3 c j x 3 ( : hXsXzXd.@.&.&.&.8.=...4...&.*.&.d.E *.+.l wXsXfXdXD D #X#X#X#X#X#X#X#X#X#X#X#X#X#X#X#X#X#X#X#X#X#X#X#X#X#X#X#X#X#X#X#X#X#X#X#X#X#X#X#X#X#X#X#X#X#X#X#X#X#X#X#X#X#X#X#X#X#X#X#X#X#X#X#X#X#X#X#X#X#X#X#X#X#X#X#X#X#X#X#X#X#X#X#X#X#X#X#X#X#X#X#X#X#X#X#X#X#X#X#X#X#X#X#X#X#X#X#X#X#X#X#X#X#X#X#X#X#X#X#X#X#X#X#X#X#X#X#X#X#X#X#X#X#X#X#X#X#X#X#X#X#X#X#X#X#X#X#X#X#X#X#X#X#X#X#X#X#X#X#X#X#X#X#X#X#X#X#X#X#X#X#X#X#X#X#X#X#X#X#X#X#X#X#X#X#X#X#X#X#X#X#X#X#X#X#X#X#X#X#X#X#X#X#X#X#X#X#X#X#X#X#X#X#X#X#X#X#X#X#X#X#X#X#X#X#X#X",
"#X#X#X#X#X#X#X#X_.mX#XSX#XSX_.SXSX_.mX#XmX#XSX_.mXSXmX_.mXSXSX_.SXSX$X$XSXSXSX$X$XDX$XSXSXDXDXDXDX$X$XSXSXSXSX$X$XSXSXDXSX$X8 `.] SX`.DXDXSXSXDXDX$X8 DXDXFX(.DXSX$X`.DXDXFXFXFXFX' FXGX( KX4 u 4 4 S # ` DXFXGX' 6 2 3 ( FX5 ` ' GXDXDXDXDXFXFX5 FX5 8 SXDXFXFXFX' FX` 5 ' 6 6 6 6 5 DX` 6 GXGXFX/ # ' ' 3 JXHXGX6 GXGX2 2 u HXFXHXu y 1 A KXKXq u S 4 2 ' FX/ 4 3 2 2 JX3 3 2 3 JX( ) 3 2 6 2 4 q 4 6 / FX5 DX' 2 4 3 FX6 6 6 6 6 / # 6 GX/ HXHX3 2 GX2 HX3 2 FX(.( 3 ) u 1 1 A m.m.b.b.n.q.c.v.d.f.c.n.n.v.c.q.b.0 k q y y y r S.H.B.m.w.w.B.m.m.B.V.V.m.m.V.d.k.l.l.z.v.A q c c y y y 0 0 r q y q q q q y q c A y q 2 6 / ( 3 3 ) 4 ) + KXr r g.y e.q u u c r 0 0 k y y q A 1 c c S u u u 4 ( 3 S S HXN N m z 3 q J.3.@.&.7.7.*.5.*.&.7.&.&.=.l.E +.<X3XsXsXuXhX_ AX#X#X#X#X#X#X#X#X#X#X#X#X#X#X#X#X#X#X#X#X#X#X#X#X#X#X#X#X#X#X#X#X#X#X#X#X#X#X#X#X#X#X#X#X#X#X#X#X#X#X#X#X#X#X#X#X#X#X#X#X#X#X#X#X#X#X#X#X#X#X#X#X#X#X#X#X#X#X#X#X#X#X#X#X#X#X#X#X#X#X#X#X#X#X#X#X#X#X#X#X#X#X#X#X#X#X#X#X#X#X#X#X#X#X#X#X#X#X#X#X#X#X#X#X#X#X#X#X#X#X#X#X#X#X#X#X#X#X#X#X#X#X#X#X#X#X#X#X#X#X#X#X#X#X#X#X#X#X#X#X#X#X#X#X#X#X#X#X#X#X#X#X#X#X#X#X#X#X#X#X#X#X#X#X#X#X#X#X#X#X#X#X#X#X#X#X#X#X#X#X#X#X#X#X#X#X#X#X#X#X#X#X#X#X#X#X#X#X#X#X#X#X#X#X#X#X",
"#X#X#X#X#X#X#X#X#X#X_.#X#XSX_.mXSXmX_.SX_.#XSX#XSXSX#X_.SX#XmXSXSXSXSXSXSX$X$XSXSXSX$XSX$X`.DXDX(.DXDXDX$XSX$XSXSXSX$XSXSXSXSXo DX$X$XDXDX$XSXDXDXDX] $XDXDXDXDXDXDXFXFXDXFX` FXFXFXDX] @ / GXJXS 4 u u GXGXHX6 # GXGX2 HXGX5 FX/ 2 5 DX] 5 6 DXFXDX8 DXGX6 6 FXFX5 DXDXFXFXGX6 ' 5 DX5 6 2 HX6 FX6 6 FXFX3 4 2 ' / 4 3 ( ) 6 5 2 GX6 2 u u q q y q u A 4 4 q A 3 3 ) 4 3 HX2 3 4 ( # HXHX( 4 HX2 u 1 / 5 5 ` 8 4 y S ( GX6 6 ' 6 ( 4 2 6 / 2 GX2 ( 2 2 2 / 2 3 2 GX3 2 S A c 1 S.m.m.b.b.n.c.c.v.v.l.f.v.c.v.c.v.c.b.0 k q q y r r C.S.B.B.B.B.B.B.B.V.B.m.m.m.c.f.d.d.Y f.q A q r r q r 0 0 y y q y q A c y r y y y m 5 GXGX2 HXJX3 3 HX2 HX6 # @ @ # 5 6 6 6 c 0 r q r y y q c A r y > S c 4 2 2 JX3 2 HX2 3 JXM M & q q.+.+.+.&.=.*.3.&.&.&.&.v...K gX4XqXsXfXfXaX_ mX#X#X#X#X#X#X#X#X#X#X#X#X#X#X#X#X#X#X#X#X#X#X#X#X#X#X#X#X#X#X#X#X#X#X#X#X#X#X#X#X#X#X#X#X#X#X#X#X#X#X#X#X#X#X#X#X#X#X#X#X#X#X#X#X#X#X#X#X#X#X#X#X#X#X#X#X#X#X#X#X#X#X#X#X#X#X#X#X#X#X#X#X#X#X#X#X#X#X#X#X#X#X#X#X#X#X#X#X#X#X#X#X#X#X#X#X#X#X#X#X#X#X#X#X#X#X#X#X#X#X#X#X#X#X#X#X#X#X#X#X#X#X#X#X#X#X#X#X#X#X#X#X#X#X#X#X#X#X#X#X#X#X#X#X#X#X#X#X#X#X#X#X#X#X#X#X#X#X#X#X#X#X#X#X#X#X#X#X#X#X#X#X#X#X#X#X#X#X#X#X#X#X#X#X#X#X#X#X#X#X#X#X#X#X#X#X#X#X#X#X#X#X#X#X#X",
"#X#X#X#X#X#X#X#X#X#XmX#XSX#XSX_._.SXSXmX_.mX_.SX_.#XSXSXSX#X_.SX$X_.mXSX$X$X] SXSX$X$X`.$XSX$X$X`.@ (.(.DXDX$XSXSX$X`.SXSX$XDXDX`.SXDXDXDXSXSX$X5 DX$XDX] DXDXDXFXFXFXDX`.DXDXDXDX` 1XFXFX` @ ' HX) JXu 4 3 u 2 (.GX` FX2 6 ' GX3 HX5 DX8 6 HXDXDX8 `.2 2 FXFXFX' ` SXDX6 ' 6 FX5 DX` FX' / 6 FXFX5 FXFX2 3 / 5 5 6 3 ) S u 2 2 ) GX2 2 2 k r q y q u A 1 HXy r u u HX2 2 FX6 4 3 6 FXHX3 3 S HX/ S 1 ( 5 5 FXm y r u 6 6 5 5 6 6 ( 4 ( 6 6 / 2 2 2 2 2 6 6 2 3 HX3 ( HXu u 1 1 V.T.m.b.n.c.c.l.v.c.c.v.l.v.c.c.f.l.q.c.h 0 0 L k y r H.C.Y.H.S.V.V.B.B.m.m.m.m.T.c.j.M.d.r y r 0 h h 0 k k r y q q c q r y r r k r m FX2 2 2 2 2 / /.HX2 HX2 HX2 GX/ 2 2 2 ( ( 2 M c r r y y y q r r y q A 4 / 6 / 2 HX3 ( 3 ( HX( S S JXKXe.S.S ) GXS q.=.3.3.+.=.f.K xX4X4XqXeXuXgX_ ).#X#X#X#X#X#X#X#X#X#X#X#X#X#X#X#X#X#X#X#X#X#X#X#X#X#X#X#X#X#X#X#X#X#X#X#X#X#X#X#X#X#X#X#X#X#X#X#X#X#X#X#X#X#X#X#X#X#X#X#X#X#X#X#X#X#X#X#X#X#X#X#X#X#X#X#X#X#X#X#X#X#X#X#X#X#X#X#X#X#X#X#X#X#X#X#X#X#X#X#X#X#X#X#X#X#X#X#X#X#X#X#X#X#X#X#X#X#X#X#X#X#X#X#X#X#X#X#X#X#X#X#X#X#X#X#X#X#X#X#X#X#X#X#X#X#X#X#X#X#X#X#X#X#X#X#X#X#X#X#X#X#X#X#X#X#X#X#X#X#X#X#X#X#X#X#X#X#X#X#X#X#X#X#X#X#X#X#X#X#X#X#X#X#X#X#X#X#X#X#X#X#X#X#X#X#X#X#X#X#X#X#X#X#X#X#X#X#X#X#X#X#X#X#X#X",
"#X#X#X#X#X#X#X#X#X% #X#X#X_.mXSX#XSXSXSXSXSXSX#XmX_.SX_.SX_.mXSXSX_.SXSX$X$XSXSX$XSXSXSXSX$X] o DXDXDXDXFXFXDX`.SXSX$XSX_.DXDX`.SXSX`.DX$XSX`.DXDX$XSXSX$XDXDX] DXDXDXDXSX$XDXDXDX@ ` FXFXDX` DXDX' GXHXu u S u 2 FXDXGXHX6 OX' ( HXFXDX`.6 M 5 DXDXDX6 5 ` FX5 DX8 @ ' FXFX' 5 DX5 FXFX6 GXFX' 5 ` 5 / ( ( 6 DXDX' 3 4 M 3 2 ( 4 4 3 HX2 1 q KXS ) 3 u y q q q q u GXHX2 3 S 4 3 HX2 ( 3 JX4 > ) 4 3 3 / 2 3 4 1 q A 6 6 ' FX5 GXJX4 ( 6 6 / 2 / ' 6 GXGX/ HX( 2 ( 2 3 S S u c e.m.V.V.T.c.f.c.l.v.c.c.v.c.n.f.v.l.l.c.k 0 L LX0 y 0 k B.V.V.V.S.S.B.m.w.w.m.m.m.d.j.z.g.r k k 0 0 0 H 0 r y y e.q c q k 0 k k r : FX2 ( 2 / 2 HX( 3 3 3 ( 2 2 6 2 3 3 3 JX3 3 3 3 3 S > 4 > M 4 c 4 3 1 1 HXGX6 GX/ 2 ( HX2 3 3 3 3 4 S 3 # # @ @ 6 # = 4 A q.&.&.*.+.xX0X4XqXsXsXqXiX_ #X#X#X#X#X#X#X#X#X#X#X#X#X#X#X#X#X#X#X#X#X#X#X#X#X#X#X#X#X#X#X#X#X#X#X#X#X#X#X#X#X#X#X#X#X#X#X#X#X#X#X#X#X#X#X#X#X#X#X#X#X#X#X#X#X#X#X#X#X#X#X#X#X#X#X#X#X#X#X#X#X#X#X#X#X#X#X#X#X#X#X#X#X#X#X#X#X#X#X#X#X#X#X#X#X#X#X#X#X#X#X#X#X#X#X#X#X#X#X#X#X#X#X#X#X#X#X#X#X#X#X#X#X#X#X#X#X#X#X#X#X#X#X#X#X#X#X#X#X#X#X#X#X#X#X#X#X#X#X#X#X#X#X#X#X#X#X#X#X#X#X#X#X#X#X#X#X#X#X#X#X#X#X#X#X#X#X#X#X#X#X#X#X#X#X#X#X#X#X#X#X#X#X#X#X#X#X#X#X#X#X#X#X#X#X#X#X#X#X#X#X#X#X#X#X",
"#X#X#X#X#X#X#X#X#X#X#X#X#X#X#X_.SXmX_.SXSX$XSXSXSX_.mXSX#XSXSXSXSX#XSXSXSXSXSXSX$X$X$X$XSXSX$X`.DXDXSX$XDXDXFX(.DXSXSXSXSX$X`.DX$XSX$XDXSXSXDXDXDXDX$XSX@ DXSX$XDXDXDXDXFX5 FXFXDXDX@ (.DXDXFXFXFXFX6 GX3 KXS u A 4 2 u ) @ FXFX6 2 6 ` 5 ( 4 GXDX5 ` 6 ' DX5 DX8 FX/ 6 5 FX5 DX8 DXFX6 6 6 6 FXDXFXGX( 2 2 ' 5 5 GXGX2 GX5 6 2 3 4 4 2 DXDX6 HX2 3 ( 2 u y 1 u y u u A u q y u ) 2 3 ( 2 ( 3 HX3 2 ( JXHX4 4 3 4 y q 2 GX6 DXm u u ) 6 6 6 6 6 FX2 ) 2 6 GX2 2 HX3 3 ) > 3 4 A B.B.S.C.H.n.n.V.b.l.d.v.v.v.n.l.z.d.z.d.w.1 r 0 0 r 0 0 f.v.d.f.g.w.m.m.b.b.T.S.n.X.z.f.k k k k k 0 h '.0 y y y y q y r k r q A 2 #X6 HXHX6 GX/ 2 2 2 2 3 3 3 GX6 GXGXGX/ 2 HX2 2 2 3 GXGX2 5 5 / GXGXN ' 2 3 ( HX6 6 FXGX2 2 4 u u ) 2 GXGXGX2 6 FXFX1X6 2 2 2 4 w.v.*.xXfXfXqXsXsXfXgXAXD #X#X#X#X#X#X#X#X#X#X#X#X#X#X#X#X#X#X#X#X#X#X#X#X#X#X#X#X#X#X#X#X#X#X#X#X#X#X#X#X#X#X#X#X#X#X#X#X#X#X#X#X#X#X#X#X#X#X#X#X#X#X#X#X#X#X#X#X#X#X#X#X#X#X#X#X#X#X#X#X#X#X#X#X#X#X#X#X#X#X#X#X#X#X#X#X#X#X#X#X#X#X#X#X#X#X#X#X#X#X#X#X#X#X#X#X#X#X#X#X#X#X#X#X#X#X#X#X#X#X#X#X#X#X#X#X#X#X#X#X#X#X#X#X#X#X#X#X#X#X#X#X#X#X#X#X#X#X#X#X#X#X#X#X#X#X#X#X#X#X#X#X#X#X#X#X#X#X#X#X#X#X#X#X#X#X#X#X#X#X#X#X#X#X#X#X#X#X#X#X#X#X#X#X#X#X#X#X#X#X#X#X#X#X#X#X#X#X#X#X#X#X#X#X",
"#X#X#X#X#X#X#X#X#X#X#X#X#X#X#XmX#X#X_.mXSXSXSX$X$XSXSXSX_.SX_.SX_.mX$XSX_.SX$XSXSXSXSXSX`.DXSXSXSX$XDX$X`.DXDXDXFXFXDX`.SXSXSX$XSXSXDXDXSX$XSX$XDXDX$XDX` DX`.SXDX` DXDXDXDXDXFXDX] DXDXDXDXFXFXFX6 GXFX1X` HXJXKXu 4 u 1 2 FXFX' 2 GXGX/ 3 M ( 5 FX5 HX2 8 DXDXDX6 FXFX6 5 DX] DX' 6 6 ' 6 FX` FX6 GX6 GX6 FXDX6 / ' 3 N GX2 GX6 6 4 u GXGX/ 2 3 3 3 ( 6 / 2 ) 4 S 1 y u KXy A GXGXM 2 FX2 JX2 GXGX4 3 ( 3 HX) S S S 3 / FXN u q S 2 GX6 FXFXFX' ) 4 2 6 2 HX( 2 / 2 2 3 2 3 A V.S.S.B.m.V.C.S.H.m.l.l.v.f.c.c.d.z.z.d.g.q * S > y 0 l k v.v.c.v.v.n.b.w.w.V.T.z.j.z.l r r r k 0 0 0 0 0 r r r y y k 0 h A @ / 6 FX6 / FX' 6 GX6 2 ( 2 / 2 2 / / / 2 GX/ 2 2 2 2 / / / 2 / ' GX2 / 6 2 6 GX3 ) 4 2 ' GX4 q 1 1 q A 3 GXFX2 2 6 / / 6 ' 6 2 HX3 GX= > A 4 O X gXuXqXsXuXaX_ mX#X#X#X#X#X#X#X#X#X#X#X#X#X#X#X#X#X#X#X#X#X#X#X#X#X#X#X#X#X#X#X#X#X#X#X#X#X#X#X#X#X#X#X#X#X#X#X#X#X#X#X#X#X#X#X#X#X#X#X#X#X#X#X#X#X#X#X#X#X#X#X#X#X#X#X#X#X#X#X#X#X#X#X#X#X#X#X#X#X#X#X#X#X#X#X#X#X#X#X#X#X#X#X#X#X#X#X#X#X#X#X#X#X#X#X#X#X#X#X#X#X#X#X#X#X#X#X#X#X#X#X#X#X#X#X#X#X#X#X#X#X#X#X#X#X#X#X#X#X#X#X#X#X#X#X#X#X#X#X#X#X#X#X#X#X#X#X#X#X#X#X#X#X#X#X#X#X#X#X#X#X#X#X#X#X#X#X#X#X#X#X#X#X#X#X#X#X#X#X#X#X#X#X#X#X#X#X#X#X#X#X#X#X#X#X#X#X#X#X#X#X#X#X",
"#X#X#X#X#X#X#X#X#X#X#X#X#X#X#X#X#X#XSXSX_.SX$XSXSXSXSXSXmXSX#XmXSXSXSXSX#XSX$XSXSX$XSX$XDX$XSXSX$X$X`.DXSX$X$XDXDXFXFX` 1XDX8 SXSXSX`.$XSXSX$XDXDX`.SXDXDXDXSXSXDXFXDXDX`.DX$XDX` FX(.DX(.@ FX5 DXFXDX` 5 DXFXGX2 JX1 1 1 A ( HXu 2 FXHXGX2 3 2 GXFX6 M 3 FX` 8 ' / DX5 FXDX8 ( M 2 6 FX' FXDX5 6 6 6 6 6 FX5 6 2 3 JX2 GX/ 6 6 FXGX4 4 ( 6 GX) 3 2 3 ( 6 6 HXHX2 2 4 A q A r y 4 u HX3 u u 4 3 / 3 KX( 3 3 3 S HX2 JX3 3 2 4 S A u 2 / 5 5 DX5 5 3 4 GX6 / 2 2 ' GX2 GX6 / GX) S.C.S.m.m.V.C.V.B.S.m.g.v.v.v.b.c.d.l.v.w.q A q y r r y y k v.q.n.q.v.v.n.m.v.k.j.j.h.0 k k k k k k 0 k k k k k r k 0 0 H 4 ' HXGX' ' 5 5 5 GX/ HX4 3 2 GXGX/ 6 2 2 2 2 2 ( ( 2 2 2 6 6 2 ( HX3 M 3 3 M 2 2 ) 4 4 u 4 3 u q q 1 u ) GXGXGX2 FX6 6 6 2 2 2 2 2 6 6 3 2 o ] n V N hXsXfXuXdXD ).#X#X#X#X#X#X#X#X#X#X#X#X#X#X#X#X#X#X#X#X#X#X#X#X#X#X#X#X#X#X#X#X#X#X#X#X#X#X#X#X#X#X#X#X#X#X#X#X#X#X#X#X#X#X#X#X#X#X#X#X#X#X#X#X#X#X#X#X#X#X#X#X#X#X#X#X#X#X#X#X#X#X#X#X#X#X#X#X#X#X#X#X#X#X#X#X#X#X#X#X#X#X#X#X#X#X#X#X#X#X#X#X#X#X#X#X#X#X#X#X#X#X#X#X#X#X#X#X#X#X#X#X#X#X#X#X#X#X#X#X#X#X#X#X#X#X#X#X#X#X#X#X#X#X#X#X#X#X#X#X#X#X#X#X#X#X#X#X#X#X#X#X#X#X#X#X#X#X#X#X#X#X#X#X#X#X#X#X#X#X#X#X#X#X#X#X#X#X#X#X#X#X#X#X#X#X#X#X#X#X#X#X#X#X#X#X#X#X#X#X#X#X#X",
"#X#X#X#X#X#X#X#X#X#X#X#X#X#X#X#X#X#X#X#XSXmX_.SX$XSX$X$X`.SX_._.SXSXSXSX_.SX$XSXSXSX$X$XSXSX$X`.DXSXSXSX$X`.DXDX(.DXDXDX6 ' DX$XSX`.8 $XSXSX` DX`.SX$X`.DX`.SX`.DX` DXDXSXSX` DXDXFXFXFX5 DXDX`.DXDXDXFXFXFXFXDXDXFX/.KXJXKX1 u u S 6 ' FX` HX/ GX6 2 ) 3 5 ` DX# 3 FXDXDX8 GX4 6 ' FXFX5 ` SXDXGX' 6 GX6 5 FX/ GX/ HXFX' 6 5 ` ' 3 3 2 6 ' 6 ( 3 ) u 3 / ( JX( 3 ( GX1 k r k r 1 1 u HXq q 4 S 3 3 3 6 GX3 S 2 FX3 HX2 M 3 GX4 q u 6 5 5 DX5 3 A q ) GX6 6 GX' 2 4 2 2 FX6 # M S.S.V.m.B.V.m.B.S.V.m.w.n.c.c.T.n.f.c.v.q u q r k r r r k r v.v.c.c.v.v.c.n.d.X.j.X.j.k k 0 k r 0 0 k k k k k 0 0 0 0 0 k u JX3 GXGX5 DXDX5 FX6 4 u ) ( / 2 6 6 6 6 6 6 GX2 2 m 2 6 ' 6 2 3 3 ) HX2 3 4 M 4 4 3 ( 3 HX/ 2 S 4 /.3 2 6 6 6 FXDX/ 2 / 3 4 M 2 / 2 / HX6 ' 5 6 2 v v v X gXuXiX_ #XVX).#X#X#X#X#X#X#X#X#X#X#X#X#X#X#X#X#X#X#X#X#X#X#X#X#X#X#X#X#X#X#X#X#X#X#X#X#X#X#X#X#X#X#X#X#X#X#X#X#X#X#X#X#X#X#X#X#X#X#X#X#X#X#X#X#X#X#X#X#X#X#X#X#X#X#X#X#X#X#X#X#X#X#X#X#X#X#X#X#X#X#X#X#X#X#X#X#X#X#X#X#X#X#X#X#X#X#X#X#X#X#X#X#X#X#X#X#X#X#X#X#X#X#X#X#X#X#X#X#X#X#X#X#X#X#X#X#X#X#X#X#X#X#X#X#X#X#X#X#X#X#X#X#X#X#X#X#X#X#X#X#X#X#X#X#X#X#X#X#X#X#X#X#X#X#X#X#X#X#X#X#X#X#X#X#X#X#X#X#X#X#X#X#X#X#X#X#X#X#X#X#X#X#X#X#X#X#X#X#X#X#X#X#X#X#X#X#X#X#X#X",
"#X#X#X#X#X#X#X#X#X#X#X#X#X#X#X#X#X#X#X#X#XSXSXSXSX$XSXSX$X$XSXSXSXSX_.mXSXSX$XSX_.SXSXSX$X$XSX$XDX`.SX`.$X$XDXDX@ $XSXDX(.FXFXFXDX$XSXSXSX$XDXDXDXSXSXDXDX8 $XDX@ DXDXSXSXDXFXDX`.DX` DXDXFXFXFXFXFXDXFXFXFX` DXDX5 5 FXGXJXy q S A q 2 FXHX) 6 GXGX2 3 2 ' DXDX/ u 6 DX` DXN GX5 FX' # ` DX' GX' FX' FX5 FXFX6 GX2 6 ' 6 5 5 6 3 3 ) 2 6 FX5 2 4 u 4 ( 3 3 JX3 ) 3 2 1 r q q 1 S A q u 1 u u 1 S 2 6 ' 2 4 4 FXDX3 ( HX4 ( GXKXS HX2 6 5 2 S q r q 3 6 6 ' FX6 ( XX( 3 6 GXGX( S.V.m.b.B.V.S.H.Y.B.n.m.T.b.w.B.v.k.l.k.0 y k 0 k r y y q 1 1 I.v.v.c.c.v.c.v.k.X.X.0 r 0 0 0 r k k r k r k k k k r q 4 JXu A u 3 GX6 / 4 1 S 4 KX3 ) 2 GX/ 6 FX' 6 6 2 2 ' 6 2 GX6 6 6 GX/ 2 2 FXDXFXFXGX2 2 / 2 6 FX6 / / 3 ( 3 ) JX2 6 ` 5 ( 4 4 S u 4 FXDX6 / 6 6 6 / 6 GX/ 2 m v v ;XjX_ #XDX5 SX@XAX#X#X#X#X#X#X#X#X#X#X#X#X#X#X#X#X#X#X#X#X#X#X#X#X#X#X#X#X#X#X#X#X#X#X#X#X#X#X#X#X#X#X#X#X#X#X#X#X#X#X#X#X#X#X#X#X#X#X#X#X#X#X#X#X#X#X#X#X#X#X#X#X#X#X#X#X#X#X#X#X#X#X#X#X#X#X#X#X#X#X#X#X#X#X#X#X#X#X#X#X#X#X#X#X#X#X#X#X#X#X#X#X#X#X#X#X#X#X#X#X#X#X#X#X#X#X#X#X#X#X#X#X#X#X#X#X#X#X#X#X#X#X#X#X#X#X#X#X#X#X#X#X#X#X#X#X#X#X#X#X#X#X#X#X#X#X#X#X#X#X#X#X#X#X#X#X#X#X#X#X#X#X#X#X#X#X#X#X#X#X#X#X#X#X#X#X#X#X#X#X#X#X#X#X#X#X#X#X#X#X#X#X#X#X#X#X#X",
"#X#X#X#X#X#X#X#X#X#X#X#X#X#X#X#X#X#X#X#X#X#X#X_.SXSXSX$X] o `.$X$XSX#XSXSX$XSXSXSXSXSX_.SXSX$XSXSX$XSX`.DXDXSX$X`.DX`.DXDXDXFXFXFXDXDX$XSX`.8 `.`.SX`.DXDX$X`.DXDXDX`.SXDXFXDX] SXDXFXDXDX` 5 FXOX5 DXDXDXDXFXFX' FX' GX/ 2 JX4 1 1 q q 4 1 q 2 FX6 FXHX( 2 FX' 3 S 2 DXFX5 6 ( 5 ` 5 ` DX6 3 6 FX6 FX` DX` FX6 2 / 6 6 FX6 / ( 3 HX3 6 FX` 2 3 ( 2 6 6 GX3 4 4 3 ( ( HX( 3 ( HXGX4 y r 1 oXr A u 4 3 1 q KX( 2 2 3 JX3 ) ) 3 M JX4 S 2 / ) S 1 q y 4 GX6 5 5 6 HXHX4 HX2 / 2 6 A.B.B.m.m.V.H.C.Y.m.n.m.m.T.B.b.k.j.j.h 0 0 0 0 r q ) 2 GXHX3 & u I.f.v.v.f.v.d.L L h k h h 0 k g.r k 0 k k k 0 u ' 2 JXS u 1 A 4 3 ) KX1 y q S ( ( 3 OX6 6 FX5 2 / 3 ) HX3 2 6 6 6 / 2 / 6 6 / GX6 GXFX6 6 GX6 2 HXm 3 3 3 4 S 4 S KX) 2 GX2 3 4 KX4 JX2 FXFXFX' 6 / 6 2 2 6 GX/ 2 2 2 v 2 @ @ 2 3 GXDXSXAX@XAX#X#X#X#X#X#X#X#X#X#X#X#X#X#X#X#X#X#X#X#X#X#X#X#X#X#X#X#X#X#X#X#X#X#X#X#X#X#X#X#X#X#X#X#X#X#X#X#X#X#X#X#X#X#X#X#X#X#X#X#X#X#X#X#X#X#X#X#X#X#X#X#X#X#X#X#X#X#X#X#X#X#X#X#X#X#X#X#X#X#X#X#X#X#X#X#X#X#X#X#X#X#X#X#X#X#X#X#X#X#X#X#X#X#X#X#X#X#X#X#X#X#X#X#X#X#X#X#X#X#X#X#X#X#X#X#X#X#X#X#X#X#X#X#X#X#X#X#X#X#X#X#X#X#X#X#X#X#X#X#X#X#X#X#X#X#X#X#X#X#X#X#X#X#X#X#X#X#X#X#X#X#X#X#X#X#X#X#X#X#X#X#X#X#X#X#X#X#X#X#X#X#X#X#X#X#X#X#X#X#X#X#X#X#X",
"#X#X#X#X#X#X#X#X#X#X#X#X#X#X#X#X#X#X#X#X#X#X#X#XmXSX$XSX$XSX$XSX] $XSXSXSXSXSXSXSX$XSX_.mX`.SXSXSX$XDXDXDX$XSX`.`.DXDXDX`.$X`.DX(.# ' FXDXDXDXSXSXSX`.DX$XSXSX$XDXDXDX`.@ ` DXDXSXo FXFXDXDXDXFXFX5 DXDXDXFXFXFXGX' # GXGXFXDXDXHX) JX1 1 u q A / ' 6 ( 2 GXHX3 4 4 ) 6 ' 5 / 4 FXDXDXDX5 GX6 5 6 6 5 8 SX5 ' / 6 6 GX' 5 GXGX2 GX/ / ' DX6 4 HX2 / / / GX( 2 3 ( FXGXHX2 GX3 3 2 3 ) 4 4 u r y KXq u q y u 4 JX2 ) ( 6 3 4 3 OX6 3 ( XX4 FXGX3 A y S / 6 6 5 4 1 S 3 2 2 2 6 FX# C.V.B.B.B.B.V.S.S.m.B.V.B.B.k.X.2.L 0 k r q c 3 GXHXHX/ 2 ( S 3 4 k f.d...f.r 0 9XL 0 h 0 h 0 r r r r r r k r 6 FX3 KX) 4 u JX2 HXJX4 4 4 1 1 3 2 HX2 6 6 DX6 6 GX4 JX3 4 2 DXFX2 2 GX2 2 2 2 2 2 2 2 / 6 6 2 ( 2 ( 2 / 2 / 2 ( 3 3 3 3 3 3 ( 2 2 3 2 / ' 5 FXFXFX2 / 2 2 / 2 N / 2 / / 2 ' 6 6 6 2 M 3 2 FXSX@X@XAX#X#X#X#X#X#X#X#X#X#X#X#X#X#X#X#X#X#X#X#X#X#X#X#X#X#X#X#X#X#X#X#X#X#X#X#X#X#X#X#X#X#X#X#X#X#X#X#X#X#X#X#X#X#X#X#X#X#X#X#X#X#X#X#X#X#X#X#X#X#X#X#X#X#X#X#X#X#X#X#X#X#X#X#X#X#X#X#X#X#X#X#X#X#X#X#X#X#X#X#X#X#X#X#X#X#X#X#X#X#X#X#X#X#X#X#X#X#X#X#X#X#X#X#X#X#X#X#X#X#X#X#X#X#X#X#X#X#X#X#X#X#X#X#X#X#X#X#X#X#X#X#X#X#X#X#X#X#X#X#X#X#X#X#X#X#X#X#X#X#X#X#X#X#X#X#X#X#X#X#X#X#X#X#X#X#X#X#X#X#X#X#X#X#X#X#X#X#X#X#X#X#X#X#X#X#X#X#X#X#X#X",
"#X#X#X#X#X#X#X#X#X#X#X#X#X#X#X#X#X#X#X#X#X#X#X#X#X_.SX$XSXSXSX$Xo `.DX$XSX_.SXSXSXSX$XSXSX$XSXSXSX$X`.`.SXSXDXDXo `.$X$XDXDXDXDXFXFXFXFXGXFXDXDX$X$XDXDX`.SXDXFXDXDX$X8 DXDXDX`.SXDXFX5 $XDXDXDX5 (.FXFX' GXFXDXFXFX` 5 FXFXFXFX' GXHX4 u 1 1 q A 3 u 1 6 GX2 GXm M HXGX' 6 3 ) 6 ` 5 8 ( 2 DXFXFX` 8 ' 3 3 GX6 FX' 5 5 ' 6 2 / 6 GX6 5 5 2 3 3 M 2 6 GXGX2 ' 3 4 2 HXGX2 3 ( 2 4 3 $XDX2 3 ( u 1 q q q y q S JX3 3 6 6 3 KX( 6 GXJXHXGX3 / HX) 4 4 4 2 / 6 / A q JXGX/ 2 6 FX' # HXY.;.A.R.;.T.B.B.m.T.B.B.l.1.k.z.k c c ) DX/.3 JX3 2 ( 3 4 4 u A 1 q k I.4 2 2 u k 0 h L L h k 0 H h y r k r ( 2 ( HXHX) S 4 / GX3 4 ) 4 KXu KX( 2 GXGX6 GX3 2 ( 4 ( 3 2 GXFX' 2 6 6 / 2 2 3 3 m 6 / / 6 6 GX6 / 6 (.FXFX6 GX# / 6 FX2 2 / 6 6 / N 6 3 2 FX5 DX` 6 2 6 6 6 N 2 2 2 GX6 6 2 / 6 / / 6 2 3 4 3 / DX_.VXAX#X#XVX#X#X#X#X#X#X#X#X#X#X#X#X#X#X#X#X#X#X#X#X#X#X#X#X#X#X#X#X#X#X#X#X#X#X#X#X#X#X#X#X#X#X#X#X#X#X#X#X#X#X#X#X#X#X#X#X#X#X#X#X#X#X#X#X#X#X#X#X#X#X#X#X#X#X#X#X#X#X#X#X#X#X#X#X#X#X#X#X#X#X#X#X#X#X#X#X#X#X#X#X#X#X#X#X#X#X#X#X#X#X#X#X#X#X#X#X#X#X#X#X#X#X#X#X#X#X#X#X#X#X#X#X#X#X#X#X#X#X#X#X#X#X#X#X#X#X#X#X#X#X#X#X#X#X#X#X#X#X#X#X#X#X#X#X#X#X#X#X#X#X#X#X#X#X#X#X#X#X#X#X#X#X#X#X#X#X#X#X#X#X#X#X#X#X#X#X#X#X#X#X#X#X#X#X#X#X",
"#X#X#X#X#X#X#X#X#X#X#X#X#X#X#X#X#X#X#X#X#X#X#X#X#X#X#XSXSX$XSXSX`.o ] DX`.$X$X$XSXSXSXSXSXo $XSXSX$XSX$X$XSX$X`.DXDXSXSX`.DXDXDXFXDX$XDXFX6 FXFXDX8 ] $XSXSXDX5 DX`.SX$XDXDXDX$XDX@ (.DX] DXSX` FXDX` FXFXFX5 SXSXDXDX(.FXFXFXGX' FXFXFX6 JXoXu 1 u u q ) ' / FXDX3 / GXGX3 S 4 GX5 ` 8 u S 8 5 DXDX6 u 2 6 6 6 6 5 DXDXFX/ / 6 GX6 DXDX' HX( 4 HX6 FX` 6 6 / 3 ) 3 6 6 ( 4 3 ) S 2 6 / / HX2 2 JX1 y y y r u u oXHXS A S 4 3 HXS 4 3 3 3 4 S 4 / ( ( 3 3 HX3 u q u / 2 6 5 ` FX5 3 KX2 # # # I.l.T.g.d.f.v.k k y 1 2 GXHXHX/ 3 4 ) 6 FXGX3 ) 4 u u JX3 3 # @ / 6 8 c q r r 0 L L 0 '.F y q k y 3 ( JX4 4 4 4 KXJXHXJX2 2 JX4 S 4 ( 2 3 3 3 M u q 1 GXGX2 / ' FXFX5 5 6 6 / M S 3 2 FX6 2 6 / / 6 / GX/ 2 / 6 6 GX6 ' 6 / 6 6 / 2 2 GX5 ( u 4 6 2 2 6 3 3 2 4 u M ( 2 ' FX6 / 2 2 2 2 6 6 6 GXm 3 M 3 FX` 6 5 SXAX@XAX#X#X#X#X#X#X#X#X#X#X#X#X#X#X#X#X#X#X#X#X#X#X#X#X#X#X#X#X#X#X#X#X#X#X#X#X#X#X#X#X#X#X#X#X#X#X#X#X#X#X#X#X#X#X#X#X#X#X#X#X#X#X#X#X#X#X#X#X#X#X#X#X#X#X#X#X#X#X#X#X#X#X#X#X#X#X#X#X#X#X#X#X#X#X#X#X#X#X#X#X#X#X#X#X#X#X#X#X#X#X#X#X#X#X#X#X#X#X#X#X#X#X#X#X#X#X#X#X#X#X#X#X#X#X#X#X#X#X#X#X#X#X#X#X#X#X#X#X#X#X#X#X#X#X#X#X#X#X#X#X#X#X#X#X#X#X#X#X#X#X#X#X#X#X#X#X#X#X#X#X#X#X#X#X#X#X#X#X#X#X#X#X#X#X#X#X#X#X#X#X#X#X#X",
"#X#X#X#X#X#X#X#X#X#X#X#X#X#X#X#X#X#X#X#X#X#X#X#X#X#X#X#X#X_.$X$XSX$XSX$XDXDXDX`.SXSXSXSX$XSXSXSX$Xo _.SXDX`.SXSX`.$X`.DXDXDX`.`.DXDXDXDXFXFX' # ' FXDXDXSX$XDX`.DX8 $X] DXDXDX`.DX` 5 DX`.SXDX# DXSX8 FXDXDX` FXFX6 GX5 5 FXFX6 FXFX' FX5 FXGX3 1 q q A q u / ' 3 4 2 / GX2 ) 4 2 5 5 DXS u 5 5 ` DX3 2 `.6 6 ' FX5 8 DX6 2 6 GX6 5 DX5 FXGXHX2 ' 5 ' 5 FX6 3 3 3 GX' 6 6 HX4 u u ( 2 4 HX# ) 3 6 y 0 r r l y u u u KXy 1 u u 2 4 JX6 / JX4 3 / GX2 o ( 4 3 4 ) q 1 ( 6 FXDX6 2 u A 4 2 2 ( @ S l.c...%.M.k 1 c q 4 JX4 JX( ( 3 3 3 GXGXOX3 JX( 4 3 2 ( HXGX2 3 6 6 S u u > q k * 5 # 1 y y 1 q u 2 3 6 DXGXS KX( HX( FX6 HX( 3 JX3 3 HXJX4 4 1 y 1 2 2 2 6 5 5 ` 8 ` / 6 GX3 ) 4 GXFX2 2 6 2 2 / 2 2 2 2 2 GXN / 6 / 2 3 ( ( 3 3 ( 3 3 3 4 S 4 A 4 2 ( 3 u u S 3 GXGX# 6 ' 5 ' / 2 2 / GX6 N 2 2 2 ( 2 / / 2 ( 2 FX#X@XAXSX#X#X#X#X#X#X#X#X#X#X#X#X#X#X#X#X#X#X#X#X#X#X#X#X#X#X#X#X#X#X#X#X#X#X#X#X#X#X#X#X#X#X#X#X#X#X#X#X#X#X#X#X#X#X#X#X#X#X#X#X#X#X#X#X#X#X#X#X#X#X#X#X#X#X#X#X#X#X#X#X#X#X#X#X#X#X#X#X#X#X#X#X#X#X#X#X#X#X#X#X#X#X#X#X#X#X#X#X#X#X#X#X#X#X#X#X#X#X#X#X#X#X#X#X#X#X#X#X#X#X#X#X#X#X#X#X#X#X#X#X#X#X#X#X#X#X#X#X#X#X#X#X#X#X#X#X#X#X#X#X#X#X#X#X#X#X#X#X#X#X#X#X#X#X#X#X#X#X#X#X#X#X#X#X#X#X#X#X#X#X#X#X#X#X#X#X#X#X#X#X",
"#X#X#X#X#X#X#X#X#X#X#X#X#X#X#X#X#X#X#X#X#X#X#X#X#X#X#X#X#X#X#XSX$X] SX$X$X`.`.DXDX$X$XSXSXSX$XSX$X] SX_.$XDXSX$XDXSXDX@ DX$XSXSXDXDXDXDXDXDXDXDXFXGXGXFXDXDXDXDXDX$XSX`.DXDXSX8 `.DXDXDX8 DXFXFXDX`.8 DXFXDX5 FX5 OXGXFXDXDXFXFXFXFX' GX6 GX2 HX3 ) u A q y A 4 q q / 6 GXFX2 3 ( ' 5 / u u 6 FX5 5 2 2 5 FX' 5 DXDXFX6 / ' 6 6 5 ` ' 6 6 2 2 6 6 ' 5 GX/ 2 ) 3 3 FXDX5 GX3 M ) 3 3 4 u ) 3 S 4 ( 1 r y r r q 1 q 1 oXq A 1 u HX( 6 5 3 S 4 3 2 3 3 2 3 S 4 JX4 u 4 ) 6 5 ' 4 A r y 4 GX2 6 5 5 A w.I.X.k.q q y q u 4 4 S 4 ) HX2 ( 3 HX2 3 ( 3 3 2 HX2 / 2 2 6 ' S u 3 3 1 A > 2 2 ) 3 4 KX/.q y KXGX4 q q ) 3 2 3 2 GX2 3 XXOX3 u HXFXHX) 3 S q 1 ( 2 / ' 6 GX` FXGX6 FX2 HX3 3 6 6 2 ' 6 6 2 2 2 2 2 2 2 m 2 DXDX' 6 / 2 3 3 2 3 3 4 ) 3 3 2 HX2 2 2 2 3 3 2 GX6 6 6 5 DX6 2 6 6 2 2 2 / 6 2 2 ' 6 6 FX6 / 2 M > 3 FX#X@XAX#XVX).VXAX#X#X#X#X#X#X#X#X#X#X#X#X#X#X#X#X#X#X#X#X#X#X#X#X#X#X#X#X#X#X#X#X#X#X#X#X#X#X#X#X#X#X#X#X#X#X#X#X#X#X#X#X#X#X#X#X#X#X#X#X#X#X#X#X#X#X#X#X#X#X#X#X#X#X#X#X#X#X#X#X#X#X#X#X#X#X#X#X#X#X#X#X#X#X#X#X#X#X#X#X#X#X#X#X#X#X#X#X#X#X#X#X#X#X#X#X#X#X#X#X#X#X#X#X#X#X#X#X#X#X#X#X#X#X#X#X#X#X#X#X#X#X#X#X#X#X#X#X#X#X#X#X#X#X#X#X#X#X#X#X#X#X#X#X#X#X#X#X#X#X#X#X#X#X#X#X#X#X#X#X#X#X#X#X#X#X#X#X#X#X#X#X#X#X",
"#X#X#X#X#X#X#X#X#X#X#X#X#X#X#X#X#X#X#X#X#X#X#X#X#X#X#X#X#X#X#X#X_.o $XSXSX$XDXDXDXDXDX$XSXSXSX$XSX$XSXSXDXDXSXSX$XDXDX`.$X$XDXDX`.DXDX`.DXDXDX1XFXFXFX5 FXFX5 DXSXSX$XDXDXDXSX`.DXDX@ (.DX` FX5 ` o SXDX' FXDXDXDX` 5 FX` FX(.FX(.FXGXGX6 GX( GXFXDXFX3 JXu q 1 q y u / 6 FX2 3 2 HX2 3 S u 3 FX6 5 ( S 5 DX5 DX8 FXm GX' FX5 FXDX8 FX6 2 2 GXGX/ 6 DXGX( 3 HX2 2 ' 5 ' 6 GX3 2 6 6 6 3 u 4 4 ) 3 / GX4 u 2 3 S 1 q y q 1 u S u 3 OXu q u 4 ( HX3 HX( JXKX4 ) 4 ) 4 4 2 6 u 1 u q r 1 GX6 6 FX5 DX# O q k y q q A 1 S 3 3 ) 3 3 2 ( ) 2 / 3 HX3 ( 2 2 6 ` GX2 2 3 S S 3 2 3 3 3 ( 3 S S 4 4 HXoXy q HXh ; h 2 3 3 ) ( HX( 3 3 3 4 4 OX/ 4 3 3 3 ( KXS 4 2 2 ( 2 4 A A u u 4 2 HX3 / 2 6 5 6 6 6 6 2 3 m 6 2 ( 6 ` 5 6 GXDXFX/ 6 GX/ 2 2 2 ( 2 FXFX2 / / 6 / 2 3 3 HX6 FXDX5 / ) 3 ) 4 4 2 6 GX' ' 6 6 ' 6 6 6 / 2 ( M S 3 DX#X#XDXFXDX$X#X@XAX#X#X#X#X#X#X#X#X#X#X#X#X#X#X#X#X#X#X#X#X#X#X#X#X#X#X#X#X#X#X#X#X#X#X#X#X#X#X#X#X#X#X#X#X#X#X#X#X#X#X#X#X#X#X#X#X#X#X#X#X#X#X#X#X#X#X#X#X#X#X#X#X#X#X#X#X#X#X#X#X#X#X#X#X#X#X#X#X#X#X#X#X#X#X#X#X#X#X#X#X#X#X#X#X#X#X#X#X#X#X#X#X#X#X#X#X#X#X#X#X#X#X#X#X#X#X#X#X#X#X#X#X#X#X#X#X#X#X#X#X#X#X#X#X#X#X#X#X#X#X#X#X#X#X#X#X#X#X#X#X#X#X#X#X#X#X#X#X#X#X#X#X#X#X#X#X#X#X#X#X#X#X#X#X#X#X#X#X#X#X#X",
"#X#X#X#X#X#X#X#X#X#X#X#X#X#X#X#X#X#X#X#X#X#X#X#X#X#X#X#X#X#X#X#X#X_.#XSX$XSX$X`.$X`.DXDX$X`.`.SXSXSX$XSXDX`.$XSX$XDXSX$X8 $XDXDXDXDX$X$XDXDX@ (.FXDX$XDXFX' GXFXDX] DXDXDXDXSXDXGX(.DX8 `.DXDXDXDXSX8 FXFXDXDX` DXDXDXFX6 / # FX@ ` ' FXDXFXFX` FXFXFXGX( ( KXq y q y 1 ( u A 3 GX3 ( 3 4 4 3 6 6 6 > 1 / DX` DXDX6 6 FX6 6 5 DX] DX6 ( 2 6 / 6 FXFXFX6 2 HX/ GX6 FXDX6 FX1X2 GX6 / FXGX4 ) 3 4 GXDX2 3 / GX3 2 q k q 1 q r q 1 A KXq y S u JX2 3 ( GX2 4 3 3 2 3 4 KX3 4 S 3 ( u r q 2 GX/ 6 ' 3 4 ) ( q y q q 1 u S ) 4 3 2 / 2 3 ( HX2 ( ( 3 ( ( 2 GXGX6 ( 3 4 4 S 4 ( 6 GX2 2 2 3 4 ( 4 KXJXu u u y ,.h / S KX4 3 3 HX2 2 ( 4 3 HX3 3 / 2 JX4 4 S 1 u 3 3 3 4 u q y A 3 FX/ ) HX6 ' FX` 2 / 2 ( 3 3 ( 2 6 FX6 6 6 6 GX6 GX6 6 / GXFX6 / 2 2 2 2 2 3 2 3 3 M ) 4 3 / / HX2 3 S 4 ) 3 6 FX6 5 6 / 6 6 6 N 6 GX6 6 2 2 > 4 ( 6 6 2 m m 2 FXSX@X@XAX#X#X#X#X#X#X#X#X#X#X#X#X#X#X#X#X#X#X#X#X#X#X#X#X#X#X#X#X#X#X#X#X#X#X#X#X#X#X#X#X#X#X#X#X#X#X#X#X#X#X#X#X#X#X#X#X#X#X#X#X#X#X#X#X#X#X#X#X#X#X#X#X#X#X#X#X#X#X#X#X#X#X#X#X#X#X#X#X#X#X#X#X#X#X#X#X#X#X#X#X#X#X#X#X#X#X#X#X#X#X#X#X#X#X#X#X#X#X#X#X#X#X#X#X#X#X#X#X#X#X#X#X#X#X#X#X#X#X#X#X#X#X#X#X#X#X#X#X#X#X#X#X#X#X#X#X#X#X#X#X#X#X#X#X#X#X#X#X#X#X#X#X#X#X#X#X#X#X#X#X#X#X#X#X#X#X#X#X",
"#X#X#X#X#X#X#X#X#X#X#X#X#X#X#X#X#X#X#X#X#X#X#X#X#X#X#X#X#X#X#X#X#X#X#X#XSXSX$X] o SXDX` DXDXDXSXSX$XSXSX$X$XSXSXDX$XSXDXDXo `.DX$XSXDXDXDXDX` DXDXDX$X@ (.6 GXGX/ FXo DX] $XSXDX5 @ DX`.SXDX(.DX] DXFXFXFX` DXDXSXFXGX5 FX6 GX6 FX@ ` @ DXFX@ FX6 ' GX2 FXDXFX( 1 S 1 q q q q 1 ' / HX6 2 M 2 / / 3 S u 3 FX5 5 ' 2 FX5 5 5 DXDX3 2 ( 2 6 6 GXFXDX' / GX2 6 6 6 FX5 ` 6 ) 4 ) 2 2 2 ( 6 6 / 4 1 3 6 HXHX3 3 ) 2 1 y HX2 JXu q 1 y 1 1 k q 4 3 3 ( 2 ' 3 4 ) 2 GX( 4 ) JX3 3 3 4 1 S 1 3 2 2 DX2 y q HXS q y y q A u u q 1 4 / 6 2 HX( 2 HX2 2 2 2 2 2 2 6 GX2 HX3 M ) 3 GX6 / / 6 / 3 3 2 S A u 4 4 S 2 r 0 S JXJXu u 3 6 5 5 FXHX( 3 3 GX# FX3 4 3 JXS 3 HX( HX2 3 u 1 q 4 GX3 2 / 6 6 DXDX' 2 3 3 4 4 3 2 6 6 6 / / 2 2 6 6 / 6 / 2 6 ] FX6 2 ( 2 3 2 2 ( 3 3 3 3 ) M 3 3 ( 3 M 2 3 3 GX6 FXFXFX5 6 6 / 2 2 2 GX6 6 2 2 2 2 N FXDXFX/ 3 > m 6 DX#X@XAX#X#X#X#X#X#X#X#X#X#X#X#X#X#X#X#X#X#X#X#X#X#X#X#X#X#X#X#X#X#X#X#X#X#X#X#X#X#X#X#X#X#X#X#X#X#X#X#X#X#X#X#X#X#X#X#X#X#X#X#X#X#X#X#X#X#X#X#X#X#X#X#X#X#X#X#X#X#X#X#X#X#X#X#X#X#X#X#X#X#X#X#X#X#X#X#X#X#X#X#X#X#X#X#X#X#X#X#X#X#X#X#X#X#X#X#X#X#X#X#X#X#X#X#X#X#X#X#X#X#X#X#X#X#X#X#X#X#X#X#X#X#X#X#X#X#X#X#X#X#X#X#X#X#X#X#X#X#X#X#X#X#X#X#X#X#X#X#X#X#X#X#X#X#X#X#X#X#X#X#X#X#X#X#X#X#X",
"#X#X#X#X#X#X#X#X#X#X#X#X#X#X#X#X#X#X#X#X#X#X#X#X#X#X#X#X#X% #X#X#X#X#X#X#X#XSX`.$X8 `.DXDXDXDXDX$X`.$XSXSXSX$X$XDX$XSXSX`.DX$X$X`.DXDX(.FXDXSX$XDX` DX(.DXDXDX@ ' GX6 FXDXo `.DXDXDXDXSXDXFXFXDXDXDX` FXFX` DXSX5 GX5 `.DXFXFX` DX6 2 6 GX' FXFXGXGXGXFXDXDXFX5 6 HX) y r q q y q ( 6 5 4 4 2 HX/ 3 S 4 2 5 5 FX6 4 2 DX` DXDXS S FX6 GX6 ' 5 5 8 FX2 2 / GX/ 6 5 FX6 GX3 3 4 M 6 6 / 6 2 HX3 S 3 2 6 ( 4 4 3 3 3 / 6 / GXHX3 S q y y q q u ) u 4 3 u 1 S 4 2 HX3 4 JX( 3 3 4 u 3 2 KX3 / 2 2 u q q ) u A q A c 1 c y y HX2 6 GX2 2 2 3 ( 6 GX6 GX/ ( ( ( HX/ ( 2 HX2 / / 2 GX6 2 2 3 3 ) 4 4 u 4 3 2 6 5 3 1 3 HXKX1 ( 3 y [.0 3 HX) JXm FX1XHX3 HX3 3 / GX2 2 3 4 ) ) 1 u 2 2 HX2 6 5 FX3 ( 3 ( HX3 / FX6 6 6 2 / = 2 2 / 6 FX/ 2 2 5 DX' ' GX2 / FXDXGX2 6 GX6 2 2 2 2 / 2 2 6 6 6 2 N 6 FX5 ` 5 5 / 6 6 2 2 / 2 m ( 6 ' 6 ' 6 5 FX6 6 2 3 4 > ( 5 #XVX).VXAXVX#X#X#X#X#X#X#X#X#X#X#X#X#X#X#X#X#X#X#X#X#X#X#X#X#X#X#X#X#X#X#X#X#X#X#X#X#X#X#X#X#X#X#X#X#X#X#X#X#X#X#X#X#X#X#X#X#X#X#X#X#X#X#X#X#X#X#X#X#X#X#X#X#X#X#X#X#X#X#X#X#X#X#X#X#X#X#X#X#X#X#X#X#X#X#X#X#X#X#X#X#X#X#X#X#X#X#X#X#X#X#X#X#X#X#X#X#X#X#X#X#X#X#X#X#X#X#X#X#X#X#X#X#X#X#X#X#X#X#X#X#X#X#X#X#X#X#X#X#X#X#X#X#X#X#X#X#X#X#X#X#X#X#X#X#X#X#X#X#X#X#X#X#X#X#X#X#X#X#X#X#X",
"#X#X#X#X#X#X#X#X#X#X#X#X#X#X#X#X#X#X#X#X#X#X#X#X#X#X#X#X#X#X#X#X#X#X#X#X#X#X#XSXSX$X$XSX`.DXDXDXDX5 `.SXSXSX`.SX$X] SXSXDXDX] SXDXDXDXFXDX$XDXDXDXDX@ 5 DX$XDX` DXFX2 2 GXFXDXDXDXDXDXSXDXFXDXDXSX`.DXDX` DX8 ` OXFXDXDX8 DXFXFXFXFXFX6 HX' 5 DXFXFXFXFX' 6 GXGX/ 3 3 1 A q q y r y 4 1 y u 6 2 2 GX4 4 ( FX5 6 3 A 3 DX5 ` 5 4 2 5 6 6 6 ' ` DX8 6 2 6 6 / 6 FXFX6 6 / ' FXHX2 ' FX6 FX/ 3 / 2 HX6 6 ( ) 3 ) u u 2 ( 3 HX4 2 3 0 r y y <Xy 4 1 u u y q 4 u 3 3 4 4 2 6 3 4 S 3 GX3 3 HX3 / 3 4 u y u u c > S S S A y 1 3 2 GX6 GX/ 2 GX/ 3 GX6 6 3 2 FX3 2 GX2 2 2 2 2 GX6 ' 6 ( 3 3 4 4 ) 2 ( 3 2 ' 6 6 5 3 S KXu KXu A r k 0 1 ) 4 1 4 2 ( 3 3 ( 3 3 4 ( HX2 HX2 ( 3 3 4 ) 2 3 3 GX6 S q q S GX/ 2 5 FX6 FX6 6 ' 6 6 N 3 GX' 3 / ' ' 6 6 6 6 6 6 FXFXFX6 6 ' DXFX/ 6 / 6 6 GX6 GXN 6 6 / 2 6 FX8 (.6 6 / 4 S > ( 2 6 GX' 6 6 / / N GX6 N 2 2 2 3 M ( 6 DXDX' 5 #X@X#X#X#X#X#X#X#X#X#X#X#X#X#X#X#X#X#X#X#X#X#X#X#X#X#X#X#X#X#X#X#X#X#X#X#X#X#X#X#X#X#X#X#X#X#X#X#X#X#X#X#X#X#X#X#X#X#X#X#X#X#X#X#X#X#X#X#X#X#X#X#X#X#X#X#X#X#X#X#X#X#X#X#X#X#X#X#X#X#X#X#X#X#X#X#X#X#X#X#X#X#X#X#X#X#X#X#X#X#X#X#X#X#X#X#X#X#X#X#X#X#X#X#X#X#X#X#X#X#X#X#X#X#X#X#X#X#X#X#X#X#X#X#X#X#X#X#X#X#X#X#X#X#X#X#X#X#X#X#X#X#X#X#X#X#X#X#X#X#X#X#X#X#X#X#X#X#X#X#X",
"#X#X#X#X#X#X#X#X#X#X#X#X#X#X#X#X#X#X#X#X#X#X#X#X#X#X#X#X#X#X#X#X#X#X#X#X#X#X#X#X#X#XSX`.$XDXDXDXDX(.@ `.$XDXDXSXSX$XSX$XDX`.$XSX`.DXDXDX`.o ` FX` DX`.DXDX` @ FXFXGXFXOX6 2 HX' ` 8 $X8 DXDXDXDXSXDX` DXFXDXDX5 FXFX5 DXSXDX6 6 FXDXDXGX6 ' FXDX5 DXGXFXFX2 / GXHX3 HXFXFXGXu 1 1 y q q y y ) 6 / 5 2 S 3 2 2 m S A 4 5 5 6 ' 2 2 ' FXFX5 5 DX6 2 / GX6 ' 5 5 DX` 6 / GX2 ( 2 GX6 ' 5 6 2 3 3 ( 6 6 2 6 2 HXS 1 u HXJXS 4 KX3 / q h k k k q u A q .Xq q u u S JXM / ` 2 KXHX3 6 OX) 3 3 3 OXOXGX1 y u 1 S 4 > S A y y u JX2 2 6 6 6 ' 2 S 1 3 6 ' 2 FXDX2 2 2 2 / 2 HX2 / 6 6 / 2 GX/ 3 3 ( 2 2 2 GX6 6 6 ' 3 1 1 1 1 1 JX(.6 2 u 4 ( u u GX2 2 ' 6 2 4 JXHXHX( FXGX3 3 3 JX3 2 ) 4 3 4 u u q 4 6 2 2 GX6 FX' 5 DX5 5 ' 3 u 4 ) 2 FX6 GX6 GX6 / 6 6 6 N 6 / 6 6 6 2 6 / 2 2 / 2 2 2 2 ( : HX4 3 3 ( # / 4 S S 4 ( 6 ' 2 6 5 6 6 6 2 2 2 6 FX6 FX6 6 2 3 2 / 2 2 2 6 DXAX@XAX#X#X#X#X#X#X#X#X#X#X#X#X#X#X#X#X#X#X#X#X#X#X#X#X#X#X#X#X#X#X#X#X#X#X#X#X#X#X#X#X#X#X#X#X#X#X#X#X#X#X#X#X#X#X#X#X#X#X#X#X#X#X#X#X#X#X#X#X#X#X#X#X#X#X#X#X#X#X#X#X#X#X#X#X#X#X#X#X#X#X#X#X#X#X#X#X#X#X#X#X#X#X#X#X#X#X#X#X#X#X#X#X#X#X#X#X#X#X#X#X#X#X#X#X#X#X#X#X#X#X#X#X#X#X#X#X#X#X#X#X#X#X#X#X#X#X#X#X#X#X#X#X#X#X#X#X#X#X#X#X#X#X#X#X#X#X#X#X#X#X#X#X#X#X#X#X",
"#X#X#X#X#X#X#X#X#X#X#X#X#X#X#X#X#X#X#X#X#X#X#X#X#X#X#X#X#X#X#X#X#X#X#X#X#X#X#X#X#X#X#XSXo `.DX`.DXDXFXDXDX5 `.SXSX$X$X`.DXDXSXSXDX$XSXDXDXDX`.DXFXDX`.DXDXDXFXFX' ' DX`.@ OX2 2 6 FXDXDXDXDXDXDXSX6 / FX` DXDXDXDX5 ` DX] FXGX' DXDX5 FXFXFXFX/ 6 GX3 FXFXGXGX6 ' GXGXFX' FX/ ) KXA y y q r r 4 2 4 u 3 2 JX) 3 u u u GX6 6 6 : 4 ' 5 5 5 DXGX> / 6 6 / 6 5 DX` 2 2 6 2 3 2 6 6 GX6 / 3 ( 4 ) 2 ' 6 GX' 3 JX( 2 2 2 3 u S 4 4 4 HXu q q S 4 KX1 A q 1 1 y 1 u ) HX2 & A u 2 3 GX2 4 JX4 ) 3 3 3 A KX4 q u u S q y y r y 3 2 2 6 ' 6 6 3 S 3 4 6 6 / GX2 2 HX( 2 GX6 6 6 2 HX2 2 ( ( GXFX( 2 GX2 GX6 2 2 3 S u 4 m u 1 ) FX@ 2 4 4 3 oXu u ) GXGX/ 2 KX3 GX2 4 ( @ OX2 HX( 3 3 3 2 2 3 ) 3 u q 1 3 2 2 / ' 5 5 8 ] 8 DX3 A 1 S 3 6 ' 6 6 / 6 2 2 6 / 2 2 / 6 6 6 / 6 6 / 2 ( ( 3 M 3 3 ) 4 4 4 ( 3 4 2 2 4 3 2 2 FXFXGX2 ' ' 5 FX6 6 2 2 DXFXN 6 2 2 / 6 FX6 6 6 6 m 3 2 FX#X@XVX#X_.#X#X#X#X#X#X#X#X#X#X#X#X#X#X#X#X#X#X#X#X#X#X#X#X#X#X#X#X#X#X#X#X#X#X#X#X#X#X#X#X#X#X#X#X#X#X#X#X#X#X#X#X#X#X#X#X#X#X#X#X#X#X#X#X#X#X#X#X#X#X#X#X#X#X#X#X#X#X#X#X#X#X#X#X#X#X#X#X#X#X#X#X#X#X#X#X#X#X#X#X#X#X#X#X#X#X#X#X#X#X#X#X#X#X#X#X#X#X#X#X#X#X#X#X#X#X#X#X#X#X#X#X#X#X#X#X#X#X#X#X#X#X#X#X#X#X#X#X#X#X#X#X#X#X#X#X#X#X#X#X#X#X#X#X#X#X#X#X#X#X#X#X",
"#X#X#X#X#X#X#X#X#X#X#X#X#X#X#X#X#X#X#X#X#X#X#X#X#X#X#X#X#X#X#X#X#X#X#X#X#X#X#X#X#X#X#X#X#XSXDXDX`.DXDXDX` (.DX$X`.`.SXSX$XSX$X`.DXSXSX`.DXDXSXDXFX`.DXDXFX(.FXDXDXDX(.@ ` ' GXHXHX2 / 5 DX`.SX$X8 DXFXDXDX] $XDX5 FXDXDXFXFX6 (.o ` `.DXGX' FX6 GX/ GX' 8 `.6 (.FXFX6 # 6 / 2 2 / 3 KX1 q q r q S y r ) GX3 3 2 3 > 3 ( 2 6 2 S u 6 ` 5 DX5 3 2 FX6 6 FX5 DX8 FXS 2 6 ( 2 / 6 ' 6 6 2 2 2 ( GX6 / GX` 2 4 / 6 / 6 FX6 JX4 JX4 ) ( GX2 3 ( ( / 1 y y r y l y u 1 HXKXr y 4 4 4 3 3 3 ( 3 ) 4 KX4 2 3 JX4 A q c u 4 u r k 3 / 6 ' 5 6 GX2 HX) S 2 GX/ 6 GX/ 2 2 2 6 FX6 GXFX2 3 / 2 2 6 GX2 2 2 6 FX6 2 3 4 4 4 ( 6 2 3 3 3 ) ) ) 4 4 KXKXu q 4 1 0 h r GXHX4 1 ( 6 2 3 3 3 3 4 ( GXHXJX3 JX4 ) S 4 ( GX6 6 ' 5 GX3 4 ) S 1 S ) / ' 6 / 6 ' 6 6 / 2 2 m 2 / 6 / 2 6 FXFX6 / 2 2 m 2 2 2 2 2 m HX3 2 2 2 / / / 2 2 DXGX3 2 FX5 8 ' 6 ' : 4 3 M GXFXFX/ 6 6 6 N 6 ' 6 / 2 3 > ( ' `.@XVX#XAX#XAX@X#X#X#X#X#X#X#X#X#X#X#X#X#X#X#X#X#X#X#X#X#X#X#X#X#X#X#X#X#X#X#X#X#X#X#X#X#X#X#X#X#X#X#X#X#X#X#X#X#X#X#X#X#X#X#X#X#X#X#X#X#X#X#X#X#X#X#X#X#X#X#X#X#X#X#X#X#X#X#X#X#X#X#X#X#X#X#X#X#X#X#X#X#X#X#X#X#X#X#X#X#X#X#X#X#X#X#X#X#X#X#X#X#X#X#X#X#X#X#X#X#X#X#X#X#X#X#X#X#X#X#X#X#X#X#X#X#X#X#X#X#X#X#X#X#X#X#X#X#X#X#X#X#X#X#X#X#X#X#X#X#X#X#X#X#X#X#X",
"#X#X#X#X#X#X#X#X#X#X#X#X#X#X#X#X#X#X#X#X#X#X#X#X#X#X#X#X#X#X% #X#X#X#X#X#X#X#X#X#X#X#X#X#X#XSX$XDX`.SXDX(.@ ` 5 FXDX$XSXSXDX`.DXDX`.SXSXDX1X$XDX@ DXDXOXFXDXDXDX$X@ FX(.@ FXFXFXFXGXHX2 ' FXDXSX` DXDX` DXDX8 FXFX5 DXDXFX5 FX5 DX8 8 ' GX5 DXDXGXFX5 FX5 FXGX6 ' FX' 6 GX2 / FXFX' 5 GXJXKXq y q A r q 3 / 2 FX6 S ( HX2 ( S u u 2 FX5 5 6 M 6 5 ' 5 DXDX6 2 3 4 6 / 2 6 6 6 FX6 GXGX2 ( 6 6 6 2 5 DX2 JX2 / 2 / 6 / 2 6 4 1 3 2 2 3 3 3 JX2 3 h r JXKXq y 1 A A 1 q y q S ) HX3 ( / 6 3 3 4 ( ' JXHXGXHXu 4 HX) 4 q y 4 / / GXFX' S 1 4 3 HX2 / 6 6 6 ' ' ' / 2 6 2 / FX/ 2 2 2 / 6 2 2 2 / 5 FX6 GX/ ( 3 S 4 3 2 FXFX2 2 2 2 3 3 4 KX) u u u l N.r 6 ) S KX2 HX3 HX3 4 S JXGX( 4 ( ' 2 ( 3 S S S 3 ( 3 3 4 u 1 A y 1 4 3 2 6 6 / 2 ' 5 5 5 ' 3 4 3 2 ' = 3 / ' FX6 6 ' ' 2 GXFXGXGX6 GXGX6 GX6 6 6 6 2 / / 2 3 4 ) 2 6 6 # GXM ) 4 u u 2 ' DX5 ' ' 6 6 6 6 6 GX6 6 ( 3 3 4 > 6 SX#XDX' FX5 #X@XVX#X#X#X#X#X#X#X#X#X#X#X#X#X#X#X#X#X#X#X#X#X#X#X#X#X#X#X#X#X#X#X#X#X#X#X#X#X#X#X#X#X#X#X#X#X#X#X#X#X#X#X#X#X#X#X#X#X#X#X#X#X#X#X#X#X#X#X#X#X#X#X#X#X#X#X#X#X#X#X#X#X#X#X#X#X#X#X#X#X#X#X#X#X#X#X#X#X#X#X#X#X#X#X#X#X#X#X#X#X#X#X#X#X#X#X#X#X#X#X#X#X#X#X#X#X#X#X#X#X#X#X#X#X#X#X#X#X#X#X#X#X#X#X#X#X#X#X#X#X#X#X#X#X#X#X#X#X#X#X#X#X#X#X#X",
"#X#X#X#X#X#X#X#X#X#X#X#X#X#X#X#X#X#X#X#X#X#X#X#X#X#X#X#X#X#X#X#X#X#X#X#X#X#X#X#X#X#X#X#X#X#X#X#X#XSXDX`.DXDXDX` FXFXDXSX$XDXDXSXSX`.SX`.(.DXDX$XDXDX5 FXDX$XDX5 (.DXDX@ ` DXDXDX` FX6 HX) 3 GX5 (.5 DXDX`.$XDXFX5 DX`.DXDX` FX5 DXDXFXGXFXDX8 DXFXFX5 FX2 GX2 3 GX' FX' 6 GX6 6 / GXGX6 / 3 KXr r y y r y S 2 3 A 1 2 3 ( 3 4 S u 2 ' FX6 N u 3 DX5 DX8 6 S 1 M 6 GX2 2 ' FX5 DXFX6 m 2 2 / / GXFX6 2 3 3 ) 3 2 # 2 2 GX6 3 u 4 2 2 2 JX4 S 3 2 q 4 AX# ( 4 u u q q 1 r r u ) HXHXHX2 3 ) JX4 GX2 4 ) JX( ( 3 ) 4 u 4 3 u 3 / 2 ' 2 r q 3 2 6 / 6 6 6 FXFX/ 3 ) 4 / GX6 6 2 2 2 2 2 2 2 ' ' 6 / 6 ' 6 GX3 ) 3 ) 2 6 FX6 / 6 6 2 2 m 1 1 ) JX) 3 1 L l 6 JXKX4 4 ) 6 ` DX' 4 / DXHX4 FXDX/ 3 4 HXHX4 4 HXOXGXJX3 ) KXS u 4 ( 2 / 2 2 6 FXDXFX2 / ) 4 4 4 3 m / ' 6 5 ' 6 6 6 GX6 6 / 6 6 6 / / 6 / / / 2 ( 3 2 ( 3 M 4 3 HX3 4 2 4 3 3 3 2 FX' 6 ' 5 ' FX6 6 6 N 6 / 6 2 2 2 2 ( 3 3 6 6 2 m 3 2 5 $XAX@X@XAX#X#X#X#X#X#X#X#X#X#X#X#X#X#X#X#X#X#X#X#X#X#X#X#X#X#X#X#X#X#X#X#X#X#X#X#X#X#X#X#X#X#X#X#X#X#X#X#X#X#X#X#X#X#X#X#X#X#X#X#X#X#X#X#X#X#X#X#X#X#X#X#X#X#X#X#X#X#X#X#X#X#X#X#X#X#X#X#X#X#X#X#X#X#X#X#X#X#X#X#X#X#X#X#X#X#X#X#X#X#X#X#X#X#X#X#X#X#X#X#X#X#X#X#X#X#X#X#X#X#X#X#X#X#X#X#X#X#X#X#X#X#X#X#X#X#X#X#X#X#X#X#X#X#X#X#X#X#X#X#X",
"#X#X#X#X#X#X#X#X#X#X#X#X#X#X#X#X#X#X#X#X#X#X#X#X#X#X#X#X#X#X#X#X#X#X#X#X#X#X#X#X#X#X#X#X#X#X#X#XAX#X$X`.DXDXDXDXDXFXFXDXFX` ] $XSXo `.DXDXDX`.SXDX` $XDXDX`.DX(.@ (.DX] DXDX(.FXFX# / 6 GX/ HXJX2 FXDX8 SX8 DX(.` DX8 DX` DXFXFXDX5 ' 6 FX` DX] FX6 FX' FX5 ' 2 6 6 DXFXFXGXGX' GXHX2 2 3 4 ) JXu A q y r r 1 q k y 2 2 2 GX3 S 4 M FX5 2 4 q S 5 5 ` 5 6 u u 6 FX6 2 6 6 DX` FX6 / HX/ 6 6 2 5 DXGX2 ( JX4 ( 6 FX6 / 2 3 3 / 2 2 2 2 u 4 3 4 u 2 FXHX) JXM GXq l y y 1 r q u u OXu q A u ) u ( HX4 KX) 3 3 ) 4 u 4 2 3 4 ( 2 ( 6 4 q q 4 / 6 GXGXFXDX' 5 3 S 4 3 6 / 6 2 2 GX/ / 2 2 ' FX5 2 2 2 / 2 m 3 GXFX2 / 6 ' 6 6 / m ( ( M S S 4 3 3 3 2 > 1 S 3 HXKX1 4 2 u u u 3 GXGXJX4 6 GXHX( GXFX2 ) 2 GXFXFX2 3 4 S S S ( ( ( 2 2 / 6 5 5 / FX3 S 3 4 2 GXGX6 6 5 5 ' 6 6 6 6 / 2 2 N / 6 ' 6 6 2 2 2 2 3 2 2 2 2 ( 3 3 3 3 3 ( ( 3 3 2 / 2 2 2 5 5 5 5 ' 5 6 / 6 2 2 / 6 N 2 6 6 / 6 FX6 6 / 2 3 3 2 FXDX#X@XAX#X#X#X#X#X#X#X#X#X#X#X#X#X#X#X#X#X#X#X#X#X#X#X#X#X#X#X#X#X#X#X#X#X#X#X#X#X#X#X#X#X#X#X#X#X#X#X#X#X#X#X#X#X#X#X#X#X#X#X#X#X#X#X#X#X#X#X#X#X#X#X#X#X#X#X#X#X#X#X#X#X#X#X#X#X#X#X#X#X#X#X#X#X#X#X#X#X#X#X#X#X#X#X#X#X#X#X#X#X#X#X#X#X#X#X#X#X#X#X#X#X#X#X#X#X#X#X#X#X#X#X#X#X#X#X#X#X#X#X#X#X#X#X#X#X#X#X#X#X#X#X#X#X#X#X#X#X#X",
"#X#X#X#X#X#X#X#X#X#X#X#X#X#X#X#X#X#X#X#X#X#X#X#X#X#X#X#X#X#X#X#X#X#X#X#X#X#X#X#X#X#X#X#X#X#X#X#X#X#X#XmX`.DXDXDXDX` 5 5 FXFXDXSXSX`.8 DXDXDX$XSX(.DXSXDX` DXDXFXDXFXDXDXDX` @ FXFX' GX(.$XDX6 2 3 HXGXDXDXDX5 FX` `.SXGX2 FXFX` DXFXFXFXFX5 ] $X' GX6 5 5 FXFXFXFXFX/ 2 GXGX6 GX2 2 2 HX( JX/ FXFXFX) 4 1 y y y r r u 2 2 / 6 3 4 M 3 2 M 1 A u 6 ' 6 6 ' 4 ) ' 6 6 ' FXDX/ > 3 / 2 2 GXGX6 5 FXFXGX2 2 3 2 6 ' FX' ' 3 ) 3 2 2 (.@ / 3 2 JX1 q 4 ( 4 4 JX4 6 1 '.k y y k r 1 A 1 u A r 1 S 1 JX( 4 4 / 6 3 S S 4 ( HX( GXHXu 4 2 S S y 1 2 GX/ ' 8 5 3 / S KX2 / / 6 GX2 / 6 5 5 5 ` FX6 / 3 2 2 2 GX/ 2 FX6 / 2 2 DXDXFX6 2 3 ) 4 3 2 ( 3 2 FXDX` 5 M 4 JX( u u KXr L L r GX4 u 4 ( 2 2 HX3 2 ( 3 2 2 GXHX3 3 ( 3 4 4 4 ( 2 2 HX2 6 ` 2 ) > u 4 3 3 `.mX6 / FX6 / 6 6 5 5 5 5 ' 6 / 2 6 5 FX' 6 6 GX/ 2 6 GX/ / 2 2 GX/ GX' 6 / / / 2 2 2 2 / GX5 DXDXDX5 2 GXGX4 M 2 / GX/ 6 6 FXFX6 FX6 ' DX' 2 3 > M 2 FXSX@XVX#X#X#X#X#X#X#X#X#X#X#X#X#X#X#X#X#X#X#X#X#X#X#X#X#X#X#X#X#X#X#X#X#X#X#X#X#X#X#X#X#X#X#X#X#X#X#X#X#X#X#X#X#X#X#X#X#X#X#X#X#X#X#X#X#X#X#X#X#X#X#X#X#X#X#X#X#X#X#X#X#X#X#X#X#X#X#X#X#X#X#X#X#X#X#X#X#X#X#X#X#X#X#X#X#X#X#X#X#X#X#X#X#X#X#X#X#X#X#X#X#X#X#X#X#X#X#X#X#X#X#X#X#X#X#X#X#X#X#X#X#X#X#X#X#X#X#X#X#X#X#X#X#X#X#X#X",
"#X#X#X#X#X#X#X#X#X#X#X#X#X#X#X#X#X#X#X#X#X#X#X#X#X#X#X#X#X#X#X#X#X#X#X#X#X#X#X#X#X#X#X#X#X#X#X#X#X#X#XAX#X$XDXDXDX`.DXFX5 FXFXDXFXDX$X$X] `.DXDX@ DXSX$X5 (.DXDXDX`.DXDXFXOXFX` DXDXFXFX` FXGX/ HX( 3 3 ' DXDXDXDX8 DX' GXFX5 DXDXDX` 5 ` DX8 FX6 GX(.DXFXDX5 FX6 GX( ( 2 2 GX6 DX6 GXDXGX' FXGX6 6 2 ) S u y k r r r A 3 3 M S 3 2 S 4 4 u S u 2 6 / 6 2 u 3 6 5 ' 5 5 5 M 4 6 / 2 6 6 6 5 SX5 / 6 2 3 ( 2 6 FX' 6 2 3 ) 4 3 2 DXFX6 6 JXS u 4 3 ( 4 u S 4 4 2 1 k k k r 1 u q q 1 A q KXu u 4 3 ( 6 DX( 1 S S 3 2 3 3 2 HXS 4 4 4 u q u 3 / 5 5 ] S q q y 3 @ / 6 6 6 6 6 FX2 3 3 2 6 FXFX2 / / / GX/ 2 2 2 / 6 GXDXDXDXDXGX3 3 M JX2 6 ( / 5 FX2 ' 6 S u 4 3 KX1 4 1 q 1 4 u ) S 4 / 2 ( 2 6 3 ( ) JX( ( 2 GX6 3 3 2 3 3 2 3 HX/ 6 HX4 A q 4 2 HX2 5 FX6 FX5 6 ' 5 6 ( ( 3 ( 6 5 / 6 6 6 6 6 6 GXFX6 / 6 6 6 6 6 6 6 6 6 FX6 6 6 6 6 6 2 6 5 3 2 ' 6 6 HX3 4 u 1 4 ( 6 GX6 2 6 5 6 6 6 6 6 5 ' 2 2 2 3 M > 3 / DX#X#XAXAX#X#X#X#X#X#X#X#X#X#X#X#X#X#X#X#X#X#X#X#X#X#X#X#X#X#X#X#X#X#X#X#X#X#X#X#X#X#X#X#X#X#X#X#X#X#X#X#X#X#X#X#X#X#X#X#X#X#X#X#X#X#X#X#X#X#X#X#X#X#X#X#X#X#X#X#X#X#X#X#X#X#X#X#X#X#X#X#X#X#X#X#X#X#X#X#X#X#X#X#X#X#X#X#X#X#X#X#X#X#X#X#X#X#X#X#X#X#X#X#X#X#X#X#X#X#X#X#X#X#X#X#X#X#X#X#X#X#X#X#X#X#X#X#X#X#X#X#X#X#X#X#X",
"#X#X#X#X#X#X#X#X#X#X#X#X#X#X#X#X#X#X#X#X#X#X#X#X#X#X#X#X#X#X#X#X#X#X#X#X#X#X#X#X#X#X#X#X#X#X#X#X% #X#X#XAX#X#X#XDXDXDXDXFXDXFXFX6 ' 8 SXSXDXDXDXDXDX] SXDXFXDX`.DX@ DXFX# (.DXDX`.DX5 FXFXFXFXFXFXFXGXHXHXGX6 FXDX`.DX5 ` FX5 DX8 FX' FXDXDX5 ' GX6 5 FX` $X` 2 GXFX5 GX/ GX6 FXDX6 FXDXGXFXGX/ GX2 3 3 FXFXHX1 q q y y A q r y 2 2 S 3 3 4 S 4 GX/ 6 6 S A u 2 FXFX5 5 ' 3 6 6 2 / 6 ' ` SX3 4 6 6 2 ( / 6 / 6 DXGX/ @ 4 ) 2 6 6 6 6 2 ) ( 6 2 / ' 3 1 u 4 4 3 / 3 u 1 4 3 HXu y y q .Xq q u S KX3 ( 4 q 1 JX4 / 2 3 ) HX3 ) 4 S KX3 JXS S 6 FXDX: y q y r 4 GX2 2 6 FX' ' 6 4 4 S 4 6 DX5 6 / 2 2 / 2 / 2 2 FXFX6 6 / 2 / 3 3 2 ( 2 6 2 / 6 6 6 / 2 3 u S M u u 4 HX6 6 2 S JX2 S 1 HX6 FXSXDX6 2 ) JX3 GX2 6 2 HX' OX3 ) M 4 ( 3 3 4 S 1 A 3 6 2 2 ' 6 ' 5 FXDX8 FXN 4 4 HXu S 2 6 6 6 ' 6 6 6 6 6 6 6 / 6 / 6 GX6 6 / / 2 / 6 6 ' 6 2 6 ' 6 ( 3 4 ) 6 3 u u u S M GX' GX2 / FX6 5 ' 6 6 ' 6 6 6 6 6 2 / GXm > m 6 / ` #X).VXAX#X#X#X#X#X#X#X#X#X#X#X#X#X#X#X#X#X#X#X#X#X#X#X#X#X#X#X#X#X#X#X#X#X#X#X#X#X#X#X#X#X#X#X#X#X#X#X#X#X#X#X#X#X#X#X#X#X#X#X#X#X#X#X#X#X#X#X#X#X#X#X#X#X#X#X#X#X#X#X#X#X#X#X#X#X#X#X#X#X#X#X#X#X#X#X#X#X#X#X#X#X#X#X#X#X#X#X#X#X#X#X#X#X#X#X#X#X#X#X#X#X#X#X#X#X#X#X#X#X#X#X#X#X#X#X#X#X#X#X#X#X#X#X#X#X#X#X#X#X",
"#X#X#X#X#X#X#X#X#X#X#X#X#X#X#X#X#X#X#X#X#X#X#X#X#X#X#X#X#X#X#X#X#X#X#X#X#X#X#X#X#X#X#X#X#X#X#X#X#X#X#X#X#X#X#XAX#XDXDXDX(.5 DX` ' GX@ DXDX` DX$X`.DX`.SX(.FXDXDXSXDX' FXFXDXDX@ (.@ (.DX5 FXDXDXDXFXFX' HX4 3 2 ' DX` 5 DX5 DX] DX( GXFXDXDX` FXFX6 FXDX8 5 GX/ FXDXDX6 ' FX5 GX) ( 2 2 6 ' 6 2 2 3 2 FXDXFXFX6 ( 4 A k k y q r q 2 / 3 6 2 S M 2 3 2 M u c q ( 6 ' 5 ] 3 q FX6 / 6 ' 5 FX2 y 1 ' / 2 2 6 ' 6 6 FX6 6 GX( 2 / GX/ FXN HX1X6 2 2 GX5 FX4 S ) ) HXGXGX2 HX) JX2 4 y y y y k r q u q q q y y u 4 JX2 ( ) 3 3 ( 3 S 4 4 HX2 4 S 3 N 2 u 1 u u r q 2 2 / 6 FX5 6 2 HX) S 3 5 FX6 / 2 2 / / 6 6 6 6 FX' 2 2 2 FXFX( / / 2 GX6 GX6 6 ' / 2 4 u u 3 2 u 1 ) 2 ( 3 S 4 3 JXKXu u 2 3 r r y S / GXHX2 2 GX2 2 2 HX3 3 S HXGXJXKX4 3 3 u u 2 ( 2 GX6 5 5 DXDXFX6 ' u ) 2 ) 4 / ' 6 6 6 GX6 6 5 5 ' 6 N 2 6 6 6 N / 6 6 2 2 6 / / 2 3 3 > 4 3 ( HX3 HXS 4 FX2 2 6 ' FX6 / 6 5 5 ` ' 6 2 3 3 2 N 6 6 6 6 2 / (.FX/ 6 2 / 6 DX#X@X@X#XSX#X#X#X#X#X#X#X#X#X#X#X#X#X#X#X#X#X#X#X#X#X#X#X#X#X#X#X#X#X#X#X#X#X#X#X#X#X#X#X#X#X#X#X#X#X#X#X#X#X#X#X#X#X#X#X#X#X#X#X#X#X#X#X#X#X#X#X#X#X#X#X#X#X#X#X#X#X#X#X#X#X#X#X#X#X#X#X#X#X#X#X#X#X#X#X#X#X#X#X#X#X#X#X#X#X#X#X#X#X#X#X#X#X#X#X#X#X#X#X#X#X#X#X#X#X#X#X#X#X#X#X#X#X#X#X#X#X#X#X#X#X#X#X#X#X",
"#X#X#X#X#X#X#X#X#X#X#X#X#X#X#X#X#X#X#X#X#X#X#X#X#X#X#X#X#X#X#X#X#X#X#X#X#X#X#X#X#X#X#X#X#X#X#X#X#X#X#X#X#X#X#X#X#X#X#X`.@ ` DXDXFX' FXFX6 FXDX`.SXDXDXo ` @ DX`.SXDXFX8 DX` DX` FX6 FXDXDX`.DX5 FXFXFX2 ( 2 GX/ 3 HX6 FXFXDXDXDXDX5 5 ` DX8 DXDX5 FX5 DX5 GX/ 6 5 ` DX5 GX6 ' / 2 ' 3 JXFXFX5 GX2 GX6 FX/ GX2 2 m 4 4 r k k y r l r 4 2 GX4 1 2 3 3 2 4 u S S 2 / 6 5 DXq r 6 5 FX5 DX6 1 q S 6 / 2 2 GX6 FX5 GX6 / 3 3 GX6 6 2 6 ` GX3 ( HX3 ( 2 2 / 6 2 3 1 S OXGX3 ( 4 ) 3 2 y h A JX4 u q 1 A y 1 q k y S JX/.2 3 ( 6 6 4 4 ) ( FX2 ) 3 3 3 u 3 GX2 S y q ) 2 / 6 ' DXM 1 ( 3 JX3 ' 6 6 6 6 6 6 6 ' 6 5 ' / 2 / ( 2 DX' 2 GX2 2 2 / 6 ' FX6 2 3 3 ) 4 4 2 2 2 2 2 3 ) 4 M 4 3 /.KXA KX1 h N.0 4 3 HX4 3 2 / 2 3 JXM 3 4 4 / GXHXJX3 ( ( 3 3 KXS 6 2 ( 6 FX6 ( S S S u u 4 3 2 6 6 FXGX/ 6 / 2 / N 2 ' 5 FX6 6 6 / 6 ' 6 / 2 ( 2 3 3 m 3 4 4 4 3 2 2 3 3 ( ' 6 2 ( HX2 2 ' ` ` DX' 6 2 4 1 u M GX6 2 / / / 5 DX6 6 6 6 m M 3 2 6 DX@XAX#X#X#X#X#X#X#X#X#X#X#X#X#X#X#X#X#X#X#X#X#X#X#X#X#X#X#X#X#X#X#X#X#X#X#X#X#X#X#X#X#X#X#X#X#X#X#X#X#X#X#X#X#X#X#X#X#X#X#X#X#X#X#X#X#X#X#X#X#X#X#X#X#X#X#X#X#X#X#X#X#X#X#X#X#X#X#X#X#X#X#X#X#X#X#X#X#X#X#X#X#X#X#X#X#X#X#X#X#X#X#X#X#X#X#X#X#X#X#X#X#X#X#X#X#X#X#X#X#X#X#X#X#X#X#X#X#X#X#X#X#X#X#X#X#X",
"#X#X#X#X#X#X#X#X#X#X#X#X#X#X#X#X#X#X#X#X#X#X#X#X#X#X#X#X#X#X#X#X#X#X#X#X#X#X#X#X#X#X#X#X#X#X#X#X#X#X% #X#X#X#X#X#X#X#X#X$XDXDX(.@ DXFXFXFX6 DX$XSXDXDX`.DXDXDXSX`.FX`.SXDX(.DX` FXFXFXDXDXDX(.@ FX' GX3 GXSXDXGX/ 3 ) / 6 DX8 DX` FX5 DXDX`.2 6 FX' DXDX5 6 GX6 FXDXSX5 / GX2 6 DXFXHX2 6 ' DXFXDXFXHX6 / ( 2 HX4 S 4 M M S y y y r r u 1 r y m 2 3 ( 2 u 4 4 S 2 5 ` : q q M 5 5 5 5 6 A 4 5 6 2 2 6 6 FX8 DX2 2 HX( 2 / 6 6 6 6 2 ( M ) 4 JX6 / 3 2 / 2 3 u ) 2 6 2 ) 4 4 ) 3 4 q GX6 2 HX( KXA y 1 u r y 1 JXOXHX3 GX/ q u JX3 6 GXHX3 HXJX3 3 HXGXJXu S ) 4 3 2 6 5 5 q y 2 `.2 2 2 6 6 ' FX' 6 6 3 3 5 GX/ 6 6 2 6 / 2 6 6 / / / 6 ' 5 FX6 / 2 ( 4 S ( 2 2 FXFX6 / 2 2 2 2 3 u u 4 S ) q h r 3 JXHX4 KX2 2 HX2 3 ) 4 S 3 HXHX( 2 6 2 3 4 4 4 KX3 ( 3 2 2 3 4 1 y q u 4 2 ( 2 6 6 6 6 6 6 ' 2 4 4 4 4 3 6 5 5 / 6 5 ' 6 6 2 2 ( 2 FX' ' 6 GX2 m ( 2 2 6 6 2 6 / 3 4 S S 2 5 ` 5 6 2 S S 4 4 4 2 ' ' 6 6 FX6 2 6 ' 6 6 / 6 2 M 4 4 6 #X@X#X#XAX#XAXVX#X#X#X#X#X#X#X#X#X#X#X#X#X#X#X#X#X#X#X#X#X#X#X#X#X#X#X#X#X#X#X#X#X#X#X#X#X#X#X#X#X#X#X#X#X#X#X#X#X#X#X#X#X#X#X#X#X#X#X#X#X#X#X#X#X#X#X#X#X#X#X#X#X#X#X#X#X#X#X#X#X#X#X#X#X#X#X#X#X#X#X#X#X#X#X#X#X#X#X#X#X#X#X#X#X#X#X#X#X#X#X#X#X#X#X#X#X#X#X#X#X#X#X#X#X#X#X#X#X#X#X#X#X#X#X#X#X#X",
"#X#X#X#X#X#X#X#X#X#X#X#X#X#X#X#X#X#X#X#X#X#X#X#X#X#X#X#X#X#X#X#X#X#X#X#X#X#X#X#X#X#X#X#X#X#X#X#X#X#X#X#X#X#X#X#X#X#X#X#X#X_.#XDXDX`.` FXFXFXFX5 ' FXDX8 $X] DXDXDXFXDXSXSXDXFXFX$X$X5 DX` FXGX' @ DXFXFXFX(.FXFX2 3 4 4 ( 3 6 DX5 ` ` DXDX8 3 3 FXFXDXDX(.5 FX' FXDXDX' 2 2 FXDXFX6 / 6 GX6 2 2 FX3 JX6 2 3 2 3 ( 3 JXGX6 ' 2 u A q r r y y k y 2 / 2 ' 3 u 4 JX) 2 / 1 q q S ' ' ' 5 M 1 2 FX6 2 GX6 5 DX6 m 2 / 2 2 GX/ 2 GXFXGX2 3 HXHX) 2 FX' 6 6 GX3 JXGXGX2 6 6 4 4 4 S 4 S ( HX3 HXHX3 2 r r A q y y y S S 1 HX4 y q ) ) 4 ( 3 JX3 4 3 3 3 3 3 4 ) 3 2 ) 3 6 / / 4 q q 3 FX2 / 6 6 ' 5 ' 5 6 1 ) 3 6 5 6 GX/ / 2 2 2 6 ' 6 # ' 6 6 6 6 / GXGX( 3 / FX/ 6 ' 6 6 ' 5 6 2 6 3 A 1 S 3 3 : u u ) 3 ( S 1 3 2 / / HX2 4 ) 2 / 6 HX' FXHX3 JX3 ) 4 S 2 2 JX4 ) ( 4 JXHXS 3 2 3 GXGX2 / 5 5 DX5 ( M ( 4 u S S 2 / 2 ' ' 6 6 6 6 2 2 FXFX6 FXDX` DX' 6 ' 6 6 6 6 6 6 6 3 4 JX3 ( 3 2 6 4 4 GX2 3 3 2 FXFX' 5 FX' 6 6 6 / N ' 5 / 2 2 m > 2 DX#XAXDXFXFXDXAX@XAX#X#X#X#X#X#X#X#X#X#X#X#X#X#X#X#X#X#X#X#X#X#X#X#X#X#X#X#X#X#X#X#X#X#X#X#X#X#X#X#X#X#X#X#X#X#X#X#X#X#X#X#X#X#X#X#X#X#X#X#X#X#X#X#X#X#X#X#X#X#X#X#X#X#X#X#X#X#X#X#X#X#X#X#X#X#X#X#X#X#X#X#X#X#X#X#X#X#X#X#X#X#X#X#X#X#X#X#X#X#X#X#X#X#X#X#X#X#X#X#X#X#X#X#X#X#X#X#X#X#X#X#X#X#X#X",
"#X#X#X#X#X#X#X#X#X#X#X#X#X#X#X#X#X#X#X#X#X#X#X#X#X#X#X#X#X#X#X#X#X#X#X#X#X#X#X#X#X#X#X#X#X#X#X#X#X#X#X#X#X#X#X#X#X#X#X#X#X#X#X#XDX@ DX` FXDXFX6 GXGXDX`.SXDX` DXDXDXDX`.SXDXFX` ] 8 FX5 FX6 GXDXDXDXDXDXFX6 FX' GX/ GX2 HX4 3 6 FXFXDX8 DXDX6 6 FX` DX8 DX5 FXFX` DX' GXGX/ DXDX' DXFX2 6 / 3 HXHXM HX6 5 GX3 GX5 GX( GXGX2 2 3 u q r k r y r l q 3 3 2 4 S 3 3 S 4 3 u u q S 6 6 6 6 3 A 4 5 6 6 6 ` 5 u 1 3 GX2 2 6 ' 6 FXFX6 6 2 HX( 3 2 GX' FXFX' 6 3 3 / 2 / 6 GX2 ) HX3 1 A 4 ) 4 ) ) S / ) 0 0 y r l k 1 u q KXKXy r u 4 u 3 3 3 4 3 / 2 4 ) 3 3 3 2 3 3 2 m # 2 S S q A 2 / 6 6 6 ` DXDX8 4 A 3 HX6 GX6 ' 2 6 6 / 6 6 5 ` 5 ' 6 2 2 ( 3 2 2 3 2 6 2 2 ' 6 6 6 / 2 / 2 3 4 4 4 4 4 ( 2 6 ' N ) 4 oXu 1 ( ` 6 6 2 3 HX2 2 JX2 FXGX2 HXGX/.3 4 3 FXFXGX3 2 2 4 3 4 1 2 3 ( 6 2 2 6 FX` ` FX2 HX3 S 4 u u 3 / 6 6 FX6 6 / 2 2 2 N N 6 6 ' ' GX6 ' 6 6 GX/ 2 2 / 2 ( M 3 / 2 ( HX4 S 6 6 GX2 2 6 6 6 5 FX5 5 ' 6 6 2 2 6 6 2 / / 2 2 3 > / ' 6 6 2 2 GXFXSX).@X@XAX#X#X#X#X#X#X#X#X#X#X#X#X#X#X#X#X#X#X#X#X#X#X#X#X#X#X#X#X#X#X#X#X#X#X#X#X#X#X#X#X#X#X#X#X#X#X#X#X#X#X#X#X#X#X#X#X#X#X#X#X#X#X#X#X#X#X#X#X#X#X#X#X#X#X#X#X#X#X#X#X#X#X#X#X#X#X#X#X#X#X#X#X#X#X#X#X#X#X#X#X#X#X#X#X#X#X#X#X#X#X#X#X#X#X#X#X#X#X#X#X#X#X#X#X#X#X#X#X#X#X#X",
"#X#X#X#X#X#X#X#X#X#X#X#X#X#X#X#X#X#X#X#X#X#X#X#X#X#X#X#X#X#X#X#X#X#X#X#X#X#X#X#X#X#X#X#X#X#X#X#X#X#X#X#X#X#X#X#X#X#X% #X#X#X#XAX#XSXDX(.FXFX` FX6 / FXDXDX` @ DX] $XDXDXSX` FXDXDX$XDXFXFX' FX`.@ (.FXFXFXFXFX6 (.@ ` 5 ' 2 ( S 3 3 6 `.` ' 5 (.FX` DX`.2 / ' FXDX5 6 FX/ 6 5 5 DX8 GX( GX' FX2 m GX6 FXSX2 ( FX6 6 GX/ GX2 JX) 2 2 3 S q y y r r A S y r 4 m 3 4 3 2 M c S 4 > / / / 2 q u ' 5 FX5 ` 2 u m ' 2 ( / 6 ' 5 8 5 / / 2 3 3 2 6 6 FX6 6 2 JX3 4 4 ( 6 6 6 6 M 4 ) S S S 3 S S 4 u 4 GX1 0 r r l r q 1 y u OXq y q q u OX2 3 ( DXFXu 4 GX( 2 GXHX3 HX3 JX(.GX( 4 r y 3 6 GX6 ` 8 5 2 S q 4 3 2 2 / 6 6 FX' FX5 FX6 ' FX6 6 2 2 FXGX2 GX6 / 6 / 2 6 6 GXFX6 2 3 3 3 S u M 2 ( 3 3 6 FX6 6 6 m JXKXu KX4 u k r 4 2 ( 3 u 3 6 2 ( ( ( 3 3 4 3 6 GX2 JXHX/ ( JX4 3 3 HX2 2 2 / 6 ' 5 3 4 3 3 JX3 4 4 3 6 ' 6 6 6 6 6 6 6 6 / 2 2 2 / 6 6 6 6 GX2 2 2 2 m 3 2 / 2 2 2 2 ( 3 2 3 3 ( ( m 2 2 2 2 FXDX5 DX' 6 ' 6 6 N / 6 6 6 6 2 2 6 6 / 6 FX' 6 2 3 M 3 GX5 DX#XVX).#X#X#X#X#X#X#X#X#X#X#X#X#X#X#X#X#X#X#X#X#X#X#X#X#X#X#X#X#X#X#X#X#X#X#X#X#X#X#X#X#X#X#X#X#X#X#X#X#X#X#X#X#X#X#X#X#X#X#X#X#X#X#X#X#X#X#X#X#X#X#X#X#X#X#X#X#X#X#X#X#X#X#X#X#X#X#X#X#X#X#X#X#X#X#X#X#X#X#X#X#X#X#X#X#X#X#X#X#X#X#X#X#X#X#X#X#X#X#X#X#X#X#X#X#X#X#X#X#X",
"#X#X#X#X#X#X#X#X#X#X#X#X#X#X#X#X#X#X#X#X#X#X#X#X#X#X#X#X#X#X#X#X#X#X#X#X#X#X#X#X#X#X#X#X#X#X#X#X#X#X#X#X#X#X#X#X#X#X#X#X#X#X#X#X#XAX#X$X5 FX` 5 ' FX' FXGX/ FXDX`.SXDXDX`.FXFXDXDXSXDX' DX` DXDX5 FX' FXFX` DXFXFXFXOXFXGX( 3 4 4 ( 3 HX6 FXFX5 5 DXDXDX/ 6 FX` DX5 FX5 6 6 (.DXDX6 ( / 5 DX` 6 GX' 6 6 2 HXHX3 / 6 6 2 2 3 4 2 FXGX/ 6 2 3 u y k r u y k y 2 ( ) 3 6 6 S u S 3 ( 2 2 4 q 1 6 ' 5 ` FX4 S 5 6 2 2 6 6 DX8 GX> 6 6 2 ( 2 2 / 6 ' / 2 3 3 ) 4 2 / 6 ' / ( 4 u 3 GX2 2 FX) 1 u S 4 4 ( ( 1 q q u 4 4 A A A u XX1 y 4 JXS GXFX( S y 4 2 3 2 / ( 3 ( 3 ) 3 JX3 u 1 u 3 ( 6 5 5 ` A y y q M HX2 6 6 / 6 5 FX/ 3 4 1 4 / 6 ' GX` DX/ / 6 GX6 ' 6 / 6 2 ' DX` FX6 2 M 3 ( 3 2 6 / / ' FX6 6 5 / u u S u 1 ) u u M 3 4 JXu S / HX3 HX3 ( 3 ) 3 GX2 3 3 / GX2 M ) 3 ) ( 2 3 GX2 2 2 2 1 q A 2 ' 2 3 2 5 ' 6 FX' ' FX6 6 6 ' 6 / / 2 6 2 6 5 5 ' 6 6 / / 2 2 6 6 GXGXGX/ 6 GX2 6 / 2 2 2 2 / / 2 6 FXDX] 5 6 2 6 5 ' 2 m 2 N 2 2 6 GX6 6 6 6 6 6 6 ' 6 2 3 M 3 : ' SX@XVX#X#X#XAX#X#X#X#X#X#X#X#X#X#X#X#X#X#X#X#X#X#X#X#X#X#X#X#X#X#X#X#X#X#X#X#X#X#X#X#X#X#X#X#X#X#X#X#X#X#X#X#X#X#X#X#X#X#X#X#X#X#X#X#X#X#X#X#X#X#X#X#X#X#X#X#X#X#X#X#X#X#X#X#X#X#X#X#X#X#X#X#X#X#X#X#X#X#X#X#X#X#X#X#X#X#X#X#X#X#X#X#X#X#X#X#X#X#X#X#X#X#X#X#X#X#X#X",
"#X#X#X#X#X#X#X#X#X#X#X#X#X#X#X#X#X#X#X#X#X#X#X#X#X#X#X#X#X#X#X#X#X#X#X#X#X#X#X#X#X#X#X#X#X#X#X#X#X#X#X#X#X#X#X#X#X#X#X#X#X#X#X#X#X#XAX#X$XDX$XFX` DXFX' 6 GX6 DXDXDX` DXDXDXDXDX] DXFX5 SXDXFX5 DXFX# FX6 DXDX(.FX5 GXGXGX3 2 FXFX6 3 4 4 2 6 FX`.8 DX5 5 FX5 DXDXDX5 ` ' GX5 5 6 GX2 GX5 DX` ' GX6 5 HX3 / 3 4 HX/ ' ' 2 GX2 2 / ( ( HX2 2 M u r l k r r r q 3 2 / ` 3 q u 3 ( 3 3 S 1 1 A 2 6 5 5 ` q y FXGX6 ' FX5 ( N u 1 / 6 GX/ 2 6 GX6 6 6 2 HX3 3 2 / GX6 6 FX3 ) HX2 6 2 FXDX3 1 S 4 JX2 HX2 ( ( GXGX2 6 y r u y u y y S A q HXKXy q 1 4 ) 4 2 2 3 ( HX3 ) 4 4 4 ) 2 2 ) 3 / GX6 4 y A q r 1 2 2 GX6 5 ` 6 6 2 u 4 4 3 6 FX6 6 GX2 2 6 / / 6 ' FX5 GX6 6 6 / 2 2 3 HX6 6 / 6 6 / 6 6 5 6 / 2 4 u 4 u u FXDX5 6 3 ) 3 GX+ S 3 2 ( ( 6 6 2 3 3 HX3 JX/ 5 FXGX2 GX2 ) 4 3 3 HX3 ) 3 ) S 1 1 ( 6 2 3 2 6 GX5 ` 5 DX5 ' FX5 6 m m 6 ' 6 6 5 ' 6 ' 6 6 6 6 GX6 6 6 6 6 6 6 6 FX' ' 6 6 6 6 6 6 6 2 2 2 6 / 6 6 GX6 2 S u S 3 2 6 GX6 6 FX' 6 6 6 / 6 FX6 ' FX2 2 ( 3 ( 6 `.#XVX#X#XAXAX#X#X#X#X#X#X#X#X#X#X#X#X#X#X#X#X#X#X#X#X#X#X#X#X#X#X#X#X#X#X#X#X#X#X#X#X#X#X#X#X#X#X#X#X#X#X#X#X#X#X#X#X#X#X#X#X#X#X#X#X#X#X#X#X#X#X#X#X#X#X#X#X#X#X#X#X#X#X#X#X#X#X#X#X#X#X#X#X#X#X#X#X#X#X#X#X#X#X#X#X#X#X#X#X#X#X#X#X#X#X#X#X#X#X#X#X#X#X#X#X#X",
"#X#X#X#X#X#X#X#X#X#X#X#X#X#X#X#X#X#X#X#X#X#X#X#X#X#X#X#X#X#X#X#X#X#X#X#X#X#X#X#X#X#X#X#X#X#X#X#X#X#X#X#X#X#X#X#X#X#X#X#X#X#X#X#X#X#X#X#XAX#X#X`.5 DXDXFX6 FX6 GX6 2 6 DXDXDXDXDXDXDXFXDX] $X5 FXFXFXDX5 FX(.5 # GXFX6 FX/ GX' FX5 ' 2 HXS u ( 2 5 DXFX5 FX6 5 DXDX( 2 5 GX6 ` FX' 6 GXGXFX` ] 5 3 6 2 / ' FX6 2 2 2 5 DX' 6 HX2 / 2 3 3 2 4 S S u q q y r r k y 4 3 u r k u 6 2 4 / S 1 u A 2 ' 5 DX2 r q 6 ' FX5 5 2 A 1 c 2 GX/ 2 2 6 FX5 5 6 GX2 ( 3 2 / 2 / / FX5 2 3 GX/ 2 ( 2 6 2 2 ( 3 3 ) HX2 2 3 GXOX) 6 A '.k q q q A q 1 1 q q q y q 1 ) 1X2 3 3 2 6 ' ( HXJX4 2 / JX3 ( 3 3 6 4 S 4 u y y 2 2 / 6 5 5 6 FX/ ) 2 4 3 5 ' 6 6 / 2 / ' 6 6 6 / ' 5 6 / 6 2 3 GX2 ( 6 6 / / 6 GX6 6 6 GX2 3 4 4 3 2 : 4 HXGXFXGX3 4 M 2 /.u 4 5 6 FX8 8 ' 3 2 2 4 4 2 FX6 2 GXFXGXJX) 3 S JX2 2 3 u 1 A u 2 2 HX2 6 GX5 DX5 DXDX' GX` 2 S 4 4 3 6 GX6 ' 6 6 6 6 6 / / 6 / 6 / 6 ' ' 6 ' 6 6 6 2 GX' GX6 GXN 6 ` 2 S q 4 5 ' 3 u u 4 4 ) 6 DX' 2 GX5 5 2 N 6 2 2 6 6 ' 6 6 / / 6 2 3 3 6 5 6 / DX#X@XVX#X#X#X#X#X#X#X#X#X#X#X#X#X#X#X#X#X#X#X#X#X#X#X#X#X#X#X#X#X#X#X#X#X#X#X#X#X#X#X#X#X#X#X#X#X#X#X#X#X#X#X#X#X#X#X#X#X#X#X#X#X#X#X#X#X#X#X#X#X#X#X#X#X#X#X#X#X#X#X#X#X#X#X#X#X#X#X#X#X#X#X#X#X#X#X#X#X#X#X#X#X#X#X#X#X#X#X#X#X#X#X#X#X#X#X#X#X#X#X",
"#X#X#X#X#X#X#X#X#X#X#X#X#X#X#X#X#X#X#X#X#X#X#X#X#X#X#X#X#X#X#X#X#X#X#X#X#X#X#X#X#X#X#X#X#X#X#X#X#X#X#X#X#X#X#X#X#X#X#X#X% #X#X#X#X#X#X#X#X#X#XAXDXFX` 5 ' FXFX6 GX( 2 DXDXSXDX5 DXDX` (.DXSXDX' FXDXDXFX(.FX6 GX6 OX` SX5 FXGXGXFXGX( 3 JX) 4 4 4 ' DX5 FX5 DX] @ 3 4 GX6 FXDX5 6 6 6 6 FXDX8 GXGXHX/ DXFX6 6 GX' 6 2 2 2 HX( / GX3 3 3 4 4 S u 2 6 6 2 u 1 y k y q y k 0 y 2 / 3 GX6 S u S 2 ' 5 6 A q q m 5 5 5 5 2 u 1 2 ' 6 2 2 / GX5 DXFXGX6 / 3 2 / 6 / 2 FX6 2 ( 4 4 4 4 2 2 2 HX6 6 ) S 4 GX/ HX4 S 4 4 ) GXy k 2 GXHX) 4 S 1 y q q r r A 3 HXJX( 2 GX5 1 u 2 M 3 (.GX) ( HX3 ) ( 3 3 4 u 1 A 4 2 GX6 ' FX6 ( 4 4 3 3 / 5 FX6 GX/ / 6 FXFX` 5 FX6 6 2 GXFX/ / FX/ 2 6 GX6 6 / 6 DXFXGX2 3 ) 4 3 3 2 6 2 M GX6 HX3 4 3 4 JXJX1 u 3 ( y r q 3 HX( ) KX( GX2 ( HX( 3 3 3 S 3 GX2 HX4 4 4 4 3 2 2 2 2 2 ' 5 5 SXSX8 5 5 6 u u 4 3 S 3 FX6 ' 6 6 / 6 / 6 6 N 2 2 2 6 6 6 6 ' 6 6 GX2 2 / 2 2 2 ( 6 6 3 3 3 HX6 2 S S 3 ( 2 6 FXFX6 HX' 5 ` ' 6 ' 5 6 6 6 6 6 N 6 6 6 2 6 ' 6 6 ' N 2 / ' `.@XAX#X#X#X#X#X#X#X#X#X#X#X#X#X#X#X#X#X#X#X#X#X#X#X#X#X#X#X#X#X#X#X#X#X#X#X#X#X#X#X#X#X#X#X#X#X#X#X#X#X#X#X#X#X#X#X#X#X#X#X#X#X#X#X#X#X#X#X#X#X#X#X#X#X#X#X#X#X#X#X#X#X#X#X#X#X#X#X#X#X#X#X#X#X#X#X#X#X#X#X#X#X#X#X#X#X#X#X#X#X#X#X#X#X#X#X#X#X",
"#X#X#X#X#X#X#X#X#X#X#X#X#X#X#X#X#X#X#X#X#X#X#X#X#X#X#X#X#X#X#X#X#X#X#X#X#X#X#X#X#X#X#X#X#X#X#X#X#X#X#X#X#X#X#X#X#X#X#X#X#X#X#X#X#X#X#X#X#X#X#X#X#XSX$XFXFX' 5 ` GX2 GXFXFXFXFXFXDXDXDXDXDXSXDXGXFXDXDXDXFX6 GXGXFXFX5 (.@ ' FX6 6 6 6 ' FXFXGX3 4 3 / GXGXDXDXDX5 ' 6 ' FX` DXDX5 FX' 5 DXDX6 GX6 2 5 FX' 5 ' GX/ 2 4 S 3 ) & 2 6 ' 2 3 6 / : GXGX2 / 6 HX3 u y k k r y r 0 q 4 3 6 6 S 1 3 3 3 6 u q u c 4 6 ' ' 5 3 y M 5 GX2 2 GX6 ` 5 6 M ( 6 2 m 2 6 GXGXFX' / DX(.3 3 4 / 6 6 6 / 2 3 4 3 2 GX6 2 ) 4 4 4 3 3 3 6 6 2 2 HX/ 3 k r r y A q q 4 u u HX2 M u r 1 2 ) 2 DXOX4 3 3 3 ( 3 ) 3 4 S ) 3 4 M 2 GX6 ' 2 y q ( 2 2 2 6 5 FX' 6 FX' 2 2 6 6 5 FXGX/ 6 / GX6 6 / 6 6 / 2 6 6 5 ` ' GX2 ( 3 M S S M HX/ 6 N 2 ( 2 2 / 2 GXHXu q 1 u r L k 2 JX3 4 u 3 / 2 3 2 2 3 m ) 4 OXGXHX3 HX/ 2 ( ) S S S ( 6 6 GXFX6 4 u 2 2 1 u S 3 3 3 GX' 6 6 6 ' 5 6 6 FX6 6 6 6 2 2 N 6 6 / 6 ' 6 6 2 ( 3 3 3 2 3 M ) m 2 2 2 M 4 ( 2 3 6 6 6 6 / ' 5 ` 5 / 2 6 ' 6 2 / 6 N 2 2 6 / 2 / 6 ' DX5 ' 6 2 3 3 FX#X@XVX#X#X#X#X#X#X#X#X#X#X#X#X#X#X#X#X#X#X#X#X#X#X#X#X#X#X#X#X#X#X#X#X#X#X#X#X#X#X#X#X#X#X#X#X#X#X#X#X#X#X#X#X#X#X#X#X#X#X#X#X#X#X#X#X#X#X#X#X#X#X#X#X#X#X#X#X#X#X#X#X#X#X#X#X#X#X#X#X#X#X#X#X#X#X#X#X#X#X#X#X#X#X#X#X#X#X#X#X#X#X#X#X#X#X#X",
"#X#X#X#X#X#X#X#X#X#X#X#X#X#X#X#X#X#X#X#X#X#X#X#X#X#X#X#X#X#X#X#X#X#X#X#X#X#X#X#X#X#X#X#X#X#X#X#X#X#X#X#X#X#X#X#X#X#X#X#X#X#X#X#X#X#X#X#X#X#X#X#X#X#X@XSXFX' FXFX6 FX' 6 6 2 2 ' DXDX`.DXDXDXFX' FXDXDXSX' GXFXFXFX5 FXFX' FX5 FXFXFXDXFX6 GX6 / 3 u A 4 3 / DX` 6 6 5 6 6 ` ] 6 ) 6 6 FX` FX6 GX2 / FX6 5 SX6 3 3 2 6 6 2 ( 2 2 FX8 ( HXSX6 / FX2 2 / HXM S 3 HX1 A q r y r 0 q S 1 y q 4 3 3 S 3 1 c 1 q 4 GX= 6 ' : y 4 5 6 6 6 5 DX6 u S 3 6 / 2 2 6 GX6 5 ' 6 6 ' GXHX3 2 GX6 5 FXFXGX) 2 GX6 6 6 ' 2 4 4 3 3 1 q JX3 3 OXGX) 6 k h q r q ;Xr q 4 u 1 KXq y 1 S 3 S ( / 3 3 3 3 2 3 ) 3 ( S 4 3 3 ) 3 2 6 2 6 M y q 3 HX( 2 6 ' FX5 5 8 FXM 3 u ) FX' 6 6 2 2 6 6 ' 6 ' ' 6 6 6 6 FX6 6 6 / 2 3 4 3 2 / 2 6 5 FX6 6 6 6 / 3 4 u 4 3 ) 3 2 y q 3 (.OX4 u 4 6 ( 2 2 2 2 2 JX2 GX( 3 2 GX2 3 4 4 4 KX4 ) 2 2 GX2 u q q q q A 4 3 ' HX2 6 6 6 6 DX5 ' 5 FX' 6 2 / 5 ' ' ' / 2 6 ' FX6 GX6 GX2 2 / 2 ( 2 2 3 3 ( 2 2 FXFX6 2 / 2 3 3 2 5 DX8 2 3 3 3 4 S 3 3 3 2 / FX' GX6 / 6 5 6 6 6 6 2 2 3 M 2 FX$XAX@XAX#X#XVXAXVXAX#X#X#X#X#X#X#X#X#X#X#X#X#X#X#X#X#X#X#X#X#X#X#X#X#X#X#X#X#X#X#X#X#X#X#X#X#X#X#X#X#X#X#X#X#X#X#X#X#X#X#X#X#X#X#X#X#X#X#X#X#X#X#X#X#X#X#X#X#X#X#X#X#X#X#X#X#X#X#X#X#X#X#X#X#X#X#X#X#X#X#X#X#X#X#X#X#X#X#X#X#X#X#X#X#X#X",
"#X#X#X#X#X#X#X#X#X#X#X#X#X#X#X#X#X#X#X#X#X#X#X#X#X#X#X#X#X#X#X#X#X#X#X#X#X#X#X#X#X#X#X#X#X#X#X#X#X#X#X#X#X#X#X#X#X#X#X#X#X#X#X#X#X#X#X#X#X#X#X#X#X#X#X#XSX`.SXFX' DXFX/ GX/ HX6 DXDXDX5 DXDX` @ ` DXSXDXGX` SX` FXFX` 6 GXGX' ` DX` FXFXGXGXGXHX4 4 JX( ( 4 2 6 FX6 5 FX` DXSX2 ) 6 6 5 ` 5 ' 6 2 2 6 DXDXFX2 ( 2 FXDX' 2 6 6 6 2 4 4 HX/ 2 2 GX2 HX2 3 4 3 FXFXFX6 2 4 A y 0 r 1 y l r ) 2 ) S 3 2 S u u S 3 2 / / 2 A 1 FX5 FX5 5 ' 4 q 3 6 GX2 2 6 ' 6 DXDXGX6 / / 2 3 ( / 2 ' FX6 6 2 > 3 ( ( 2 GX6 ' 2 OXGXA q u ) 3 JX4 4 4 2 6 r 0 k r r l y 4 1 q A u q r 1 4 u 3 2 3 ( ) / ` 2 S 4 3 HX2 JX3 HXHXN 3 4 / 4 u q u 2 2 6 ' 6 FX` 5 GX2 M u u ( 5 FX6 6 GX6 GX6 6 FXFX5 5 FX6 / 6 6 / 2 ( 2 2 ( GX' GX6 6 ' 6 6 ' 6 / 2 3 ) S u ) 2 ( ( m 4 ) 2 4 KX4 u 2 ' 6 ' % ' 4 HXGXGX3 ) ' 6 GXGX( 3 3 3 3 3 3 HX( 3 3 3 S u A A 4 GXFX2 3 / 6 2 FX` 5 FX2 2 6 ( 4 3 / FXFX2 2 6 5 5 5 ' 6 6 6 / GX' 6 6 6 6 / 6 2 / FXDX5 6 6 6 2 ( 4 JX2 2 3 GX' 6 4 4 3 3 3 3 6 ` 5 6 FX6 6 5 6 6 6 6 6 6 2 2 2 3 3 3 2 FX$XAX#XDXFXDXSX#X@XAX#X#X#X#X#X#X#X#X#X#X#X#X#X#X#X#X#X#X#X#X#X#X#X#X#X#X#X#X#X#X#X#X#X#X#X#X#X#X#X#X#X#X#X#X#X#X#X#X#X#X#X#X#X#X#X#X#X#X#X#X#X#X#X#X#X#X#X#X#X#X#X#X#X#X#X#X#X#X#X#X#X#X#X#X#X#X#X#X#X#X#X#X#X#X#X#X#X#X#X#X#X#X#X",
"#X#X#X#X#X#X#X#X#X#X#X#X#X#X#X#X#X#X#X#X#X#X#X#X#X#X#X#X#X#X#X#X#X#X#X#X#X#X#X#X#X#X#X#X#X#X#X#X#X#X#X#X#X#X#X#X#X#X#X#X#X#X#X#X#X#X#X#X#X#X#X#X#X#X#X#X#XVX@XSXFX' 5 5 6 ' 6 / 6 / GX' ` DXDXDXDXDX] FX' DXSXDX# 5 FXGXFXFXFX5 FXFXFXFX6 / GX3 4 FX$X6 2 3 4 u 2 GX/ 8 DXDX5 ' 6 FX5 ` DXDXFX5 6 GX5 DX' 2 HX2 6 5 5 FXGXGX/ 6 3 S ( 3 u GXFX6 2 3 3 3 ( 6 6 GXFX2 2 / 3 1 0 0 r q r l r M 2 4 3 5 3 u 4 S 3 m 2 2 4 q q m ' ' 5 5 / 4 4 5 6 2 2 / 6 FXDX8 ( m GX/ GX3 3 / 6 6 ' 6 FXGX3 / 4 4 3 2 ' 5 ' 6 2 ) 4 M 3 3 2 4 4 S 4 4 3 ( y r r r q u S u q q u q q u A u S 3 2 2 ' SX& y / 3 4 FXGX( HX2 2 3 S HXGXJXS r y ( 6 5 ' 5 ` 8 6 u A 1 4 2 FX5 6 FX' 6 6 6 6 ' 5 5 DXDX6 2 2 2 2 GX3 / FX2 2 6 6 6 GX6 6 6 / 2 2 ( 3 3 3 4 3 ( 2 HXM HX6 6 2 M 3 HX1 A 3 5 ( y r u 2 GXFXGX3 GXGXGXGX2 HX( 2 2 3 GX2 ( 3 3 ) S u q q 3 2 2 3 3 2 2 6 5 5 DX5 6 ' HX4 4 3 3 2 M 4 6 FX6 ' 5 ' 6 ' 6 / 6 GXGX6 GX6 6 6 N 6 6 / / 6 6 2 / / 3 3 3 KXu / 6 M 4 ' 6 2 2 / FXFX6 ' 5 5 DX5 6 ' / N / / 2 FX6 2 2 m 3 M 2 ' 6 N / 2 / / FXSX@X@X#X#X#X#X#X#X#X#X#X#X#X#X#X#X#X#X#X#X#X#X#X#X#X#X#X#X#X#X#X#X#X#X#X#X#X#X#X#X#X#X#X#X#X#X#X#X#X#X#X#X#X#X#X#X#X#X#X#X#X#X#X#X#X#X#X#X#X#X#X#X#X#X#X#X#X#X#X#X#X#X#X#X#X#X#X#X#X#X#X#X#X#X#X#X#X#X#X#X#X#X#X",
"#X#X#X#X#X#X#X#X#X#X#X#X#X#X#X#X#X#X#X#X#X#X#X#X#X#X#X#X#X#X#X#X#X#X#X#X#X#X#X#X#X#X#X#X#X#X#X#X#X#X#X#X#X#X#X#X#X#X#X#X#X#X#X#X#X#X#X#X#X% #X#X#X#X#X#X#X#X#XAXSX5 FXFX6 6 FXGX/ HX3 / 5 `.SXDXFXFXDXFXFXDXDXSX` ' GXFX] 5 FX5 6 GX2 2 FXFX6 / GXFX(.GX6 JXS 1 A 3 3 / ` 5 FX' ' FXFXDXDX3 m FX6 6 FX5 6 2 2 2 GX' 5 8 GX2 6 ( 3 6 5 2 S GX6 6 FX2 / / 2 / 2 2 / HX( 3 4 M 1 q r r y r 0 k 1 3 6 2 q q > 3 3 HX( 4 1 u A 3 6 6 5 5 2 y S DX6 2 6 6 ` 5 / M A 3 6 2 2 2 2 6 ' # 6 6 DXGX6 OX) 2 GX6 ' FX2 3 3 ) 2 6 / 6 6 2 u u 4 ) 4 2 GX) 1 u S S 2 u y 1 q 1 u y q u u KX3 ( 3 3 y y OX3 3 6 2 ( 3 3 3 ) JXGX3 JXKXu u HX' ' 5 FX` FX1 q q u HX6 FXFX6 ' FX5 5 5 6 6 2 2 ' 6 6 FX/ 2 FX6 2 ' ' GX6 / / 6 6 6 GX6 6 2 HX( 3 ) ) 3 2 2 m GX2 6 6 ' 6 5 HXKXu 1 u u q l r 4 2 ) JXHX( / / 2 2 2 3 3 2 ) ( 6 2 2 HX2 3 S 4 4 ) 4 ( 2 ( 2 2 2 ' FX5 6 2 8 6 S S 4 JX4 3 2 6 6 6 ' 6 6 6 6 6 6 ' 6 6 6 N 2 6 / 6 @ ' 6 2 2 2 ( 3 2 2 2 M m / 2 3 3 S 3 6 / 2 2 6 / 2 6 ` 5 5 DX5 6 6 6 2 2 2 2 ' GX2 2 / 6 6 / : / @ ` FX2 m 3 3 6 DXAX@XAX#X#X#X#X#X#X#X#X#X#X#X#X#X#X#X#X#X#X#X#X#X#X#X#X#X#X#X#X#X#X#X#X#X#X#X#X#X#X#X#X#X#X#X#X#X#X#X#X#X#X#X#X#X#X#X#X#X#X#X#X#X#X#X#X#X#X#X#X#X#X#X#X#X#X#X#X#X#X#X#X#X#X#X#X#X#X#X#X#X#X#X#X#X#X#X#X#X#X",
"#X#X#X#X#X#X#X#X#X#X#X#X#X#X#X#X#X#X#X#X#X#X#X#X#X#X#X#X#X#X#X#X#X#X#X#X#X#X#X#X#X#X#X#X#X#X#X#X#X#X#X#X#X#X#X#X#X#X#X#X#X#X#X#X#X#X#X#X#X#X#X#X#X#X#X#X#X#X#X#X#X#X#X` 6 GX' FXGXHX2 / FX@ DX5 ' FXDXDXDX5 DXSXDXGX' DXDX@ ' FXGX2 HXFX5 ] DX@ ' GX/ GXGX) 4 4 S 4 4 1 2 ` ' 5 FX5 5 DXDXS 1 / / 6 ` 5 ' 6 GX6 / ' DXDX2 ( 3 3 6 FX6 ' 6 2 2 ' 6 6 2 3 HX( ( 3 3 2 ( 4 3 GXFX6 M 1 q q y 0 0 q u y 0 r ) 2 3 ( / 4 1 S u 3 ' 6 FXDXS r u 5 ' ' ' DX2 1 A y u 2 / GXGX2 GX6 FX5 6 GX2 2 2 3 2 GXN GX6 6 GX) ( 2 ' 6 2 ' DX( 4 3 ) 4 2 / HXHX6 FXHXJX2 3 l y 1 y r l y KXu A A KXq r q 4 3 ( HX( 2 ( JX( 3 3 4 ) ) u S 2 HX4 2 FX5 : 2 4 y A A u 2 GXN 6 / 6 5 5 5 6 / ( S S 3 / 5 FX6 6 DXFX6 6 6 6 6 6 / / 6 / 6 ' 6 6 / 2 3 3 2 6 2 2 6 DXFXGX' 5 ' 5 3 u 4 ( 3 1 ) 6 2 M ( 4 u 4 4 GX2 3 2 / ( 3 4 4 3 OXGXJX2 ( HX2 2 3 3 3 3 ) 2 2 2 2 GX6 6 1 q ) ) 4 3 ( ( 2 ' 5 ' / FX6 N 6 6 6 2 6 5 5 ' 6 6 6 6 2 5 ] @ DXDX6 2 2 2 2 6 / 2 2 2 ( m 2 2 m 2 2 ( 2 2 2 2 2 / DX] DX' 3 3 6 N 2 2 N 2 N 6 6 2 GX6 6 6 5 ' FXFX6 / 2 m 3 3 / DXSX#X@XAX#X#X#X#X#X#X#X#X#X#X#X#X#X#X#X#X#X#X#X#X#X#X#X#X#X#X#X#X#X#X#X#X#X#X#X#X#X#X#X#X#X#X#X#X#X#X#X#X#X#X#X#X#X#X#X#X#X#X#X#X#X#X#X#X#X#X#X#X#X#X#X#X#X#X#X#X#X#X#X#X#X#X#X#X#X#X#X#X#X#X#X#X#X#X#X",
"#X#X#X#X#X#X#X#X#X#X#X#X#X#X#X#X#X#X#X#X#X#X#X#X#X#X#X#X#X#X#X#X#X#X#X#X#X#X#X#X#X#X#X#X#X#X#X#X#X#X#X#X#X#X#X#X#X#X#X#X#X#X#X#X#X#X#X#X#X#X#X#X#X#X#X#X#X#X#X#X#X#X).#XDX' ' FX6 / 6 2 6 / 2 ( GX5 DXDXDX5 DXSXFX/ FX5 DXDXFX6 GX2 GXDXFX6 6 FX' GX6 / ( GXFX1X5 GX3 4 u 3 6 ( 6 DXDX5 5 2 3 6 6 5 ` DXDX5 6 / 6 5 DX6 2 3 3 ' ` 6 6 FX/ HX6 / 4 3 ) S 2 GX2 3 ( HX4 4 6 DX$XFXGX6 3 ) q y 0 k y r k k u / ( 3 2 2 4 u u 3 6 ' 5 2 y q A 2 ' FX5 5 > A u 4 2 6 GX2 2 6 FX' DX` 6 / 2 2 3 ( GXGX6 6 GX' FX3 4 3 / 2 ) m 2 HXGX' 2 3 3 3 HX/ HXGX/ 3 ( ' y '.y u 1 A 1 q 1 1 q 1 1 y r q M 3 JX2 ( 3 2 2 FXGXS 4 M 4 3 GX3 S 2 / 3 S 3 4 S S 1 q 3 2 GX6 6 5 FX5 ' 6 FX4 S 3 2 FX' ' 6 6 6 / / 6 / 6 5 FX6 ' 6 / GX6 / 2 GXGX3 2 ' GX2 ' ' FX6 6 5 FX6 m 4 4 > 3 u 4 FXDXHX4 3 3 3 3 4 3 2 2 6 2 2 ( 3 ( 4 2 ( 3 ( ( / GX/ 3 ) 3 3 4 2 / 3 4 ( ( ( u q 1 S 2 GX/ 3 6 5 FX6 5 5 6 FX' ' 6 6 2 3 ( 2 2 5 5 6 6 5 FX' 5 FX6 / / GX6 6 FX@ ` FX6 6 / 6 GX/ 2 / 2 / 6 6 6 2 2 ' 8 / 2 2 GX6 3 4 3 2 N 2 / GX' / 6 FX6 6 6 6 6 6 / / 2 m : 3 m 2 FXSXVX@X#XAX@XAXSX#X#X#X#X#X#X#X#X#X#X#X#X#X#X#X#X#X#X#X#X#X#X#X#X#X#X#X#X#X#X#X#X#X#X#X#X#X#X#X#X#X#X#X#X#X#X#X#X#X#X#X#X#X#X#X#X#X#X#X#X#X#X#X#X#X#X#X#X#X#X#X#X#X#X#X#X#X#X#X#X#X#X#X#X#X#X#X#X",
"#X#X#X#X#X#X#X#X#X#X#X#X#X#X#X#X#X#X#X#X#X#X#X#X#X#X#X#X#X#X#X#X#X#X#X#X#X#X#X#X#X#X#X#X#X#X#X#X#X#X#X#X#X#X#X#X#X#X#X#X#X#X#X#X#X#X#X#X#X#X#X#X#X#X#X#X#X#X#X#X#X#XmX#X#XSXmXDX/ FX5 / / / 2 ( 2 ` DXSXDXFXDX` 6 FX5 (.DX8 6 GX` FX' 5 FX6 / 2 GX6 FXFXGXFX' 6 GX6 3 ) S y u 4 4 ' ` FX6 6 FX' FXFXDX5 3 / 6 / ' DX' 2 / 3 2 5 FX6 ` ' 3 2 2 3 3 m S 4 HXFX/ 6 2 3 2 / 6 6 GXGX/ 3 3 3 4 A y r k r r 0 l 1 2 2 6 / u u > HX3 2 6 u u u y M 6 ' 5 5 2 u 4 6 6 / / 2 / 6 5 8 ] 2 HX6 / 2 2 2 / 2 6 ' FX2 3 3 ) JX4 4 6 GX2 GX6 6 2 ) S ) 2 6 ( 3 3 3 3 3 2 y y DXFXFX3 S 3 1 y y XXu k y u 4 ( HX3 2 ' 8 S q 3 ) 4 2 ' FX3 HX6 JX4 HXHX3 ( u y q M 2 2 / 6 / FX5 2 4 4 S 3 4 2 ' 6 6 6 ' ' 6 6 / 2 ' 5 ` 5 5 GX2 6 2 m 2 ' 6 2 6 6 2 6 ' 6 6 6 ' FXN 3 ) 4 4 3 m 4 u 3 FXGX3 S S 3 3 u A S 6 FX5 8 8 FX3 JXGX( 3 3 2 6 6 # 2 2 HX) 3 2 3 JX( 3 3 4 S 1 u 4 HX2 2 2 2 ' 6 FXDX5 DX5 6 5 5 ( 4 u ) 3 2 6 6 6 ' ' 6 6 6 6 ' 6 6 6 6 6 ' FX` FX' 6 ' @ 5 6 6 6 6 6 6 6 6 ` 3 q 3 ' 6 6 M u 4 S S ) 3 GX6 6 6 2 FX6 ' 6 / 6 N / = 6 6 6 / 2 2 2 3 2 / DXSXDX5 $X@X#X#X#X#X#X#X#X#X#X#X#X#X#X#X#X#X#X#X#X#X#X#X#X#X#X#X#X#X#X#X#X#X#X#X#X#X#X#X#X#X#X#X#X#X#X#X#X#X#X#X#X#X#X#X#X#X#X#X#X#X#X#X#X#X#X#X#X#X#X#X#X#X#X#X#X#X#X#X#X#X#X#X#X#X#X#X#X#X",
"#X#X#X#X#X#X#X#X#X#X#X#X#X#X#X#X#X#X#X#X#X#X#X#X#X#X#X#X#X#X#X#X#X#X#X#X#X#X#X#X#X#X#X#X#X#X#X#X#X#X#X#X#X#X#X#X#X#X#X#X#X#X#X#X#X#X#X#X#X#X#X#X#X#X#X% #X#X#X#X#X#X#X#X#XAX@X#XFX' DX5 6 2 GX6 2 6 FX' 6 FXDXDX5 DX(.DX] FXGXFXSX5 GX(.DX' HX2 HXGXDX` 6 ' FX/ 2 / 3 S S 4 ) 2 4 S 2 ' 6 6 6 6 5 5 8 2 1 2 GX6 5 5 6 GXGXHX2 ' FX` 5 GXM 3 HX6 FX2 3 2 ( 2 / / 2 GXSXHX3 GX2 3 3 ( 3 S 4 u 1 1 y r r r 0 0 A S A r y S 3 3 u 3 ) A 4 S y 3 5 6 6 5 3 q u / 6 FX6 GX6 5 5 HXS u 2 6 GX/ 2 6 6 / / FXDX6 2 ( 3 3 4 2 5 ` 6 2 ' 2 JX4 3 6 ' 2 3 4 4 3 ) 4 4 4 / FXGX2 3 HX/ y r A q 1 y r q JX) u KX/ 2 ( r q / 3 4 2 GX( 3 HX2 ) 3 ( 3 3 3 A q S KX4 2 6 2 6 5 DX4 q S 2 GX4 3 6 ' 6 6 6 ' 5 5 5 5 ' 6 6 ' 6 3 ' $XGX2 6 6 6 ' 6 ' 6 GX6 ' FX' 6 2 2 3 4 M 3 2 6 2 2 ) 3 HX4 S 4 3 3 JXKX1 1 3 4 y y A 4 2 /.3 ) 3 / GXGX2 3 ( 3 3 3 4 S 2 # 2 3 4 u 1 u 2 GX3 ( 2 / 2 6 DX5 DXDX5 5 DX' 1 u S 4 ) 3 ( ' FX6 6 6 / 6 GX6 6 ' 6 / 6 6 6 6 6 6 6 ' 6 GX6 6 6 GX6 ' / 2 6 / 4 S 6 6 4 u 3 HX3 3 2 / FXFX' 6 FX` DXDX5 2 m 2 2 2 GX6 FX6 2 ' `.5 2 3 / FX6 m 6 ] #XVX).#X#X#X#X#X#X#X#X#X#X#X#X#X#X#X#X#X#X#X#X#X#X#X#X#X#X#X#X#X#X#X#X#X#X#X#X#X#X#X#X#X#X#X#X#X#X#X#X#X#X#X#X#X#X#X#X#X#X#X#X#X#X#X#X#X#X#X#X#X#X#X#X#X#X#X#X#X#X#X#X#X#X#X#X#X",
"#X#X#X#X#X#X#X#X#X#X#X#X#X#X#X#X#X#X#X#X#X#X#X#X#X#X#X#X#X#X#X#X#X#X#X#X#X#X#X#X#X#X#X#X#X#X#X#X#X#X#X#X#X#X#X#X#X#X#X#X#X#X#X#X#X#X#X#X#X#X#X#X#X#X#X#X#X#X#X#X#X#X#X#X#X#X#XAX#XFX' FXFX/ / 6 / 2 ( 4 3 6 5 DXDXDXFXFXDX' GX5 DXDX6 GXFXGXFXFXGX' FX6 GX2 6 / 2 HX3 3 2 FX5 2 ) S 1 u / 2 6 5 DXDX` N 2 6 6 5 DXDX' 6 ' 6 2 ' 5 ' 2 3 JX2 FXDX` 2 2 / GX' 2 4 3 6 HXu 3 / 3 4 3 3 4 S u u 3 / 2 S q q q r y q r k r S m 3 4 ) 3 S c u S ) 2 2 GX6 m q q GX5 6 ' FX5 DXS q A 3 6 2 2 2 / ' FX5 5 6 FX/ 2 HX( 3 / 6 GX5 FX' ' 3 4 3 GX6 GX2 / 3 S ) 3 4 1 S GX2 3 3 GX3 / 3 h k q q y k y 1 u 1 KXHX1 y 1 3 3 4 S 2 HX3 JX2 3 3 3 3 ) 3 S S 3 JX4 > ( 2 / FXm 6 1 q 3 / HX3 2 6 6 ' 6 6 5 5 6 / 6 6 2 6 5 6 GX5 5 6 GX6 6 GX6 5 6 / 6 6 5 5 ' 6 2 2 3 3 ) 4 ( 6 / 6 / GX2 3 3 3 M 3 OXXX1 y q q k L r 3 JX4 ) 4 4 / 2 2 ( HX3 3 3 ) S JXHX/ ( ) 4 3 ) 3 / 2 2 3 2 2 6 5 5 DX8 5 2 2 5 m u ) 4 ) 3 ) 2 6 FX' 6 / 6 6 2 / 6 N / 6 / 6 ' 6 ' 6 6 6 6 6 / / / 6 6 2 2 2 3 4 GXGX( 3 1 S / / 2 2 GX6 6 6 6 6 DX8 5 3 3 ' 6 2 N / 2 N 2 6 / 6 FX/ 2 6 5 ' 6 6 2 2 2 / DXVX@XAXSX#X#X#X#X#X#X#X#X#X#X#X#X#X#X#X#X#X#X#X#X#X#X#X#X#X#X#X#X#X#X#X#X#X#X#X#X#X#X#X#X#X#X#X#X#X#X#X#X#X#X#X#X#X#X#X#X#X#X#X#X#X#X#X#X#X#X#X#X#X#X#X#X#X#X#X#X#X#X#X#X#X",
"#X#X#X#X#X#X#X#X#X#X#X#X#X#X#X#X#X#X#X#X#X#X#X#X#X#X#X#X#X#X#X#X#X#X#X#X#X#X#X#X#X#X#X#X#X#X#X#X#X#X#X#X#X#X#X#X#X#X#X#X#X#X#X#X#X#X#X#X#X#X#X#X#X#X#X#X#X#X#X#X#X#X#X#X#X#X#X#X#X#XSX` 6 6 / 6 ' 6 ( 4 3 GX` DXDX5 6 FXDXFXFXFXDXSXDXGX/ 6 DX` 6 FX6 GX2 HXHX/ DX2 ) FXGXGX' HX3 & A y u 3 ( 5 ` 5 FX' 6 GX' FXDXFX/ 5 5 2 / FXFX/ 2 ( ( 2 5 5 5 6 HX2 FX6 4 4 3 3 u S 3 2 / ( 2 ) 3 2 3 3 6 2 2 6 4 u A y 0 r q r k y 4 3 4 4 GX6 S u 4 4 ) 2 6 m 3 A y 3 5 FX5 5 5 2 u u 6 6 GX2 2 6 6 6 5 DXFX' 6 6 2 2 3 ( / 6 FX5 6 6 2 4 ) 3 ( 3 / $X5 6 6 ) 4 u A 4 2 4 S JXHX3 HX' y 0 y y r k k q 1 A 1 u oXq y y 4 S u 2 ( ) 3 3 ( / 3 4 3 3 S 2 2 3 FXGXM 2 ' 2 4 3 S 1 3 2 ( 2 6 GX5 5 5 ` 5 GX( 3 JXS / ` ' ' ' 6 GX6 6 6 / 6 6 ' 6 5 ` ' ' ' 6 6 GX' 2 ( 4 S S 3 2 6 DXFX2 / 6 6 3 ( 3 S u u q q A k q ( ) ) 4 4 4 2 2 3 2 6 ( 3 ( M 4 ( 2 2 3 ) HXGX2 ( 4 S ) 4 3 6 ' 2 / 6 3 u q q q q 4 S JX2 ( 2 6 6 5 ' 6 6 ' 6 6 / 2 m 3 2 6 6 6 ' 5 5 / 6 ' 6 2 2 2 : ( m m HXm 3 M 3 3 M 4 3 2 2 2 2 / 2 2 2 HX5 ` ` / 3 M 2 6 3 3 : N 5 6 6 6 6 2 2 6 5 ' 6 6 6 6 / : 3 M 2 DX#X@X#XSX#X#X#X#X#X#X#X#X#X#X#X#X#X#X#X#X#X#X#X#X#X#X#X#X#X#X#X#X#X#X#X#X#X#X#X#X#X#X#X#X#X#X#X#X#X#X#X#X#X#X#X#X#X#X#X#X#X#X#X#X#X#X#X#X#X#X#X#X#X#X#X#X#X#X#X#X#X#X#X",
"#X#X#X#X#X#X#X#X#X#X#X#X#X#X#X#X#X#X#X#X#X#X#X#X#X#X#X#X#X#X#X#X#X#X#X#X#X#X#X#X#X#X#X#X#X#X#X#X#X#X#X#X#X#X#X#X#X#X#X#X#X#X#X#X#X#X#X#X#X#X#X#X#X#X#X#X#X#X#X#X#X#X% #X#X#X#X#X#XAX).#XDXGX6 6 ' 6 ( 2 / 2 6 6 6 6 GXFXDX` DX5 FX] DX/ GX5 (.5 # GXGX2 ( GXDX6 8 6 GXFX2 2 GX2 4 S u u u u S S 2 5 6 6 6 / ' ` DX4 A 3 6 HX2 5 6 6 2 2 2 2 6 5 `.5 3 2 / 3 M 3 3 3 ) : 2 6 8 GX1 2 FX' GXHX2 HX2 2 JX4 u y k 0 k r k 0 r 4 m 2 ' 4 1 S u 3 ) 2 3 4 u A y u 5 6 5 ` GX4 A 3 5 GX2 2 6 6 FX8 SXm 4 6 6 6 / 2 2 2 2 6 5 ' 2 2 M 3 3 ) 4 3 ' o DX' GX> u S 4 2 2 JXS S 4 4 M S 2 4 r r r k y 1 u A q 1 S q 1 u u u 3 OX2 2 3 / 8 # 4 4 ( 3 HX6 HX2 DXFX( 2 2 ) 3 ) 4 A S 2 2 / 6 5 ' 5 5 8 DXM 4 3 S u 2 6 FX6 6 6 6 / ' ' 6 6 6 6 5 DXDX6 6 6 6 ' 6 / 2 3 3 2 2 m 6 ' 5 ' / 6 FXN 3 / 3 1 S 2 3 3 4 S 1 u 3 HXHXS S 4 3 / 8 ` 5 ` 2 4 OXFXHX2 ( 2 GX/ 2 3 4 4 4 4 S 3 2 2 HX4 u u u u r q ) 4 2 2 3 2 6 6 6 6 ` 5 FX6 5 6 M 4 3 : / 6 5 DX6 2 GXFX5 ' ' 6 / 2 2 ( 2 2 2 6 2 m 3 GX6 / 2 2 2 2 2 / 2 4 HX6 6 FX2 3 2 ) 4 4 u S 4 ( 6 FXFX' 6 FX5 / 6 6 6 GX6 6 / 2 m M M 2 DX@X@X#X#X#X#XAXVXAX#X#X#X#X#X#X#X#X#X#X#X#X#X#X#X#X#X#X#X#X#X#X#X#X#X#X#X#X#X#X#X#X#X#X#X#X#X#X#X#X#X#X#X#X#X#X#X#X#X#X#X#X#X#X#X#X#X#X#X#X#X#X#X#X#X#X#X#X#X#X#X#X",
"#X#X#X#X#X#X#X#X#X#X#X#X#X#X#X#X#X#X#X#X#X#X#X#X#X#X#X#X#X#X#X#X#X#X#X#X#X#X#X#X#X#X#X#X#X#X#X#X#X#X#X#X#X#X#X#X#X#X#X#X#X#X#X#X#X#X#X#X#X#X#X#X#X#X#X#X#X#X#X#X#X#X#X#X#X#X#X#X#X#X#X#XAXDXFX$XDX2 GX` 2 ( 2 3 3 3 6 5 FXDXDXFX5 DXFX2 6 FXFXDX5 / 2 HX2 ' FX' # ' 6 GX/ 2 / 2 3 2 GX' 6 ) S 1 u 6 ' 2 6 5 @ DX5 2 u S / / ' DXFX6 2 / 2 2 ' DXSX/ ) 3 4 2 FX` FX3 2 6 / 6 ` S q FX6 / 2 2 2 ( HX3 4 4 3 3 3 A y y y r 0 r u ) 1 k r u M 3 3 JX3 4 1 1 q u 6 6 FXDX6 A r > ` 6 2 ' FX5 FX2 2 u 1 ( 6 / 2 2 2 GX6 GXFX6 6 2 HXHX3 3 2 / 6 5 5 6 3 3 M 3 / 2 6 ' 2 S S 4 4 4 ( 2 3 u 1 u 4 u 3 S y y y q XXXXq u 3 4 ) GX2 2 6 A y 3 HX( 2 GX2 2 2 ( 2 3 S JXHX3 1 u 3 3 ( 6 FX' 5 FX] 6 u A S u u HX/ 6 6 6 6 / 6 5 5 5 ` 5 5 5 ' 4 : 2 2 GX6 2 2 2 m 2 FX@ ( 6 6 ' 5 6 6 ' 6 2 m : 4 u S S ) 3 3 3 4 u 4 4 ( + ) 1 S 2 3 u y u 3 HXFXGX( 3 2 6 6 / ( JX3 ( 3 3 u 4 2 6 GX3 ( 2 4 1 1 KXS 3 HX( ( 6 ' GX/ 5 8 ` / 2 / 2 3 3 3 3 2 ' 2 m 3 2 6 5 FX6 6 6 FX6 / 6 6 6 / 6 / / 5 DX` DXFX' 6 6 / 6 / 4 3 ( ) 3 / N 3 4 3 ( 3 ) ) 2 FX5 FX' 6 5 ' 6 6 6 6 6 6 6 N 2 2 2 2 3 3 / SX#X#X@X#XSX`.$X#X@XVXAX#X#X#X#X#X#X#X#X#X#X#X#X#X#X#X#X#X#X#X#X#X#X#X#X#X#X#X#X#X#X#X#X#X#X#X#X#X#X#X#X#X#X#X#X#X#X#X#X#X#X#X#X#X#X#X#X#X#X#X#X#X#X#X#X#X#X#X#X",
"#X#X#X#X#X#X#X#X#X#X#X#X#X#X#X#X#X#X#X#X#X#X#X#X#X#X#X#X#X#X#X#X#X#X#X#X#X#X#X#X#X#X#X#X#X#X#X#X#X#X#X#X#X#X#X#X#X#X#X#X#X#X#X#X#X#X#X#X#X#X#X#X#X#X#X#X#X#X#X#X#X#X#X#X#X#X#X#X#X#X#X#X#X#X#X).@XFXGX5 6 GX( ( 6 ( ( FXDXDX5 6 FXDX' 6 ' FXDX] 5 HX/ FXFX6 FX6 / GXGX6 6 ' # / GXFX/ 2 2 2 4 S 1 y S ) M 5 DX5 ' 6 2 GXGX6 5 5 ` FX' 2 / FX5 8 5 3 3 3 ( 6 5 ` 6 HX6 GX6 2 S 4 ( 3 2 HX2 GX( 2 3 4 4 / 6 6 GX6 2 ) KXq k 0 k q y k l q 3 2 ( 3 GX3 u u 1 4 6 6 5 ` 2 y r 1 ` 6 ' FX5 DXS q A c 4 2 GX2 2 2 / FXFX5 ' 6 GX2 2 3 3 2 2 6 6 FX' / / GX2 GX6 6 FXDXGX1 u 4 ) 3 2 ' (.GX2 3 ) 4 2 2 y q q y 1 y r q 4 u u KXS q q y 1 3 ( JX2 2 2 ( ( 3 2 3 4 3 3 ) u 3 ( ) : 6 6 ' 5 DX5 A r q u 4 3 / 6 / 6 ' 6 6 ' FX6 6 ' 5 DX8 3 4 2 2 ( 6 GXHXFX5 2 GX5 6 6 / 6 6 6 6 FX6 2 ( 3 3 3 M 2 3 2 6 2 3 2 6 N 2 3 GXoXu KXS k h L L r / HX3 ) 4 2 6 GX2 HX2 2 HX( 4 S / 6 GX/ ( 2 2 u A 4 JX3 ( : HX( GX6 2 6 DXDX5 6 6 6 ( GX2 ) JX4 3 3 3 / ' ' 6 FX5 6 6 6 / 2 GX6 6 6 6 6 FX5 FXFX5 6 6 ` FX/ m 6 6 3 3 3 3 2 FX/ 3 GX2 2 2 6 FX' ' 5 5 ` 5 5 5 ' 6 6 6 6 6 6 6 GXN / 2 2 M : 2 6 5 FX6 2 2 6 FXDX_.VX@X#X#X#X#X#X#X#X#X#X#X#X#X#X#X#X#X#X#X#X#X#X#X#X#X#X#X#X#X#X#X#X#X#X#X#X#X#X#X#X#X#X#X#X#X#X#X#X#X#X#X#X#X#X#X#X#X#X#X#X#X#X#X#X#X#X#X",
"#X#X#X#X#X#X#X#X#X#X#X#X#X#X#X#X#X#X#X#X#X#X#X#X#X#X#X#X#X#X#X#X#X#X#X#X#X#X#X#X#X#X#X#X#X#X#X#X#X#X#X#X#X#X#X#X#X#X#X#X#X#X#X#X#X#X#X#X#X#X#X#X#X#X#X#X#X#X#X#X#X#X#X#X#X#X#X#X#X#X#X#X#X#XAX#X#X#XFX6 FX5 2 ( GX2 3 2 / 2 / 6 5 DX5 5 (.5 DXDXGX/ DXSXFXGX6 FX/ ( / GX6 FX5 6 GXGX2 HX2 ( 4 1 1 q u > u ) 5 ` 6 2 6 6 / 6 5 DXGX> 6 2 6 5 ` ` 2 ( 3 3 2 GX` 5 5 / ( / 6 3 4 2 2 S S 3 2 6 FX2 3 ( ( GX/ 2 HX2 / 2 M 4 q 0 k y r k k r S 2 2 3 6 5 4 u S ( / 6 ' 5 u q q q GX5 FX5 5 6 S A 1 M 6 GX/ GX2 / 6 FX` DX6 / 6 / 2 2 / / GX6 6 ' 5 FX2 ( 3 / / 3 2 6 4 3 2 2 3 HX3 / @ GXm HX3 ) 2 / 1 l y y r r y A u 1 A y KX1 r q S 4 S 3 2 2 2 3 4 ( ( ) 3 3 4 S S 3 ( 3 ) 2 6 5 ' 6 S q 1 y q 2 3 / 6 6 ' 5 5 5 ` / 4 ) 3 4 2 2 2 ] SX6 2 6 GX/ 6 GX6 6 GX6 6 6 GX6 6 FX5 FXFXGX( 3 ) 4 3 2 / 2 ( 2 5 DXFX5 6 ) u KXS S 4 l L '.q 2 3 u S 4 ) 2 / 2 ( 2 ( 2 2 3 3 GX/ 2 2 HX2 4 4 3 4 ) 2 3 2 / 3 2 2 6 DX' 6 3 HX5 ` 4 4 ) 3 3 3 3 6 FXFX6 6 5 5 6 6 6 6 / 6 / N / N 6 6 6 / 6 6 / 2 2 6 2 2 2 2 2 m 2 2 2 3 HXJX3 6 2 ( 3 / 6 6 6 GX5 DX5 DXFX5 5 5 5 ' 6 N 6 N 6 6 6 N 2 HX2 / 2 2 6 6 6 2 3 M 3 6 DX#X@XVX#XSX#X#X#X#X#X#X#X#X#X#X#X#X#X#X#X#X#X#X#X#X#X#X#X#X#X#X#X#X#X#X#X#X#X#X#X#X#X#X#X#X#X#X#X#X#X#X#X#X#X#X#X#X#X#X#X#X#X#X#X#X#X",
"#X#X#X#X#X#X#X#X#X#X#X#X#X#X#X#X#X#X#X#X#X#X#X#X#X#X#X#X#X#X#X#X#X#X#X#X#X#X#X#X#X#X#X#X#X#X#X#X#X#X#X#X#X#X#X#X#X#X#X#X#X#X#X#X#X#X#X#X#X#X#X#X#X#X#X#X#X#X#X#X#X#X#X#X#X#X#X#X#X#X#X#X#X#X#X#X#XAX#X_.DX/ / 2 / / 2 m 4 S 3 / FXDXDXDXFX6 DXFXGX# ` DXDX6 6 6 HX/ # GXFX' 2 ' ' 6 / ( ( 2 u u HX6 / 3 4 u u : 6 ( / ' 6 FX` DXm A 3 2 GXFXDX5 2 2 2 2 HX2 6 5 ] GX> 2 3 3 / FXFXm 4 2 / ' 8 3 GXGX3 6 / 3 ( ( 3 3 4 4 4 q y r k r r 0 0 A 4 3 / u 1 u S 2 3 3 / > q c A q 3 6 ' 5 ' 2 1 1 M 5 GX/ 2 2 6 ' FXDX8 6 2 GX/ / 2 2 / 6 ' FX6 ' 6 2 3 4 4 3 4 3 2 ( 2 / 6 ' 2 S u 4 HXGX2 3 3 ( 3 > 2 r 0 A KX) 3 3 1 S S y 1 A r r q 4 4 HX( / 3 4 2 2 6 3 4 ) 4 4 3 HX3 4 4 3 6 2 3 ( 4 S S q y 4 ( 6 ' 6 6 5 ` 5 6 2 4 3 3 4 u 4 ' DXDX' 6 6 2 / 6 6 / 6 6 / ' 5 6 6 ' ' 6 FX' 2 2 3 3 GX2 2 6 6 / 6 ' ' 6 6 5 m u S > 3 4 q r S 2 2 4 KXJX4 u ) GX3 ( 3 2 GX2 2 ( 3 3 ( 3 2 3 HX6 GX2 ( 3 3 3 3 2 2 ( 6 / 2 / u q 1 ) u 4 / 2 ( / FX5 ' 6 6 5 FX5 ' 5 ' ' 6 6 6 / 2 2 / N / 6 ' 5 FX6 6 2 2 2 3 m 2 / 2 2 2 m 3 m HX3 3 m ( 3 3 m 2 m / 5 8 DX' 6 / 5 5 2 4 ) 2 2 2 / 2 / FX6 6 6 ' 6 ' ' 6 6 6 6 ( M 3 2 FX`.@X@X#X#X#X#X#X#X#X#X#X#X#X#X#X#X#X#X#X#X#X#X#X#X#X#X#X#X#X#X#X#X#X#X#X#X#X#X#X#X#X#X#X#X#X#X#X#X#X#X#X#X#X#X#X#X#X#X#X#X#X#X#X",
"#X#X#X#X#X#X#X#X#X#X#X#X#X#X#X#X#X#X#X#X#X#X#X#X#X#X#X#X#X#X#X#X#X#X#X#X#X#X#X#X#X#X#X#X#X#X#X#X#X#X#X#X#X#X#X#X#X#X#X#X#X#X#X#X#X#X#X#X#X#X#X#X#X#X#X#X#X#X#X#X#X#X#X#X#X#X#X#X#X#X#X#X#X#X#X#X#X#X#XAX@XDXGX2 2 6 ' HX4 ( 2 2 FXDXDX5 6 GXFX5 FXFXFXDX8 (.GX2 2 5 ` ' # 6 HXGXHX3 / GX2 S 4 2 6 @ HXm 4 u q y S 2 4 6 DX5 5 5 2 4 / 6 FX5 DX8 6 / 6 / 2 6 FX8 FX( 2 M JX6 ' 6 / GXFX6 / 2 S 3 DX3 JXGX2 HX3 3 ( 3 u u 1 1 4 4 u y r q k l A 1 y l y S 4 2 S 4 HXu 1 u q A 2 6 6 / 6 2 q q 3 ' 6 6 2 / FX5 8 / ( S 4 6 6 6 2 2 / 6 6 ' 6 6 ( ( GX3 OXGX3 / 6 6 6 / 6 2 4 u 3 ( 2 ' HX4 3 3 4 ) 3 3 u GX5 6 2 2 2 u r A y y q y y u 4 ) 4 3 3 2 ' FX' 4 3 HX4 3 / GX3 4 ( 2 2 4 3 HX3 HX4 q q 1 3 2 6 6 FX' 5 6 2 3 3 3 ) 3 4 3 5 5 5 6 6 / 2 6 ' 6 6 6 / 6 5 ` 5 6 6 6 6 2 / 2 ( 2 DXDX2 6 6 / 6 6 6 ' 6 6 2 2 u S S 1 1 S 2 6 3 3 3 HX/ 4 1 u 2 6 6 DX] SX5 2 ( 3 3 JX2 / ( 6 GX( 3 HXGX2 4 4 3 3 ( 2 ) ( 3 1 y y q 3 6 6 3 ( 6 ` FX6 6 ` 5 5 ' 6 6 5 DX5 6 5 5 6 6 6 2 / 6 ' 5 ` DXFXFXDX6 2 GX6 2 / / 2 2 2 / 6 6 5 DXFX/ 2 2 2 2 2 2 ' 5 6 2 2 6 ( ) u u 3 2 2 2 2 6 FX' 6 6 6 6 6 6 6 6 6 6 2 2 2 : 3 3 6 SX#X@XAX#X#XAX#X#X#X#X#X#X#X#X#X#X#X#X#X#X#X#X#X#X#X#X#X#X#X#X#X#X#X#X#X#X#X#X#X#X#X#X#X#X#X#X#X#X#X#X#X#X#X#X#X#X#X#X#X#X#X",
"#X#X#X#X#X#X#X#X#X#X#X#X#X#X#X#X#X#X#X#X#X#X#X#X#X#X#X#X#X#X#X#X#X#X#X#X#X#X#X#X#X#X#X#X#X#X#X#X#X#X#X#X#X#X#X#X#X#X#X#X#X#X#X#X#X#X#X#X#X#X#X#X#X#X#X#X#X#X#X#X#X#X#X#X#X#X#X#X#X#X#X#X#X#X#X#X#X#X#X#X#X@XSXFX` ' 6 ( 2 6 3 2 2 2 3 2 ( 6 FXFX5 5 6 (.8 5 3 2 GX5 DX6 2 GX2 3 4 ( # 5 DX4 GXGXHX2 ( 2 u A q y r S S S / ' 6 6 2 2 6 6 FX` DXDX6 : / 2 6 FX5 FX2 ( 2 3 / FX6 GX6 2 DX2 3 M u ( JXu 2 2 3 3 4 3 3 S S S u HX6 2 6 4 q y q k l r r k l A M 3 S S 3 3 u c u 4 ( 3 2 2 6 m u q 4 2 ' ' 6 ' 5 5 S y * S 2 / 6 GX2 / 6 GX6 FX6 6 2 / 2 HX/ 2 2 / 6 FX' 6 6 ( 3 HX2 6 / 6 6 3 M 4 4 3 HXM 2 2 ( HXHX3 ( 3 0 l q y y y y y S KXA A 3 6 3 S A 4 3 ( M 3 2 ( 4 ) 3 3 4 3 ( 3 JXJX1 q q 4 ) 3 2 / 2 2 ' 6 4 A S u 3 HXHX2 ' 5 6 6 6 2 / 6 6 6 5 FX5 5 ' 5 6 2 / 2 m 2 DXFX3 6 FX2 / GX6 6 6 6 ' 6 / 6 3 4 4 3 3 1 u M 3 2 3 ) S M 3 KXu u KX2 ) q q A u 4 3 HX2 ) 2 HX2 GX/ 3 3 2 2 3 4 3 M 4 JX4 ) 3 S u q q 4 3 6 2 3 3 6 5 6 6 5 5 5 DX/ 2 6 n 3 4 3 4 2 5 5 5 2 / 6 6 6 FX' 6 ' ' / 6 6 / 6 6 6 6 6 6 2 / FXDX` 6 / / 2 6 6 6 2 : ( 6 2 2 S 1 u u 1 u 3 2 ( FX' 6 / 6 FX6 6 6 6 N / 6 6 N / 2 2 2 m M 3 / 5 SX#X#XSX_.#XAX#X#X#X#X#X#X#X#X#X#X#X#X#X#X#X#X#X#X#X#X#X#X#X#X#X#X#X#X#X#X#X#X#X#X#X#X#X#X#X#X#X#X#X#X#X#X#X#X#X#X#X#X",
"#X#X#X#X#X#X#X#X#X#X#X#X#X#X#X#X#X#X#X#X#X#X#X#X#X#X#X#X#X#X#X#X#X#X#X#X#X#X#X#X#X#X#X#X#X#X#X#X#X#X#X#X#X#X#X#X#X#X#X#X#X#X#X#X#X#X#X#X#X#X#X#X#X#X#X#X#X#X#X#X#X#X#X#X#X#X#X#X#X#X#X#X#X#X#X#X#X#X#X#X#X#X#X#X@X#X6 2 6 6 m m 3 4 ) 3 m 6 FX5 ` FXFX@ DX' HXGXFX5 DXFX2 / ( HX3 FX5 ' ' FX6 / 2 HX2 2 4 S 3 > 4 S S q A 2 6 N / N GX' 5 DXFX6 u 1 GX/ 6 FX5 6 / 2 3 ( 6 6 ' 5 ` GX3 3 m 3 JX3 4 ) ( 3 ' 6 3 ) 3 GX6 2 ( / 2 ( / 2 4 S 1 r 0 r y y k r 1 3 3 S 3 FX4 u S 3 3 4 2 2 m 3 u q u 2 ' FX5 5 5 3 q q M 6 6 / / / 6 5 5 5 DX' 6 6 / 6 2 2 3 2 6 6 ' ' FX5 FX2 3 2 6 6 2 6 6 / 3 4 ( 3 M JXHX3 2 ( GX( 4 2 2 l k q y r r y 1 4 q q 4 ) q y 1 4 3 ( 3 3 / 3 ) 3 2 3 ) 2 ( 3 ) 4 4 ( 3 ( 3 3 / 2 2 6 6 6 4 q S 3 GX/ 2 2 6 ' ' FXFX6 5 ' 2 2 ' 5 5 FX5 FX2 6 6 2 2 FXFX6 / 6 / 2 6 6 6 6 6 5 FX6 2 ( 3 4 M ( 6 N 3 4 ( ( 3 ) 4 3 3 JXKXKX1 KXq h 0 '.h q ) 2 GXHX( 3 2 GX/ 2 2 2 2 ( 3 3 ) ( # ( ( 3 4 4 u 3 S u ( 2 ( 2 / 6 6 5 DX` DX5 6 5 ` 3 1 ( 3 u ) / / 2 6 6 ' FX5 6 6 6 6 6 6 6 6 6 2 / 6 6 6 6 6 6 6 6 6 6 6 6 2 GX6 6 5 2 ) 2 6 ( S 4 4 3 3 ) 3 2 FXDXFX6 2 FX` 5 ' 6 6 2 2 6 6 6 ' 6 6 N / 6 2 : 3 2 ' 6 / 6 6 `.#X#X#X#X#X#X#X#X#X#X#X#X#X#X#X#X#X#X#X#X#X#X#X#X#X#X#X#X#X#X#X#X#X#X#X#X#X#X#X#X#X#X#X#X#X#X#X#X#X#X#X#X",
"#X#X#X#X#X#X#X#X#X#X#X#X#X#X#X#X#X#X#X#X#X#X#X#X#X#X#X#X#X#X#X#X#X#X#X#X#X#X#X#X#X#X#X#X#X#X#X#X#X#X#X#X#X#X#X#X#X#X#X#X#X#X#X#X#X#X#X#X#X#X#X#X#X#X#X#X#X#X#X#X#X#X#X#X#X#X#X#X#X#X#X#X#X#X#X#X#X#X#X% #X#X#XAX#X#X#XSX_.#X#X$XSXSX#XSXSX_.#X#X#XSX_._._.mXSX_._.mX_.#XSXSXmX_._.#X_.SX$XSXmX_.SXSX_.$XSX#X).@X#X#XSX$XDX$X_.mXSXmX_.mX_.#XSX$XDX$XSXSXmX#X_._.mXSXSXSX#X_.mX#X#XSX$XSX$XSXSX$XSX#XSXSX#X#X_.$XSXVX#XSX_.SXmXSXmXSX_.#XSX1XDX] $X8 DXFXDXSXSXSX#X#XSX$XSXSXSXSX_.SXSX$XSX] $XSX_.mX_.#XSXSXSXSX#X#X_.mXSXmX#X_.#X#X_.SX#X_.SX_.SXSXSX_.#X_.#XmX#X#X_.SXSXSX_.$XSXSX_.#X#XSX_.SX$XmX#XSX$XSX#XSXSX$X@XSXFXSX$X$X$XDXDX$X$X$X$X$XDX`.$X$XSXSXSXSXSXSXSXmX_.SXSXSXSXSXSXSX_.#X#XSX$X_.mXSX#X_.SX_.$XDX$X_.SXSXSXSX$XSX#XmX_.#X#XSXSXSXSX$X_._.#X#XSX_.#XSX#X_.SX_.#XSXSX_.SX_._._._.mX_.SXSXSXSXSXSX#X_.mXSXSXSXSXSXSXSXSX$XSXSXSX$X`.SXDXSX5 ' `.SXSXmX_.o $XSXSXSX$XSX_.SXSXSX_.$X#X#X#XSXSXSX$X$X_.o DXSXSXSX_.SXSX_.#X_.#XmX_.#X#X#XDX$X#XSXSXSXSX$XSX#X_.mX#XSX_._._.SX_.mX#X_.mXSX#X_.SX_.SX_.SXSX$XSX_.mX_._.SXSXSX_.#XSXSX_.SXSX#X_.#X_.SXSX_.#XSXSX_.SX#XSX#X_.#X_.SX_.SX_.#XSX_.SX#X#X_.#X_.SXSX$XSXSXSX$XSX#X#X#X#X#X#X#X#X#X#X#X#X#X#X#X#X#X#X#X#X#X#X#X#X#X#X#X#X#X#X#X#X#X#X#X#X#X#X#X#X#X#X#X#X#X#X#X#X#X#X#X#X",
"#X#X#X#X#X#X#X#X#X#X#X#X#X#X#X#X#X#X#X#X#X#X#X#X#X#X#X#X#X#X#X#X#X#X#X#X#X#X#X#X#X#X#X#X#X#X#X#X#X#X#X#X#X#X#X#X#X#X#X#X#X#X#X#X#X#X#X#X#X#X#X#X#X#X#X#X#X#X#X#X#X#X#X#X#X#X#X#X#X#X#X#X#X#X#X#X#X#X#X#X#X#X#X#X#X#X#XAX#X#XAX).#XVX#XVX#X#X#X#X#X#X#X#X#X#XAX#X#X#X#X#XAX).#XVXAX#X#X#XAX#X#X#XVX#XVXAX@XAX#X#XAXVX).@X@XVX#X#X#X#X#X#X#X#X#XAX@X@X#X).#X#X#X#X#X).#XAX#X#XAX#X#X#X).VX).@X).VXAX#XVXAX#X#XAX@XAX#X#XVXAXAX).#X#XAXVX).VX@X@X@X@X@X@X@X@X).#X@XAX#X).VX).@X#X).#XVXAX).@X@XVXAX#X#X#X#X#X).@X@XAX#X#X#XAX#XAX#X#X#X#X#X#X#X#X#XAX#XVX#X#X#X#XAX#X#X#XAX#XVX#XVX#X#X#X#XAX@X#XAX@XAX#X).VX#XAX#X).VX#X@X+X@X@X@X@X@X@X@X@X@XVX).@X@X@XVX).#X).#X).#X@XAX#X).@X#X).#X).#XVXAXAX).VXAX#XAX#X#X#XAX@X@X@XAXAX#X).AX#X#X#X#X#X#X#X#XAX#X#XVX#X#X#X#X#X#X#XAX#X#X#X#X#X#X#X#X#X#X#X#X#X#X#X#X).#X).@X#X#X#X#X).).#X).#X@X).@X).#X@XVX).@X@X@X@X+X+XVX).#XAXAX).VX).#XVX).#XVX#X).#XVX).AX#XAX).#X).@XVXAX@X@X#X).VX#XAX#X#X#X#X#X#X#X#X#X#X@X).AX).#X@XAXAX#X#X#X#X#X#X#X#X#X#X#X#X#X#X#X#X#X#X#X#X#X#X#X#X#X#X#X#X#X#X#X#X#X#X#X).#X#X@XVXAXAXAXVX).#X#X#X#X#X#X#X#X#X#X#X#X#X#X#X#X#X#X#X#X#X#XAX#X#XVX).#X#X#X#X#XAX#X#X#X#X#X#X#X#X#X#X#X#X#X#X#X#X#X#X#X#X#X#X#X#X#X#X#X#X#X#X#X#X#X#X#X#X#X#X#X#X#X#X#X#X#X#X#X#X#X#X#X#X#X",
"#X#X#X#X#X#X#X#X#X#X#X#X#X#X#X#X#X#X#X#X#X#X#X#X#X#X#X#X#X#X#X#X#X#X#X#X#X#X#X#X#X#X#X#X#X#X#X#X#X#X#X#X#X#X#X#X#X#X#X#X#X#X#X#X#X#X#X#X#X#X#X#X#X#X#X#X#X#X#X#X#X#X#X#X#X#X#X#X#X#X#X#X#X#X#X#X#X#X#X#X#X#X#X#X#X#X#X#X#X#X#X#X#X#X#X#X#X#X#X#X#X#X#X#X#X#X#X#X#X#X#X#X#X#X#X#X#X#X#X#X#X#X#X#X#X#X#X#X#X#X#X#X#X#X#X#X#X#X#X#X#X#X#X#X#X#X#X#X#X#X#X#X#X#X#X#X#X#X#X#X#X#X#X#X#X#X#X#X#X#X#X#X#X#X#X#X#X#X#X#X#X#X#X#X#X#X#X#X#X#X#X#X#X#X#X#X#X#X#X#X#X#X#X#X#X#X#X#X#X#X#X#X#X#X#X#X#X#X#X#X#X#X#X#X#X#X#X#X#X#X#X#X#X#X#X#X#X#X#X#X#X#X#X#X#X#X#X#X#X#X#X#X#X#X#X#X#X#X#X#X#X#X#X#X#X#X#X#X#X#X#X#X#X#X#X#X#X#X#X#X_.#X#X#X#X#X#X#X#X#X#X#X#X#X#X#X#X#X#X#X#X#X#X#X#X#X#X#X#X#X#X#X#X#X#X#X#X#X#X#X#X#X#X#X#X#X#X#X#X#X#X#X#X#X#X#X#X#X#X#X#X#X#X#X#X#X#X#X#X#X#X#X#X#X#X#X#X#X#X#X#X#X#X#X#X#X#X#X#X#X#X#X#X#X#X#X#X#X#X#X#X#X#X#X#X#X#X#X#X#X#X#X#X#X#X#X#X#X#X#X#X#X#X#X#X#X#X#X#X#X#X#X#X#X#X#X#X#X#X#X#X#X#X#X#X#X#X#X#X#X#X#X#X#X#X#X#X#X#X#X#X#X#X#X#X#X#X#X#X#X#X#X#X#X#X#X#X#X#X#X#X#X#X#X#X#X#X#X#X#X#X#X#X#X#X#X#X#X#X#X#X#X#X#X#X#X#X#X#X#X#X#X#X#X#X#X#X#X#X#X#X#X#X#X#X#X#X#X#X#X#X#X#X#X#X#X#X#X#X#X#X#X#X#X#X#X#X#X#X#X#X#X#X#X#X#X#X#X#X#X#X#X#X#X#X#X#X#X#X#X#X#X#X#X#X#X#X#X#X#X#X#X#X#X#X#X#X#X#X#X#X#X#X#X#X#X#X#X",
"#X#X#X#X#X#X#X#X#X#X#X#X#X#X#X#X#X#X#X#X#X#X#X#X#X#X#X#X#X#X#X#X#X#X#X#X#X#X#X#X#X#X#X#X#X#X#X#X#X#X#X#X#X#X#X#X#X#X#X#X#X#X#X#X#X#X#X#X#X#X#X#X#X#X#X#X#X#X#X#X#X#X#X#X#X#X#X#X#X#X#X#X#X#X#X#X#X#X#X#X#X#X#X#X#X#X#X#X#X#X#X#X#X#X#X#X#X#X#X#X#X#X#X#X#X#X#X#X#X#X#X#X#X#X#X#X#X#X#X#X#X#X#X#X#X#X#X#X#X#X#X#X#X#X#X#X#X#X#X#X#X#X#X#X#X#X#X#X#X#X#X#X#X#X#X#X#X#X#X#X#X#X#X#X#X#X#X#X#X#X#X#X#X#X#X#X#X#X#X#X#X#X#X#X#X#X#X#X#X#X#X#X#X#X#X#X#X#X#X#X#X#X#X#X#X#X#X#X#X#X#X#X#X#X#X#X#X#X#X#X#X#X#X#X% #X#X#X#X#X#X#X#X#X#X#X#X#X#X#X#X#X#X#X#X#X#X#X#X#X#X#X#X#X#X#X#X#X#X#X#X#X#X#X#X#X#X#X#X#X#X#X#X#X#X#X#X#X#X#X#X#X#X#X#X#X#X#X#X#X#X#X#X#X#X#X#X#X#X#X#X#X#X#X#X#X#X#X#X#X#X#X#X#X#X#X#X#X#X#X#X#X#X#X#X#X#X#X#X#X#X#X#X#X#X#X#X#X#X#X#X#X#X#X#X#X#X#X#X#X#X#X#X#X#X#X#X#X#X#X#X#X#X#X#X#X#X#X#X#X#X#X#X#X#X#X#X#X#X#X#X#X#X#X#X#X#X#X#X#X#X#X#X#X#X#X#X#X#X#X#X#X#X#X#X#X#X#X#X#X#X#X#X#X#X#X#X#X#X#X#X#X#X#X#X#X#X#X#X#X#X#X#X#X#X#X#X#X#X#X#X#X#X#X#X#X#X#X#X#X#X#X#X#X#X#X#X#X#X#X#X#X#X#X#X#X#X#X#X#X#X#X#X#X#X#X#X#X#X#X#X#X#X#X#X#X#X#X#X#X#X#X#X#X#X#X#X#X#X#X#X#X#X#X#X#X#X#X#X#X#X#X#X#X#X#X#X#X#X#X#X#X#X#X#X#X% #X#X#X#X#X#X#X#X#X#X#X#X#X#X#X#X#X#X#X#X#X#X#X#X#X#X#X#X#X#X#X#X#X#X#X#X#X#X#X#X#X#X#X#X#X#X#X#X#X#X#X",
"#X#X#X#X#X#X#X#X#X#X#X#X#X#X#X#X#X#X#X#X#X#X#X#X#X#X#X#X#X#X#X#X#X#X#X#X#X#X#X#X#X#X#X#X#X#X#X#X#X#X#X#X#X#X#X#X#X#X#X#X#X#X#X#X#X#X#X#X#X#X#X#X#X#X#X#X#X#X#X#X#X#X#X#X#X#X#X#X#X#X#X#X#X#X#X#X#X#X#X#X#X#X#X#X#X#X#X#X#X#X% #X#X#X#X#X#X#X#X#X#X#X#X#X#X#X#X#X#X#X#X#X#X#X#X#X#X#X#X#X#X#X#X#X#X#X#X#X#X#X#X#X#X#X#X#X#X#X#X#X% #X#X#X#X#X#X#X#X#X#X#X#X#X#X#X#X#X#X#X#X#X#X#X#X#X% #X#X#X#X#X#X#X#X#X#X#X% #X#X#X#X#X#X#X#X#X#X#X#X#X#X#X#X#X#X#X#X#X#X#X#X#X#X#X#X#X#X#X#X#X#X#X#X#X#X#X#X#X#X#X#X#X#X#X#X#X#X#X#X#X#X#X#X#X#X#X#X#X#X#X#X#X#X#X#X#X#X#X#X#X#X#X#X#X#X#X#X#X#X#X#X#X#X#X#X#X#X#X#X#X#X#X#X#X#X#X#X#X#X#X#X#X#X#X#X#X#X#X#X#X#X#X#X#X#X#X#X#X#X#X#X#X#X#X#X#X#X#X#X#X#X#X#X#X#X#X#X#X#X#X% #X#X#X#X#X#X#X#X#X#X#X#X#X#X#X#X#X#X#X#X#X#X#X#X#X#X#X#X#X#X#X#X#X#X#X#X#X#X#X#X#X#X#X#X#X% #X#X#X#X#X% #X#X#X#X#X#X#X#X#X#X#X#X#X#X#X#X#X#X#X#X#X#X#X#X#X#X#X#X#X#X#X#X#X#X#X#X#X#X#X#X#X#X#X#X#X#X#X#X#X#X#X#X#X#X#X#X% #X#X#X#X#X#X#X#X#X#X#X#X#X#X#X#X#X#X#X#X#X#X#X#X#X#X#X#X#X#X#X#X#X#X#X#X#X#X#X#X#X#X#X#X#X#X#X#X#X#X#X#X#X#X#X#X#X#X#X#X#X#X#X#X#X#X#X#X#X#X#X#X#X#X#X#X#X#X#X#X#X#X#X#X#X#X#X#X#X#X#X#X#X#X#X#X#X#X#X#X#X#X#X#X#X#X#X#X#X#X#X#X#X#X#X#X#X#X#X#X#X#X#X#X#X#X#X#X#X#X#X#X#X#X#X#X#X#X#X#X#X#X#X#X#X#X",
"#X#X#X#X#X#X#X#X#X#X#X#X#X#X#X#X#X#X#X#X#X#X#X#X#X#X#X#X#X#X#X#X#X#X#X#X#X#X#X#X#X#X#X#X#X#X#X#X#X#X#X#X#X#X#X#X#X#X#X#X#X#X#X#X#X#X#X#X#X#X#X#X#X#X#X#X#X#X#X#X#X#X#X#X#X#X#X#X#X#X#X#X#X#X#X#X#X#X#X#X#X#X#X#X#X#X#X#X#X#X#X#X#X#X#X#X#X#X#X#X#X#X#X#X#X#X#X#X#X#X#X#X#X#X#X#X#X#X#X#X#X#X#X#X#X#X#X#X#X#X#X#X#X#X#X#X#X#X#X#X#X#X#X#X#X#X#X#X#X#X#X#X#X#X#X#X#X#X#X#X#X#X#X#X#X#X#X#X#X#X#X#X#X#X#X#X#X#X#X#X#X#X#X#X#X#X#X#X#X#X#X#X#X#X#X#X#X#X#X#X#X#X#X#X#X#X#X#X#X#X#X#X#X#X#X#X#X#X#X#X#X% #X#X#X#X#X#X#X#X#X#X#X#X#X#X#X#X#X#X#X#X#X#X#X#X#X#X#X#X#X#X#X#X#X#X#X#X#X#X#X#X#X#X#X#X#X#X#X#X#X#X#X#X#X#X#X#X#X#X#X#X#X#X#X#X#X#X#X#X#X#X#X#X#X#X#X#X#X#X#X#X#X#X#X#X#X#X#X#X#X#X#X#X#X#X#X#X#X#X#X#X#X#X#X#X#X#X#X#X#X#X#X#X#X#X#X#X#X#X#X#X#X#X#X#X#X#X#X#X#X#X#X#X#X#X#X#X#X#X#X#X#X#X#X#X#X#X#X#X#X#X#X#X#X#X#X#X#X#X#X#X#X#X#X#X#X#X#X#X#X#X#X#X#X#X#X#X#X#X#X#X#X#X#X#X#X#X#X#X#X#X#X#X#X#X#X#X#X#X#X#X#X#X#X#X#X#X#X#X#X#X#X#X#X#X#X#X#X#X#X#X#X#X#X#X#X#X#X#X#X#X#X#X#X#X#X#X#X#X#X#X#X#X#X#X#X#X#X#X#X#X#X#X#X#X#X#X#X#X#X#X#X#X#X#X#X#X#X#X#X#X#X#X#X#X#X#X#X#X#X#X#X#X#X#X#X#X#X#X#X#X#X#X#X#X#X#X#X#X#X#X#X#X#X#X#X#X#X#X#X#X#X#X#X#X#X#X#X#X#X#X#X#X#X#X#X#X#X#X#X#X#X#X#X#X#X#X#X#X#X#X#X#X#X#X#X#X#X#X#X#X#X#X#X#X#X#X",
"#X#X#X#X#X#X#X#X#X#X#X#X#X#X#X#X#X#X#X#X#X#X#X#X#X#X#X#X#X#X#X#X#X#X#X#X#X#X#X#X#X#X#X#X#X#X#X#X#X#X#X#X#X#X#X#X#X#X#X#X#X#X#X#X#X#X#X#X#X#X#X#X#X#X#X#X#X#X#X#X#X#X#X#X#X#X#X#X#X#X#X#X#X#X#X#X#X#X#X#X#X#X#X#X#X#X#X#X#X#X#X#X#X#X#X#X#X#X#X#X#X#X#X#X#X#X#X#X#X#X#X#X#X#X#X#X#X#X#X#X#X#X#X#X#X#X#X#X#X#X% #X#X#X#X#X#X#X#X#X#X#X#X#X#X#X#X#X#X#X#X#X#X#X#X#X#X#X#X#X#X#X#X#X#X#X#X#X#X#X#X#X#X#X#X#X#X#X#X#X#X#X#X#X#X#X#X#X#X#X#X#X#X#X#X#X#X#X% #X#X#X#X#X#X#X#X#X#X#X#X#X#X#X#X#X#X#X#X#X#X#X#X#X#X#X#X#X#X#X#X#X#X#X#X#X#X#X#X#X#X#X#X#X#X#X#X#X#X#X#X#X#X#X#X#X#X#X#X#X#X#X% #X#X#X#X#X#X#X#X#X#X#X#X#X#X#X#X#X#X#X#X#X#X#X#X#X#X#X#X#X#X#X#X#X#X#X#X#X#X#X#X#X#X#X#X#X#X#X#X#X#X#X#X#X#X#X#X#X#X#X#X#X#X#X#X#X#X#X#X#X#X#X#X#X#X#X#X#X#X#X#X#X#X#X#X#X#X#X#X#X#X#X#X#X#X#X#X#X#X#X#X#X#X#X#X#X#X#X#X#X#X#X#X#X#X#X#X#X#X#X#X#X#X#X#X#X#X#X#X#X#X#X#X#X#X#X#X#X#X#X#X#X#X#X#X#X#X#X#X#X#X#X#X#X#X#X#X#X#X#X#X#X#X#X#X#X#X#X#X#X#X#X#X#X#X#X#X#X#X#X#X#X#X#X#X#X#X#X#X#X#X#X#X#X#X#X#X#X#X#X#X#X#X#X#X#X#X#X#X#X#X#X#X#X#X#X#X#X#X#X#X#X#X#X#X#X#X#X#X#X#X#X#X#X#X#X#X#X#X#X#X#X#X#X#X#X#X#X#X#X#X#X#X#X#X#X#X#X#X#X% #X#X#X#X#X#X#X#X#X#X#X#X#X#X#X#X#X#X#X#X#X#X#X#X#X#X#X#X#X#X#X#X#X#X#X#X#X#X#X#X#X#X#X#X#X#X#X#X#X#X#X#X#X#X#X",
"#X#X#X#X#X#X#X#X#X#X#X#X#X#X#X#X#X#X#X#X#X#X#X#X#X#X#X#X#X#X#X#X#X#X#X#X#X#X#X#X#X#X#X#X#X#X#X#X#X#X#X#X#X#X#X#X#X#X#X#X#X#X#X#X#X#X#X#X#X#X#X#X#X#X#X#X#X#X#X#X#X#X#X#X#X#X#X#X#X#X#X#X#X#X#X#X#X#X#X#X#X#X#X#X#X#X#X#X#X#X#X#X#X#X#X#X#X#X#X#X#X#X#X#X#X#X#X#X#X#X#X#X#X#X#X#X#X#X#X#X#X#X#X#X#X#X#X#X#X#X#X#X#X#X#X#X#X#X#X#X#X#X#X#X#X#X#X#X#X#X#X#X#X#X#X#X#X#X#X#X#X#X#X#X% #X#X#X#X#X#X#X#X#X#X#X#X#X#X#X#X#X#X#X#X#X#X#X#X#X#X#X#X#X#X#X#X#X#X#X#X#X#X#X#X#X#X#X#X#X#X#X#X#X#X#X#X#X#X#X#X#X#X#X#X#X#X#X#X#X#X#X#X#X#X#X#X#X#X#X#X#X#X#X#X#X#X#X#X#X#X#X#X#X#X#X#X#X#X#X#X#X#X#X#X#X#X#X#X#X#X#X#X#X#X#X#X#X#X#X#X#X#X#X#X#X#X#X#X#X#X#X#X#X#X#X#X#X#X#X#X#X#X#X#X#X#X#X#X#X#X#X#X#X#X#X#X#X#X#X#X#X#X#X#X#X#X#X#X#X#X#X#X#X#X#X#X#X#X#X#X#X#X#X#X#X#X#X#X#X#X#X#X#X#X#X#X#X#X#X#X#X#X#X#X#X% #X#X#X#X#X#X#X#X% #X#X#X#X#X#X#X#X#X#X#X#X#X#X#X#X#X#X#X#X#X#X#X#X#X#X#X#X#X#X#X#X#X#X#X#X#X#X#X#X#X#X#X#X#X#X#X#X#X#X#X#X#X#X#X#X#X#X#X#X#X#X#X#X#X#X#X#X#X#X#X#X#X#X#X#X#X#X#X#X#X#X#X#X#X#X#X#X#X#X#X#X#X#X#X#X#X#X#X#X#X#X#X#X#X#X#X#X#X#X#X#X#X#X#X#X#X#X#X#X#X#X#X#X#X#X#X#X#X#X#X#X#X#X#X#X#X#X#X#X#X#X#X#X#X#X#X#X#X#X#X#X#X#X#X#X#X#X#X#X#X#X#X#X#X#X#X#X#X#X#X#X#X#X#X#X#X#X#X#X#X#X#X#X#X#X#X#X#X#X#X#X#X#X#X#X#X#X#X#X#X#X",
"#X#X#X#X#X#X#X#X#X#X#X#X#X#X#X#X#X#X#X#X#X#X#X#X#X#X#X#X#X#X#X#X#X#X#X#X#X#X#X#X#X#X#X#X#X#X#X#X#X#X#X#X#X#X#X#X#X#X#X#X#X#X#X#X#X#X#X#X#X#X#X#X#X#X#X#X#X#X#X#X#X#X#X#X#X#X#X#X#X#X#X#X#X#X#X#X#X#X#X#X#X#X#X#X#X#X#X#X#X#X#X#X#X#X#X#X#X#X% #X#X#X#X#X#X#X#X#X#X#X#X#X#X#X#X#X#X#X#X#X#X#X#X#X#X#X#X#X#X#X#X#X#X#X#X#X#X#X#X#X#X#X% #X#X#X#X#X#X#X#X#X#X#X#X#X#X#X#X#X#X#X#X#X#X#X#X#X#X#X#X#X#X#X#X#X#X#X#X#X#X#X#X% #X#X#X#X#X#X#X#X#X#X#X#X#X#X#X#X#X#X#X#X#X#X#X#X#X#X#X#X#X#X#X#X#X#X#X#X#X#X#X#X#X#X#X#X#X#X#X% #X#X#X#X#X#X#X#X#X#X#X#X#X#X#X#X#X#X#X#X#X#X#X#X#X#X#X#X#X#X#X#X#X#X#X#X#X#X#X#X#X#X#X#X#X#X#X#X#X#X#X#X#X#X#X#X#X#X#X#X#X#X#X#X#X#X#X#X#X#X#X#X#X#X#X#X#X#X#X#X#X#X#X#X#X#X#X#X#X#X#X#X#X#X#X#X#X#X#X#X#X#X% #X#X#X#X#X#X#X#X#X#X#X#X#X#X#X#X#X#X#X#X#X#X#X#X#X#X#X#X#X#X#X#X#X#X#X#X#X#X#X#X#X#X#X#X#X#X#X#X#X#X#X#X#X#X#X#X#X#X#X#X#X#X#X#X#X#X#X#X#X#X#X#X#X#X#X#X#X#X#X#X#X#X#X#X#X#X#X#X#X#X#X#X#X#X#X#X#X#X#X#X% #X#X#X#X#X#X#X#X#X#X#X#X#X#X#X#X#X#X#X#X#X#X#X#X#X#X#X#X#X#X#X#X#X#X#X#X#X#X#X#X#X#X#X#X#X#X#X#X#X#X#X#X#X#X#X#X#X#X#X#X#X#X#X#X#X#X#X#X#X#X#X#X#X#X#X#X#X#X#X#X#X#X#X#X#X#X#X#X#X#X#X#X#X#X#X#X#X#X#X#X#X#X#X#X#X#X#X#X#X#X#X#X#X#X#X#X#X#X#X#X#X#X#X#X#X#X#X#X#X#X#X#X#X#X#X#X#X#X#X#X#X#X",
"#X#X#X#X#X#X#X#X#X#X#X#X#X#X#X#X#X#X#X#X#X#X#X#X#X#X#X#X#X#X#X#X#X#X#X#X#X#X#X#X#X#X#X#X#X#X#X#X#X#X#X#X#X#X#X#X#X#X#X#X#X#X#X#X#X#X#X#X#X#X#X#X#X#X#X#X#X#X#X#X#X#X#X#X#X#X#X#X#X#X#X#X#X#X#X#X#X#X#X#X#X#X#X#X#X#X#X#X#X#X#X#X#X#X#X#X#X#X#X#X#X#X#X#X#X#X#X#X#X#X#X#X#X#X#X#X#X#X#X#X#X#X#X#X#X#X#X#X#X#X#X#X#X#X#X#X#X#X#X#X#X#X#X#X#X#X#X#X#X#X#X#X#X#X#X#X#X#X#X#X#X#X#X#X#X#X#X#X#X#X#X#X#X#X#X#X#X#X#X#X#X#X#X#X#X#X#X#X#X#X#X#X#X#X#X#X#X#X#X#X#X#X#X#X#X#X#X#X#X#X#X#X#X#X#X#X#X#X#X#X#X#X#X#X#X#X#X#X#X#X#X#X#X#X#X#X#X#X#X#X#X#X#X#X#X#X#X#X#X#X#X#X#X#X#X#X#X#X#X#X#X#X#X#X#X#X#X#X#X#X#X#X#X#X#X#X#X#X#X#X#X#X#X#X#X#X#X#X#X#X#X#X#X#X#X#X#X#X#X#X#X#X#X#X#X#X#X#X#X#X#X#X#X#X#X#X#X#X#X#X#X#X#X#X#X#X#X#X#X#X#X#X#X#X#X#X#X#X#X#X#X#X#X#X#X#X#X#X#X#X#X#X#X#X#X#X#X#X#X#X#X#X#X#X#X#X#X#X#X#X#X#X#X#X#X#X#X#X#X#X#X#X#X#X#X#X#X#X#X#X#X#X#X#X#X#X#X#X#X#X#X#X#X#X#X#X#X#X#X#X#X#X#X#X#X#X#X#X#X#X#X#X#X#X#X#X#X#X#X#X#X#X#X#X#X#X#X#X#X#X#X#X#X#X#X#X#X#X#X#X#X#X#X#X#X#X#X#X#X#X#X#X#X#X#X#X#X#X#X#X#X#X#X#X#X#X#X#X#X#X#X#X#X#X#X#X#X#X#X#X#X#X#X#X#X#X#X#X#X#X#X#X#X#X#X#X#X#X#X#X#X#X#X#X#X#X#X#X#X#X#X#X#X#X#X#X#X#X#X#X#X#X#X#X#X#X#X#X#X#X#X#X#X#X#X#X#X#X#X#X#X#X#X#X#X#X#X#X#X#X#X#X#X#X#X#X#X#X#X#X#X#X#X#X#X#X#X#X",
"#X#X#X#X#XSX+X. @XSX#X#X#X#X#X#X#X#XAX#X#X#X#XAX#X#X#X#X#X#X#X#X#X#X#X#X#X#X#X#X#X#X#X#XSX+X. AXmXSX@X. ZXSX#X#X#X#X#X#X#X#X#X#X#X#X#X#XSX@X. CXSXVX. . SX#X#X#X#X#X#X#X#X#X#X#X#X#X#X#X#X#X#X#X#X#X#X#X#X#X#X#X#X#X#X#X#X#X#X#X#X#X#X#X#X#X#X#X#X#X#X#X#X#X#X#X#X#X#X#X#X#X#X#XSX. . SX#X#XAX#X#XSX. . AXSX#X#X#X#X#X#X#X#X#X#X#X#X#X#X#X#X#X#X#X#X#X#XSXCX. @XSX#X#X#X% #X#X#X#X#X#X#X#X#X#X#X#X#X#X#X#X#X#X#X#X#X#X#X#X#X#X% #X#X_.ZX. BXSX#X#X#X#X#X#X#X#X#X#X#X#X#X#X#X#X#X#X#X#X#X#X#X#X#X#X#X#X#X#X#X#X#X#X#X#X#X#X#X#X#X#X#X#X#X#X#X#X#X#X#X#X#X#X#X#X#X#X#X#X#X#X#X#X#X% #X#X#X#X#X#X#X#X#X#X#X#X#X#X#X#X#X#X#X#X#X#X#X#X#X#X#X#X#X#X#X#X#X#X#X#X#X#X#X#X#X#X#X#X#X#X#X#X#X#X#X#X#X#X#X#X#X#X#X#X#X#X#X#X#X#X#X#X#X#X#X#X#X#X#X#X#X#X#X#X#X#X#X#X#X#X#X#X#X#X#X#X#X#X#X#X#X#X#X#X#X#X% #X#X#X#X#X#X#X#X#X#X#X#X#X#X#X#X#X#X#X#X#X#X#X#X#X#X#X#X#X#X#X#X#X#X#X#X#X#X#X#X#X#X#X#X#X#X#X#X#X#X#X#X#X#X#X#X#X#X#X#X#X#X#X#X#X#X#X#X#X#X#X#X#X#X#X#X#X#X#X#X#X#X#X#X#X#X#X#X#X#X#X#X#X#X#X#X#X#X#X#X#X#X#X#X#X#X#X#X#X#X#X#X#X#X#X#X#X#X#X#X#X#X#X#X#X#X#X#X#X#X#X#X#X#X#X#X#X#X#X#X#X#X#X#X#X#X#X#X#X#X#X#X#X#X#X#X% #X#X#X#X#X#X#X#X#X#X#X#X#X#X#X#X#X#X#X#X#X#X#X#X#X#X#X#X#X#X#X#X#X#X#X#X#X#X#X#X#X#X#X#X#X#X#X#X#X#X#X#X#X#X#X#X#X",
"#X#X#X#X#XZXu [.XXZX#X#X#X#X#X#XSX. . #XmX_.CX. AXSX#X#X#X#X#X#X#X#X#X#X#X#X#X#X#X#X#X#XZXGX[.HX+XZX_.[.1 ZX#X#X#X#X#X#X#X#X#X#X#X#X#X#XZXOX[.;XZXOXh y ZX#X#X#X#X#X#X#X#X#X#X#X#X#X#X#X#X#X#X#X#X#X#X#X#X#X#X#X#X#X#X#X#X#X#X#X#X#X#X#X#X#X#X#X#X#X#X#X#X#X#X#X#X#X#X#X#X#X#XAX+X[.l ZX#X+X. @X#XZXy [.DXZX#X#X#X#X#X#X#X#X#X#X#X#X#X#X#X#X#X#X#X#X#X#X@X1 [.FXZX#X#X#X#X#X#X#X#X#X#X#X#X#X#X#X#X#X#X#X#X#X#X#X#X#X#X#X#X#X#X#X#X#XZXoXh oXZX#X#X#X#X#X#X#X#X#X#X#X#X#X#X#X#X#X#X#X#X#X#X#X#X#X#X#X#X#X#X#X#X#X#X#X#X#X#X#X#X#X#X#X#X#X#X#X#X#X#X#X#X#X#X#X#X#X#X#X#X#X#X#X#X#X#X#X#X#X#X#X#X#X#X#X#X#X#X#X#X#X#X#X#X#X#X#X#X#X#X#X#X#X#X#X#X#X#X#X#X#X#X#X#X#X#X#X#X#X#X#X#X#X#X#X#X#X#X#X#X#X#X#X#X#X#X#X#X#X#X#X#X#X#X#X#X#X#X#X#X#X#X#X#X#X#X#X#X#X#X#X#X#X#X#X#X#X#X#X#X#X#X#X#X#X#X#X#X#X#X#X#X#X#X#X#X#X#X#X#X#X#X#X#X#X#X#X#X#X#X#X#X#X#X#X#X#X#X#X#X#X#X#X#X#X#X#X#X#X#X#X#X#X#X#X#X#X#X#X#X#X#X#X#X#X#X#X#X#X#X#X#X#X#X#X#X#X#X#X#X#X#X#X#X#X#X#X#X#X#X#X#X#X#X#X#X#X#X#X#X#X#X#X#X#X#X#X#X#X#X#X#X#X#X#X#X#X#X#X#X#X#X#X#X#X#X#X#X#X#X#X#X#X#X#X#X#X#X#X#X#X#X#X#X#X#X#X#X#X#X#X#X#X#X#X#X#X#X#X#X#X#X#X#X#X#X#X#X#X#X#X#X#X#X#X#X#X#X#X#X#X#X#X#X#X#X#X#X#X#X#X#X#X#X#X#X#X#X#X#X#X#X#X#X#X#X#X#X#X#X#X#X#X#X#X#X#X#X#X#X#X#X#X",
"#X#X#X#X#X. [.  1 . #X#X#X#X#XAX+Xl '.$XZX+X<X'.(.BX#X#X#X#X#X#X#X#X#X#X#X#X#X#X#X#X#XSX. h   `.+X. ;X  .X. #X#X#X#X#X#X#X#X#X#X#X#X#X#X. KX  '.. oX  6X. #X#X#X#X#X#X#X#X#X#X#X#X#X#X#X#X#X#X#X#X#X#X#X#X#X#X#X#X#X#X#X#X#X#X#X#X#X#X#X#X#X#X#X#X#X% #X#X#X#X#X#X#X#X#X#X#X#X@XCX    CXCX1 '.JX+X. 6X  OX. #X#X#X#X#X#X#X#X#X#X#X#X#X#X% #X#X#X#X#X#X#X. h   JX. #X#X#X#X#X#X#X#X#X#X#X#X#X#X#X#X#X#X#X#X#X#X#X#X#X#X#X#X#X#X#X#X#X. <X  <X. #X#X#X#X#X#X#X#X#X#X#X#X#X#X#X#X#X#X#X#X#X#X#X#X#X#X#X#X#X#X#X#X#X#X#X#X#X#X#X#X#X#X#X#X#X% #X#X#X#X#X#X#X#X#X#X#X#X#X#X#X#X#X#X#X#X#X#X#X#X#X#X#X#X#X#X#X#X#X#X#X#X#X#X#X#X#X#X#X#X#X#X#X#X#X#X#X#X#X#X#X#X#X#X#X#X#X#X#X#X#X#X#X#X#X#X#X#X#X#X#X#X#X#X#X#X#X#X#X#X#X#X#X#X#X#X#X#X#X#X#X% #X#X#X#X#X#X#X#X#X#X#X#X#X#X#X#X#X#X#X#X#X#X#X#X#X#X#X#X#X#X#X#X#X#X#X#X#X#X#X#X#X#X#X#X#X#X#X#X#X#X#X#X#X#X#X#X#X#X#X#X#X#X#X#X#X#X#X#X#X#X#X#X#X#X#X#X#X#X#X#X#X#X#X#X#X#X#X#X#X#X#X#X#X#X#X#X#X#X#X#X% #X#X#X#X#X#X#X#X#X#X#X#X#X#X#X#X#X#X#X#X#X#X#X#X#X#X#X#X#X#X#X#X#X#X#X#X#X#X#X#X#X#X#X#X#X#X#X#X#X#X#X#X#X#X#X#X#X#X#X#X#X#X#X#X#X#X#X#X#X#X#X#X#X#X#X#X#X#X#X#X#X#X#X#X#X#X#X#X#X#X#X#X#X#X#X#X#X#X#X#X#X#X#X#X#X#X#X#X#X#X#X#X#X#X#X#X#X#X#X#X#X#X#X#X#X#X#X#X#X#X#X#X#X#X#X#X#X#X#X#X",
"#X#X#X#X#X. k   .X. . . +X#XSX).. 8X  AX. . 9X  @ . _.@XVX_.BX. . VX_.#X#X#XAXAX#X#X#X@X. NX6X. #X. 6X  . . +XSX+X. #XSX#XAX. . CX#X#X#X. JX  [.. $XKXXXAX#X#X#X+XCX. BX_.mX#XSXBX+XSX@XCX. +XSX#X#X#X#X#X#XSX#XCX@X#XCX. SX#XSXZX. . +X#XSX#X#X#X_.@X. . . @X_.#X#X#XSXAXCX. . +XPXPX+X. k   .X. . '.  OX. . . BX_.mX#X#XSX#X+X. . @X_.#X#X#X_.#XBX. CX. l   HX. #X_.VX. . CXAX#X#X#X#XSX#XCX. . @XmX#X#XSX@XCX. . VX_.#X#X#X#X#X#XAXFXKXFXAX#X#XAXCX. . @XmX#X#X#X#X#X#X#X#X#X#X#X#X#X#X#X#X#X#X#X#X#X#X#X#X#X#X#X#X#X#X#X#X#X#X#X#X#X#X#X#X#X#X#X#X#X#X#X#X#X#X#X#X#X#X#X#X#X#X#X#X#X#X#X#X#X#X#X#X#X#X#X#X#X#X#X#X#X#X#X#X#X#X#X#X#X#X#X#X#X#X#X#X#X#X#X#X#X#X#X#X#X#X#X#X#X#X#X#X#X#X#X#X#X#X#X#X#X#X#X#X#X#X#X#X#X#X#X#X#X#X#X#X#X#X#X#X#X#X#X#X#X#X#X#X#X#X#X#X#X#X#X#X#X#X#X#X#X#X#X#X#X#X#X#X#X#X#X#X#X#X#X#X#X#X#X#X#X#X#X#X#X#X#X#X#X#X#X#X#X#X#X#X#X#X#X#X#X#X#X#X#X#X#X#X#X#X#X#X#X#X#X#X#X#X#X#X#X#X#X#X#X#X#X#X#X#X#X#X#X#X#X#X#X#X#X#X#X#X#X#X#X#X#X#X#X#X#X#X#X#X#X#X#X#X#X#X#X#X#X#X#X#X#X#X#X#X#X#X#X#X#X#X#X#X#X#X#X#X#X#X#X#X#X#X#X#X#X#X#X#X#X#X#X#X#X#X#X#X#X#X#X#X#X#X#X#X#X#X#X#X#X#X#X#X#X#X#X#X#X#X#X#X#X#X#X#X#X#X#X#X#X#X#X#X#X#X#X#X#X#X#X#X#X#X#X#X#X#X#X#X#X#X#X#X#X#X#X#X#X#X#X#X#X#X#X#X#X#X#X#X#X#X#X#X#X",
"#X#X#X#X#X. k   GX. HXoXDX. AX#XAX9X  OXZXZX'.  HXZX#X@X+X. SXoXHXCX. SX#X#X@X. ZXSX#X. XX  1 . +XAX  h . DX1X. `.JX#X#X. . XXoXFX. CXmX. JX  [.. @X. . SX_.@X. SXoXJX#X. @X#X#X`.DX. CX+ oX$X. #XSX#X#X#X#X#X#XDX#X. XXHXAX#X. @XJXoXSX. ZXmXSX#X. +XHXoXGXCX. mX_.mXCX. 1XXX@X. PXPXCXZXl   q ZX. '.  +X. JXoX_.. #X#XSX+X. DXoXHX+X. #X#XSX@X. _.XX1XCX<X  HX. #X. . /.oXOX. CXmX_.mXCX. FXoXHX+X. _.mX. . XXKXXXCX. SXSX#X#X#X#XSX+X. +XSXmXCX. FXoXHX+X. #XSX#X#X#X#X#X#X#X#X#X#X#X#X#X#X#X#X#X#X#X#X#X#X#X#X#X#X#X#X#X#X#X#X#X#X#X#X#X#X#X#X#X#X#X#X% #X#X#X#X#X#X#X#X#X#X#X#X#X#X#X#X#X#X#X#X#X#X#X#X#X#X#X#X#X#X#X#X#X#X#X#X#X#X#X#X#X#X#X#X#X#X#X#X#X#X#X#X#X#X#X#X#X#X#X#X#X#X#X#X#X#X#X#X#X#X#X#X#X#X#X#X#X#X#X#X#X#X#X#X#X#X#X#X#X#X#X#X#X#X#X#X#X#X#X#X#X#X#X#X#X#X#X#X#X#X#X% #X#X#X#X#X#X#X#X#X#X#X#X#X#X#X#X#X#X#X#X#X#X#X#X#X#X#X#X#X#X#X#X#X#X#X#X#X#X#X#X#X#X#X#X#X#X#X#X#X#X#X#X#X#X#X#X#X#X#X#X#X#X#X#X#X#X#X#X#X#X#X#X#X#X#X#X#X#X#X#X#X#X#X#X#X#X#X#X#X#X#X#X#X#X#X#X#X#X#X#X#X#X#X#X#X#X#X#X#X#X#X#X#X#X#X#X#X#X#X#X#X#X#X#X#X#X#X#X#X#X#X#X#X#X#X#X#X#X#X#X#X#X#X#X#X#X#X#X#X#X#X#X#X% #X#X#X#X#X#X#X#X#X#X#X#X#X#X#X#X#X#X#X#X#X#X#X#X#X#X#X#X#X#X#X#X#X#X#X#X#X#X#X#X#X#X#X#X#X#X#X#X#X#X#X#X#X#X#X#X#X#X#X#X#X#X",
"#X#X#X#X#X. k   A 6X      <X. 1X        [.9X      9X. 9X'.1       6XDX. _.$ ;X6Xy CX#X. [.  #X+X. .X  oXCX6X8XHX    1X. FX6X      '.#X. . JX  [.. GX8Xl CXZX. <X        y . @X. '.PXoXLX    IX;X. #X#X#X#X#XCX1XIXl ;X  IX. . 1 IX      <X. @X#X. .XPX      6XJX. #XCXAX'.      q 8XLX. 8X      8X. '.  u PX    IXA . #X+XCX0       LXKX. #X@X. <X      l l   HX. CXHX8X      9X$X. #X+XZX[.      8XHX. +XDX6X      8XXX. #X#X#X#X#X+X1 8X1 CXCX).h       PXKX. #X#X#X#X#X#X#X#X#X#X#X#X#X#X#X#X#X#X#X#X#X#X#X#X#X#X#X#X#X#X#X#X#X#X#X#X#X#X#X#X#X#X#X#X#X#X#X#X#X#X#X#X#X#X#X#X#X#X#X#X#X#X#X#X#X#X#X#X#X#X#X#X#X#X#X#X#X#X#X#X#X#X#X#X#X#X#X#X#X#X#X#X#X#X#X#X#X#X#X#X#X#X#X#X#X#X#X#X#X#X#X#X#X#X#X#X#X#X#X#X#X#X#X#X#X#X#X#X#X#X#X#X#X#X#X#X#X#X#X#X#X#X#X#X#X#X#X#X#X#X#X#X#X#X#X#X#X#X#X#X#X#X#X#X#X#X#X#X#X#X#X#X#X#X#X#X#X#X#X#X#X#X#X#X#X#X#X#X#X#X#X#X#X#X#X#X#X#X#X#X#X#X#X#X#X#X#X#X#X#X#X#X#X#X#X#X#X#X#X#X#X#X#X#X#X#X#X#X#X#X#X#X#X#X#X#X#X#X#X#X#X#X#X#X#X#X#X#X#X#X#X#X#X#X#X#X#X#X#X#X#X#X#X#X#X#X#X#X#X#X#X#X#X#X#X#X#X#X#X#X#X#X#X#X#X#X#X#X#X#X#X#X#X#X#X#X#X#X#X#X#X#X#X#X#X#X#X#X#X#X#X#X#X#X#X#X#X#X#X#X#X#X#X#X#X#X#X#X#X#X#X#X#X#X#X#X#X#X#X#X#X#X#X#X#X#X#X#X#X#X#X#X#X#X#X#X#X#X#X#X#X#X#X#X#X#X#X#X#X#X#X#X#X#X",
"#X#X#X#X#X. <X    8X1 ;X;   /.BX<XLX  l oX1 8X  [.u CXPX    l 1 [.  PXAX+X. 0   [.CX@X. IXLX. #X. '.  . . 6X    6Xl ZX_.UX  k 1 [.  LXZX. JX  [.. JX  9X. . h   6X1 1 8X  [.. . '.    9X1 <X    DXCX#X#X#X#XCX(.  UX  '.y . 1   IXq 1 6X  h . CXHX    y 1 l     SXCX. 6X  9Xy h   NX6X. ;X9X  '.q . h     9X1 <XUX  1XCX. '.  9Xu y     + CX. k   IXy <X      HX. FX    <X1 [.UXPX_.+XCX6X  h 1 <X    #X. LX  <X1 <X    $X+X#X#X#X#X. <XUX<X. CX8X  [.1 y     1 . #X#X#X#X#X#X#X#X#X#X#X#X#X#X#X#X#X#X#X#X#X#X#X#X#X#X#X#X#X#X#X#X#X#X#X#X#X% #X#X#X#X#X#X#X#X#X#X#X#X#X#X#X#X#X#X#X#X#X#X#X#X#X#X#X#X#X#X#X#X#X#X#X#X#X#X#X#X#X#X#X#X#X#X#X#X#X#X#X#X#X#X#X#X#X#X#X#X#X#X#X#X#X#X#X#X#X#X#X#X#X#X#X#X#X#X#X#X#X#X#X#X#X#X#X#X#X#X#X#X#X#X#X% #X#X#X#X#X#X#X#X#X#X#X#X#X#X#X#X#X#X#X#X#X#X#X#X#X#X#X#X#X#X#X#X#X#X#X#X#X#X#X#X#X#X#X#X#X#X#X#X#X#X#X#X#X#X#X#X#X#X#X#X#X#X#X#X#X#X#X#X#X#X#X#X#X#X#X#X#X#X#X#X#X#X#X#X#X#X#X#X#X#X#X#X#X#X#X#X#X#X#X#X#X#X#X#X#X#X#X#X#X#X% #X#X#X#X#X#X#X#X#X#X#X#X#X#X#X#X#X#X#X#X#X#X#X#X#X#X#X#X#X#X#X#X#X#X#X#X#X#X#X#X#X#X#X#X#X#X#X#X#X#X#X#X#X#X#X#X#X#X#X#X#X#X#X#X#X#X#X#X#X#X#X#X#X#X#X#X#X#X#X#X#X#X#X#X#X#X#X#X#X#X#X#X#X#X#X#X#X#X#X#X#X#X#X#X#X#X#X#X#X#X#X#X#X#X#X#X#X#X#X#X#X#X#X#X#X#X#X#X",
"#X#X#X#X#X. <X  6X. . . 1   0 . . '.  CX. . [.  @X. +X6X  <X. . . l   l . AXOXJXOXAX. OX  <X. @XCX  '.. . '.  h . . . '.  oX. . . <X  <X. JX  [.. HX  h . XX  8X. . . . LX  1X. [.  h . . . l   ;XCX#X#X#X#XCX1XUX  1 . . #X  IX+X. . . 6X  OX. k   HXCX. . <X  KX. ;X  [.. . . <X  6XCX. q   XX. . [.  h . . . l   ;X. u   [.. . . `.  8X. $X  LXBX. . 1X    XX. 6X  JX. . . y   h . 1   '.CX. . ;X  <X$X  k . . . ;XPXKX. #X#X#X#X. ;X  ;XCXy   [.. . . DX  |.+X@X#X#X#X#X#X#X#X#X#X#X#X#X#X#X#X#X#X#X#X#X#X#X#X#X#X#X#X#X#X#X#X#X#X#X#X#X#X#X#X#X#X#X#X#X#X#X#X#X#X#X#X#X#X#X#X#X#X#X#X#X#X#X#X#X#X#X#X#X#X#X#X#X#X#X#X#X#X#X#X#X#X#X#X#X#X#X#X#X#X#X#X#X#X#X#X#X#X#X#X#X#X#X#X#X#X#X#X#X#X#X#X#X#X#X#X#X#X#X#X#X#X#X#X#X#X#X#X#X#X#X#X#X#X#X#X#X#X#X#X#X#X#X#X#X#X#X#X#X#X#X#X#X#X#X#X#X#X#X#X#X#X#X#X#X#X#X#X#X#X#X#X#X#X#X#X#X#X#X#X#X#X#X#X#X#X#X#X#X#X#X#X#X#X#X#X#X#X#X#X#X#X#X#X#X#X#X#X#X#X#X#X#X#X#X#X#X#X#X#X#X#X#X#X#X#X#X#X#X#X#X#X#X#X#X#X#X#X#X#X#X#X#X#X#X#X#X#X#X#X#X#X#X#X#X#X#X#X#X#X#X#X#X#X#X#X#X#X#X#X#X#X#X#X#X#X#X#X#X#X#X#X#X#X#X#X#X#X#X#X#X#X#X#X#X#X#X#X#X#X#X#X#X#X#X#X#X#X#X#X#X#X#X#X#X#X#X#X#X#X#X#X#X#X#X#X#X#X#X#X#X#X#X#X#X#X#X#X#X#X#X#X#X#X#X#X#X#X#X#X#X#X#X#X#X#X#X#X#X#X#X#X#X#X#X#X#X#X#X#X#X#X#X",
"#X#X#X#X#X. k   u . _.. HX  [.. CX9X  DXCX. '.  GX. +XLX  @X+X#X. $X  8X. #X+X. +X$X. <X  `.CX. oX  KX. . 6X  #X. +XSX  8X. CX@X. AX  6X. HX  [.. HX  '.. l   u . _.mX. y   y . '.  OX. #X. 1   <X. #X#X#X#XCXFX  8X. @X. .X  l . @X@X. 1   y . 1XCX. . #X5 '.  JX. 8X  #X. #X+X. UXLX+X. <X  u . . '.  OX. #X. 1   <X. 9X  SX. @X+X. 6X  . ;X  ;X. _.#XCX[.  1XZX  6X. ).#X+X@X  PX. '.  /.. #XZXAX<XJX(.  IXq SX. . . $XSX#X#X#X#X. y   q . 6X  $X. #X#X. 9X  XX. #X#X#X#X#X#X#X#X#X#X#X#X#X#X#X#X#X#X#X#X#X#X#X#X#X#X#X#X#X#X#X#X#X#X#X#X#X#X#X#X#X% #X#X#X#X#X#X#X#X#X#X#X#X#X#X#X#X#X#X#X#X#X#X#X#X#X#X#X#X#X#X#X#X#X#X#X#X#X#X#X#X#X#X#X#X#X#X#X#X#X#X#X#X#X#X#X#X#X#X#X#X#X#X#X#X#X#X#X#X#X#X#X#X#X#X#X#X#X#X#X#X#X#X#X#X#X#X#X#X#X#X#X#X#X#X#X#X#X#X#X#X#X#X#X#X#X#X#X#X#X#X#X% #X#X#X#X#X#X#X#X#X#X#X#X#X#X#X#X#X#X#X#X#X#X#X#X#X#X#X#X#X#X#X#X#X#X#X#X#X#X#X#X#X#X#X#X#X#X#X#X#X#X#X#X#X#X#X#X#X#X#X#X#X#X#X#X#X#X#X#X#X#X#X#X#X#X#X#X#X#X#X#X#X#X#X#X#X#X#X#X#X#X#X#X#X#X#X#X#X#X#X#X#X#X#X#X#X#X#X#X#X#X#X#X#X#X#X#X#X#X#X#X#X#X#X#X#X#X#X#X#X#X#X#X#X#X#X#X#X#X#X#X#X#X#X#X#X#X#X#X#X#X#X#X% #X#X#X#X#X#X#X#X#X#X#X#X#X#X#X#X#X#X#X#X#X#X#X#X#X#X#X#X#X#X#X#X#X#X#X#X#X#X#X#X#X#X#X#X#X#X#X#X#X#X#X#X#X#X#X#X#X#X#X#X#X#X#X#X#X",
"#X#X#X#X#X. k   KX. #X. JX  [.. . 9X  `.+X. '.  GX. +XIXPX. @X#X+X#X  LX+X@X#X#X#X#X. LXPX. #X. '.  ZX+X. 8X  @X+X. HX  ; IXUX^.IXIX  LX. HX  [.. HX  h . '.  OX. #X#XCX.X  l . '.  (.. #X. ;X  y . #X#X#X#XCX(.  9X. #X. y   IX^.; UXIX    l . . HX'.|.        XX.   UXZXZX#X#X. LXIXCX. <X  1 . . '.  (.. #XCX;X  y . 8X  IX^.; UXIX    @Xk   JX. #X#X. <X  SXOX  l . #X#X@X+XIXUX. 6X  $XCX#XSX@X. . +X<X      8X<XDX. #X#X#X#X#X. ;X  ;X. UXIXCX@X#X#X. l   KX. #X#X#X#X#X#X#X#X#X#X#X#X#X#X#X#X#X#X#X#X#X#X#X#X#X#X#X#X#X#X#X#X#X#X#X#X#X#X#X#X#X#X#X#X#X#X#X#X#X#X#X#X#X#X#X#X#X#X#X#X#X#X#X#X#X#X#X#X#X#X#X#X#X#X#X#X#X#X#X#X#X#X#X#X#X#X#X#X#X#X#X#X#X#X#X#X#X#X#X#X#X#X#X#X#X#X#X#X#X#X#X#X#X#X#X#X#X#X#X#X#X#X#X#X#X#X#X#X#X#X#X#X#X#X#X#X#X#X#X#X#X#X#X#X#X#X#X#X#X#X#X#X#X#X#X#X#X#X#X#X#X#X#X#X#X#X#X#X#X#X#X#X#X#X#X#X#X#X#X#X#X#X#X#X#X#X#X#X#X#X#X#X#X#X#X#X#X#X#X#X#X#X#X#X#X#X#X#X#X#X#X#X#X#X#X#X#X#X#X#X#X#X#X#X#X#X#X#X#X#X#X#X#X#X#X#X#X#X#X#X#X#X#X#X#X#X#X#X#X#X#X#X#X#X#X#X#X#X#X#X#X#X#X#X#X#X#X#X#X#X#X#X#X#X#X#X#X#X#X#X#X#X#X#X#X#X#X#X#X#X#X#X#X#X#X#X#X#X#X#X#X#X#X#X#X#X#X#X#X#X#X#X#X#X#X#X#X#X#X#X#X#X#X#X#X#X#X#X#X#X#X#X#X#X#X#X#X#X#X#X#X#X#X#X#X#X#X#X#X#X#X#X#X#X#X#X#X#X#X#X#X#X#X#X#X#X#X#X#X#X#X#X",
"#X#X#X#X#X. k   KX. #X. JX  [.CX. 9X  DXCX. '.  GX. +XIXLX. AX#X+XSX  LXCX@X#X#X#XCX$X  <X. @XCX  6X. ).. 6X  #XZX. JX  8Xl [.[.[.l 1 .X. HX  [.. HX  h . 9X  (.. #X#X. 1   <X. '.  (.CX#X. q   <X. #X#X#X#XCX1X  9X. AX. <X  9Xl [.[.[.<X1 HXCXy     9X[.KXl   XX.   UXZX].#XAX. LXPX+X. k   .XCX. '.  (.CX#X. y   ;X. 8X  0 l [.[.[.;X1 ZX[.  HX. #X#X. <X  SXXX  l . #X#XZX@XUXIX. 8X  #X+X#XSX@X. +X+X. `.y '.    UXHXCX#X#X#X#XCXy   1 .   PXCX@X#X#X. [.  oX. #X#X#X#X#X#X#X#X#X#X#X#X#X#X#X#X#X#X#X#X#X#X#X#X#X#X#X#X#X#X#X#X#X#X#X#X#X#X% #X#X#X#X#X#X#X#X#X#X#X#X#X#X#X#X#X#X#X#X#X#X#X#X#X#X#X#X#X#X#X#X#X#X#X#X#X#X#X#X#X#X#X#X#X#X#X#X#X#X#X#X#X#X#X#X#X#X#X#X#X#X#X#X#X#X#X#X#X#X#X#X#X#X#X#X#X#X#X#X#X#X#X#X#X#X#X#X#X#X#X#X#X#X#X% #X#X#X#X#X#X#X#X#X#X#X#X#X#X#X#X#X#X#X#X#X#X#X#X#X#X#X#X#X#X#X#X#X#X#X#X#X#X#X#X#X#X#X#X#X#X#X#X#X#X#X#X#X#X#X#X#X#X#X#X#X#X#X#X#X#X#X#X#X#X#X#X#X#X#X#X#X#X#X#X#X#X#X#X#X#X#X#X#X#X#X#X#X#X#X#X#X#X#X#X#X#X#X#X#X#X#X#X#X#X% #X#X#X#X#X#X#X#X#X#X#X#X#X#X#X#X#X#X#X#X#X#X#X#X#X#X#X#X#X#X#X#X#X#X#X#X#X#X#X#X#X#X#X#X#X#X#X#X#X#X#X#X#X#X#X#X#X#X#X#X#X#X#X#X#X#X#X#X#X#X#X#X#X#X#X#X#X#X#X#X#X#X#X#X#X#X#X#X#X#X#X#X#X#X#X#X#X#X#X#X#X#X#X#X#X#X#X#X#X#X#X#X#X#X#X#X#X#X#X#X#X#X#X#X#X#X",
"#X#X#X#X#X. k   .X. #X. JX  [.. . 9X  $X+X. '.  OX. +XPXUXCX+X#X. 1X  9X. #XZX. @X. y   (.CX. XX  ;X. AX. 8X  #X+XCX1X  6X. . . . CX$X1X. JX  [.. HX  '.. [.  oX. #X_.. [.  1 . '.  FX. #X. ;X  y . #XCX. #XCX(.  9X. #X. A   <X. . . . . 1X@XBX  UX$X. . . <X  HX. LX  #X. #X+XCXUXLXCX. <X  u . . '.  FX. #X. ;X  y . 6X  +X. . . . AXOX. l   ;X. SX#X. h   DX#X  9X. #X#X. `.  8X. 9X  FX. #XZX#Xl 1 FXoX. . . . ;X  '.CX@XCXCX#X. ;X  ;X. LX  AXCX#X).. 8X  1XCX#X#X#X#X#X#X#X#X#X#X#X#X#X#X#X#X#X#X#X#X#X#X#X#X#X#X#X#X#X#X#X#X#X#X#X#X#X#X#X#X#X#X#X#X#X#X#X#X#X#X#X#X#X#X#X#X#X#X#X#X#X#X#X#X#X#X#X#X#X#X#X#X#X#X#X#X#X#X#X#X#X#X#X#X#X#X#X#X#X#X#X#X#X#X#X#X#X#X#X#X#X#X#X#X#X#X#X#X#X#X#X#X#X#X#X#X#X#X#X#X#X#X#X#X#X#X#X#X#X#X#X#X#X#X#X#X#X#X#X#X#X#X#X#X#X#X#X#X#X#X#X#X#X#X#X#X#X#X#X#X#X#X#X#X#X#X#X#X#X#X#X#X#X#X#X#X#X#X#X#X#X#X#X#X#X#X#X#X#X#X#X#X#X#X#X#X#X#X#X#X#X#X#X#X#X#X#X#X#X#X#X#X#X#X#X#X#X#X#X#X#X#X#X#X#X#X#X#X#X#X#X#X#X#X#X#X#X#X#X#X#X#X#X#X#X#X#X#X#X#X#X#X#X#X#X#X#X#X#X#X#X#X#X#X#X#X#X#X#X#X#X#X#X#X#X#X#X#X#X#X#X#X#X#X#X#X#X#X#X#X#X#X#X#X#X#X#X#X#X#X#X#X#X#X#X#X#X#X#X#X#X#X#X#X#X#X#X#X#X#X#X#X#X#X#X#X#X#X#X#X#X#X#X#X#X#X#X#X#X#X#X#X#X#X#X#X#X#X#X#X#X#X#X#X#X#X#X#X#X#X#X#X#X#X#X#X#X#X#X#X#X#X",
"#X#X#X#X#XCXk   KX. #X. JX  [.. . 6X  . . . '.  AX. +X6X  ;X. . . [.  y . AX1XGXDXCX8X; . ).. l   AX+XAX. 6X  #X+XAX. 6X  oX. . CXy   l . JX  [.. HX  h . oX  9X. . . +XUX  @X. '.  OX. #X. ;X  <X. #XOXGXmX. 1X  9X. AX+X$X  IX. . . . 6X  (.+X  LX. . . +XPX  (.. l   l . . . <X  6X+X. k   HX. . '.  OX. #X. y   <X. y   [.. . . SX  IX. OX  8X. . . DX    XX. LX  OX. . . l   <X. y   [.. . . k   ;X1   u . . . CX  9X. SXGXOXAXCX;X  y . k   k . . . XX  8X. VX#X#X#X#X#X#X#X#X#X#X#X#X#X#X#X#X#X#X#X#X#X#X#X#X#X#X#X#X#X#X#X#X#X#X#X#X#X#X#X#X#X#X#X#X#X#X#X#X#X#X#X#X#X#X#X#X#X#X#X#X#X#X#X#X#X#X#X#X#X#X#X#X#X#X#X#X#X#X#X#X#X#X#X#X#X#X#X#X#X#X#X#X#X#X#X#X#X#X#X#X#X#X#X#X#X#X#X#X#X#X#X#X#X#X#X#X#X#X#X#X#X#X#X#X#X#X#X#X#X#X#X#X#X#X#X#X#X#X#X#X#X#X#X#X#X#X#X#X#X#X#X% #X#X#X#X#X#X#X#X#X#X#X#X#X#X#X#X#X#X#X#X#X#X#X#X#X#X#X#X#X#X#X#X#X#X#X#X#X#X#X#X#X#X#X#X#X#X#X#X#X#X#X#X#X#X#X#X#X#X#X#X#X#X#X#X#X#X#X#X#X#X#X#X#X#X#X#X#X#X#X#X#X#X#X#X#X#X#X#X#X#X#X#X#X#X#X#X#X#X#X#X#X#X#X#X#X#X#X#X#X#X#X#X#X#X#X#X#X#X#X#X#X#X#X#X#X#X#X#X#X#X#X#X#X#X#X#X#X#X#X#X#X#X#X#X#X#X#X#X#X#X#X#X% #X#X#X#X#X#X#X#X#X#X#X#X#X#X#X#X#X#X#X#X#X#X#X#X#X#X#X#X#X#X#X#X#X#X#X#X#X#X#X#X#X#X#X#X#X#X#X#X#X#X#X#X#X#X#X#X#X#X#X#X#X#X#X#X#X#X#X",
"#X#X#X#X#XCXl   u . #X. KX  '.. . '.  '.KX. [.  '.1 CX6XUX  l 1 h   8X+X@X. l   <XCX  [.. @XCX  LX. #X).. PX  #X+X#X. GX    y 1 [.  LX@X. oX  '.. +   9X. . 9X  9Xu q LX  <X. . 6X  OX. #X. y   <X. ZX    GX. FX  8X. AX#X. <X  LXA 1 9X  h . . 9X  h 1 <XIX    k SX@XLX  [.1 l     PX. . <X  6X;X. 9X  OX. #X. y   <X. +X6X  h 1 y     JXCX. [.  6X1 ;XUX    JX. oX    y 1 [.  8XCX+X@XLXUX[.u 0   LX. #X    k 1 y PX  JX. .X  8X. . <X  y . #XPX  [.1 r     HX. _.#X#X#X#X#X#X#X#X#X#X#X#X#X#X#X#X#X#X#X#X#X#X#X#X#X#X#X#X#X#X#X#X#X#X#X#X#X#X#X#X#X#X#X#X#X#X#X#X#X#X#X#X#X#X#X#X#X#X#X#X#X#X#X#X#X#X#X#X#X#X#X#X#X#X#X#X#X#X#X#X#X#X#X#X#X#X#X#X#X#X#X#X#X#X#X#X#X#X#X#X#X#X#X#X#X#X#X#X#X#X#X#X#X#X#X#X#X#X#X#X#X#X#X#X#X#X#X#X#X#X#X#X#X#X#X#X#X#X#X#X#X#X#X#X#X#X#X#X#X#X#X#X#X#X#X#X#X#X#X#X#X#X#X#X#X#X#X#X#X#X#X#X#X#X#X#X#X#X#X#X#X#X#X#X#X#X#X#X#X#X#X#X#X#X#X#X#X#X#X#X#X#X#X#X#X#X#X#X#X#X#X#X#X#X#X#X#X#X#X#X#X#X#X#X#X#X#X#X#X#X#X#X#X#X#X#X#X#X#X#X#X#X#X#X#X#X#X#X#X#X#X#X#X#X#X#X#X#X#X#X#X#X#X#X#X#X#X#X#X#X#X#X#X#X#X#X#X#X#X#X#X#X#X#X#X#X#X#X#X#X#X#X#X#X#X#X#X#X#X#X#X#X#X#X#X#X#X#X#X#X#X#X#X#X#X#X#X#X#X#X#X#X#X#X#X#X#X#X#X#X#X#X#X#X#X#X#X#X#X#X#X#X#X#X#X#X#X#X#X#X#X#X#X#X#X#X#X#X#X#X#X#X#X#X#X#X#X#X#X#X#X#X",
"#X#X#X#X#XCXy 8XoXCX#XCXHX8Xk +XCXHXLX  [.. OX8X  '.CXPX8Xy       '.#X. mXCXy LX1 OX8XXXCX+XFX8X1 CX#XAXCX'.8X#X@X#X#X. JX8X      '.VX. CX/.8X<XCXGX8Xl +X+XCX[.      UXy . ).CX0 8X1X+X#XCX.X8Xq CX@X6XLXFX+X1X8X[.CX#X#XAX. y UX      k . @XZX#X9X      [.DXLX  ;X. SX9X      1 [.9X+X+XSX6X  8X. l 8X1X+X#XCX1 8Xq CXCXZXh       LXKX. #XZX. l       [.1 6X/.CX. 1 PX      '.AXCX#X. SX9XUX    9XSX+X. HXLX      IX1 . CXJXLX'.CXCX1 8X1 +X. DX9X  UX  LXJX. #X#X#X#X#X#X#X#X#X#X#X#X#X#X#X#X#X#X#X#X#X#X#X#X#X#X#X#X#X#X#X#X#X#X#X#X#X#X#X#X#X#X#X#X#X#X#X#X#X#X#X#X#X#X#X#X#X#X#X#X#X#X#X#X#X#X#X#X#X#X#X#X#X#X#X#X#X#X#X#X#X#X#X#X#X#X#X#X#X#X#X#X#X#X#X#X#X#X#X#X#X#X#X#X#X#X#X#X#X#X#X#X#X#X#X#X#X#X#X#X#X#X#X#X#X#X#X#X#X#X#X#X#X#X#X#X#X#X#X% #X#X#X#X#X#X#X#X#X#X#X#X#X#X#X#X#X#X#X#X#X#X#X#X#X#X#X#X#X#X#X#X#X#X#X#X#X#X#X#X#X#X#X#X#X#X#X#X#X#X#X#X#X#X#X#X#X#X#X#X#X#X#X#X#X#X#X#X#X#X#X#X#X#X#X#X#X#X#X#X#X#X#X#X#X#X#X#X#X#X#X#X#X#X#X#X#X#X#X#X#X#X#X#X#X#X#X#X#X% #X#X#X#X#X#X#X#X#X#X#X#X#X#X#X#X#X#X#X#X#X#X#X#X#X#X#X#X#X#X#X#X#X#X#X#X#X#X#X#X#X#X#X#X#X#X#X#X#X#X#X#X#X#X#X#X#X#X#X#X#X#X#X#X#X#X#X#X#X#X#X#X#X#X#X#X#X#X#X#X#X#X#X#X#X#X#X#X#X#X#X#X#X#X#X#X#X#X#X#X#X#X#X#X#X#X#X#X#X#X#X#X#X#X#X#X#X#X#X#X#X#X#X#X",
"#X#X#X#X#X#X@X+XAX#X#X#X#X+X@X#X#X+X#X`.#X#XCX@XDX@X+XPXIX. $XoXXX. . mX_.#X@X X@X$X+XZX#X#X$X@X+X#X#X#X#XZX+X#X#X#X#X#X. +XHXoXFX. CXmX#X#X+XAX#X#X+X@X#XSX+X. 1XoXJX#X. ).mX#X@X+X#X#X#X_.AX+X@X#X#XZX+X#X#XAX+X@X#X#X#X#X).. #XJXoXSX. @X_.mX. . HXoX$X. . $XGXSX#X. CXHXoX$X. +X@X_.mX+X+XDXSX#X@X+X#X#X#X#X#X+X@X#XmX+X. FXoXHX+X. #X#XmX@X. (.oXOX. +XBX#X#X#X. @XHXoXFX. CXmX#XmX. . XXoXOX. . mX_.. +XXXoXHX@XCX#X#XAX+X@X#X#X).+X@X#XmX. . GXoXXX+X. #X#X#X#X#X#X#X#X#X#X#X#X#X#X#X#X#X#X#X#X#X#X#X#X#X#X#X#X#X#X#X#X#X#X#X#X#X#X#X#X#X#X#X#X#X#X#X#X#X#X#X#X#X#X#X#X#X#X#X#X#X#X#X#X#X#X#X#X#X#X#X#X#X#X#X#X#X#X#X#X#X#X#X#X#X#X#X#X#X#X#X#X#X#X#X#X#X#X#X#X#X#X#X#X#X#X#X#X#X#X#X#X#X#X#X#X#X#X#X#X#X#X#X#X#X#X#X#X#X#X#X#X#X#X#X#X#X#X#X#X#X#X#X#X#X#X#X#X#X#X#X#X#X#X#X#X#X#X#X#X#X#X#X#X#X#X#X#X#X#X#X#X#X#X#X#X#X#X#X#X#X#X#X#X#X#X#X#X#X#X#X#X#X#X#X#X#X#X#X#X#X#X#X#X#X#X#X#X#X#X#X#X#X#X#X#X#X#X#X#X#X#X#X#X#X#X#X#X#X#X#X#X#X#X#X#X#X#X#X#X#X#X#X#X#X#X#X#X#X#X#X#X#X#X#X#X#X#X#X#X#X#X#X#X#X#X#X#X#X#X#X#X#X#X#X#X#X#X#X#X#X#X#X#X#X#X#X#X#X#X#X#X#X#X#X#X#X#X#X#X#X#X#X#X#X#X#X#X#X#X#X#X#X#X#X#X#X#X#X#X#X#X#X#X#X#X#X#X#X#X#X#X#X#X#X#X#X#X#X#X#X#X#X#X#X#X#X#X#X#X#X#X#X#X#X#X#X#X#X#X#X#X#X#X#X#X#X#X#X#X#X#X#X#X#X",
"#X#X#X#X#X#XAX@X#X_.#X#X#X@XVX_.#X#X+X+X@X#X#X@X+X+X+XPXIX+X. . . VX#X#X#X#XAX@XAXAX@X#X_.#XAX@XAX_.#X#X#X@X@X#X_.#X#X#X#X@X. . CXAX#X_.#XAX@X).#X#X@X).#X#X#X#XCX. . +X#X#X#X#X@X@X#X#X#X#XAX@X#X#X#X@X@X#X#X#X@X@XSX#X#X#X#X#X+X. . +X#X#X#X#X_.@X. . +X#X#X+X. @X_.#X@X. . +X_.VX@X#X#X_.@X+XZX#X).@X#X_.#X#XAX@X#X_.#X#X#X. . . @X#X#X#X#X#X#XCX. . #X#X@X#X#X#X#X@X. . CX#X#X_.#X#X#X).. . CX).#X#X#X#X@X. . . @X#X#X#X#X@X@X_.#XAX@X#X_.#X#X).. . . @X#X#X#X#X#X#X#X#X#X#X#X#X#X#X#X#X#X#X#X#X#X#X#X#X#X#X#X#X#X#X#X#X#X#X#X#X#X#X#X#X#X#X#X#X#X#X#X#X#X#X#X#X#X#X#X#X#X#X#X#X#X#X#X#X#X#X#X#X#X#X#X#X#X#X#X#X#X#X#X#X#X#X#X#X#X#X#X#X#X#X#X#X#X#X#X#X#X#X#X#X#X#X#X#X#X#X#X#X#X#X#X#X#X#X#X#X#X#X#X#X#X#X#X#X#X#X#X#X#X#X#X#X#X#X#X#X#X#X#X#X#X#X#X#X#X#X#X#X#X#X#X#X#X% #X#X#X#X#X#X#X#X#X#X#X#X#X#X#X#X#X#X#X#X#X#X#X#X#X#X#X#X#X#X#X#X#X#X#X#X#X#X#X#X#X#X#X#X#X#X#X#X#X#X#X#X#X#X#X#X#X#X#X#X#X#X#X#X#X#X#X#X#X#X#X#X#X#X#X#X#X#X#X#X#X#X#X#X#X#X#X#X#X#X#X#X#X#X#X#X#X#X#X#X#X#X#X#X#X#X#X#X#X#X#X#X#X#X#X#X#X#X#X#X#X#X#X#X#X#X#X#X#X#X#X#X#X#X#X#X#X#X#X#X#X#X#X#X#X#X#X#X#X#X#X#X% #X#X#X#X#X#X#X#X#X#X#X#X#X#X#X#X#X#X#X#X#X#X#X#X#X#X#X#X#X#X#X#X#X#X#X#X#X#X#X#X#X#X#X#X#X#X#X#X#X#X#X#X#X#X#X#X#X#X#X#X#X#X#X#X#X#X#X#X#X",
"#X#X#X#X#X#X#X#X#X#X#X#X#X#X#X#X#X#X#X#X#X#X#X#X#XZX+X    +X@X#X#X_.#X#X#X#X#X#X#X#X#X#X#X#X#X#X#X#X#X#X#X#X#X#X#X#X#X#X#X#X#X#X#X#X#X#X#X#X#X#X#X#X#X#X#X#X#X#X#X#X#X#X#X#X#X#X#X#X#X% #X#X#X#X#X#X#X#X#X#X#X#X#X#X#X#X#X#X#X#X#X#X#X#X#X#X#X#X#X#X#X#X#X#X#X#X#X#X#X#X#X#X#X#X#X#X#X#X#X#X#X#X#X#X#X#X#X% #X#X#X#X#X#X#X#X#X#X#X#X#X#X#X#X#X#X#X#X#X#X#X#X#X#X#X#X#X#X#X#X#X#X#X#X#X#X#X#X#X#X#X#X#X#X#X#X#X#X#X#X#X#X#X#X#X#X#X#X#X#X#X#X#X#X#X#X#X#X#X#X#X#X#X#X#X#X#X#X#X#X#X#X#X#X#X#X#X#X#X#X#X#X#X#X#X#X#X#X#X#X#X#X#X#X#X#X#X#X#X#X#X#X#X#X#X#X#X#X#X#X#X#X#X#X#X#X#X#X#X#X#X#X#X#X#X#X#X#X#X#X#X#X#X#X#X#X#X#X#X#X#X#X#X#X#X#X#X#X#X#X#X#X#X#X#X#X#X#X#X#X#X#X#X#X#X#X#X#X#X#X#X#X#X#X#X#X#X#X#X#X#X#X#X#X#X#X#X#X#X#X#X#X#X#X#X#X#X#X#X#X#X#X#X#X#X#X#X#X#X#X#X#X#X#X#X#X#X#X#X#X#X#X#X#X#X#X#X#X#X#X#X#X#X#X#X#X#X#X#X#X#X#X#X#X#X#X#X#X#X#X#X#X#X#X#X#X#X#X#X#X#X#X#X#X#X#X#X#X#X#X#X#X#X#X#X#X#X#X#X#X#X#X#X#X#X#X#X#X#X#X#X#X#X#X#X#X#X#X#X#X#X#X#X#X#X#X#X#X#X#X#X#X#X#X#X#X#X#X#X#X#X#X#X#X#X#X#X#X#X#X#X#X#X#X#X#X#X#X#X#X#X#X#X#X#X#X#X#X#X#X#X#X#X#X#X#X#X#X#X#X#X#X#X#X#X#X#X#X#X#X#X#X#X#X#X#X#X#X#X#X#X#X#X#X#X#X#X#X#X#X#X#X#X#X#X#X#X#X#X#X#X#X#X#X#X#X#X#X#X#X#X#X#X#X#X#X#X#X#X#X#X#X#X#X#X#X#X#X#X#X#X#X#X#X#X#X",
"#X#X#X#X#X#X#X#X#X#X#X#X#X#X#X#X#X#X#X#X#X#X#X#X#X).ZX'.9XZX@X#X#X#X#X#X#X#X#X#X#X#X#X#X#X#X#X#X#X#X#X#X#X#X#X#X#X#X#X#X#X#X#X#X#X#X#X#X#X#X#X#X#X#X#X#X#X#X#X#X#X#X#X#X#X#X#X#X#X#X#X#X#X#X#X#X#X#X#X#X#X#X#X#X#X#X#X#X#X#X#X#X#X#X#X#X#X#X#X#X#X#X#X#X#X#X#X#X#X#X#X#X#X#X#X#X#X#X#X#X#X#X#X#X#X#X#X#X#X#X#X#X#X#X#X#X#X#X#X#X#X#X#X#X#X#X#X#X#X#X#X#X#X#X#X#X#X#X#X#X#X#X#X#X#X#X#X#X#X#X#X#X#X#X#X#X#X#X#X#X#X#X#X#X#X#X#X#X% #X#X#X#X#X#X#X#X#X#X#X#X#X#X#X#X#X#X#X#X#X#X#X#X#X#X#X#X#X#X#X#X#X#X#X#X#X#X#X#X#X#X#X#X#X#X#X#X#X#X#X#X#X#X#X#X#X#X#X#X#X#X#X#X#X#X#X#X#X#X#X#X#X#X#X#X#X#X#X#X#X#X#X#X#X#X#X#X#X#X#X#X#X#X#X#X#X#X#X#X#X#X#X#X#X#X#X#X#X#X#X#X#X#X#X#X#X#X#X#X#X#X#X#X#X#X#X#X#X#X#X#X#X#X#X#X#X#X#X#X#X#X#X#X#X#X#X#X#X#X#X#X#X#X#X#X#X#X#X#X% #X#X#X#X#X#X#X#X#X#X#X#X#X#X#X#X#X#X#X#X#X#X#X#X#X#X#X#X#X#X#X#X#X#X#X#X#X#X#X#X#X#X#X#X#X#X#X#X#X#X#X#X#X#X#X#X#X#X#X#X#X#X#X#X#X#X#X#X#X#X#X#X#X#X#X#X#X#X#X#X#X#X#X#X#X#X#X#X#X#X#X#X#X#X#X#X#X#X#X#X#X#X#X#X#X% #X#X#X#X#X#X#X#X#X#X#X#X#X#X#X#X#X#X#X#X#X#X#X#X#X#X#X#X#X#X#X#X#X#X#X#X#X#X#X#X#X#X#X#X#X#X#X#X#X#X#X#X#X#X#X#X#X#X#X#X#X#X#X#X#X#X#X#X#X#X#X#X#X#X#X#X#X#X#X#X#X#X#X#X#X#X#X#X#X#X#X#X#X#X#X#X#X#X#X#X#X#X#X#X#X#X#X#X#X#X#X#X#X#X#X#X#X#X#X#X#X#X",
"#X#X#X#X#X#X#X#X#X#X#X#X#X% #X#X#X#X#X#X#X#X#X#X#XmX#X. . #X_.#X#X#X#X#X#X#X#X#X#X#X#X#X#X#X#X#X#X#X#X#X#X#X#X#X#X#X#X#X#X#X#X#X#X#X#X#X#X#X#X#X#X#X#X#X#X#X#X#X#X#X#X#X#X#X#X#X#X#X#X#X#X#X#X#X#X#X#X#X#X#X#X#X#X#X#X#X#X#X#X#X#X#X#X#X#X#X#X#X#X#X#X#X#X#X#X#X#X#X#X#X#X#X#X#X#X#X#X#X#X#X#X#X#X#X#X#X#X#X#X#X#X#X#X#X#X#X#X#X#X#X#X#X#X#X#X#X#X#X#X#X#X#X#X#X#X#X#X#X#X#X#X#X#X#X#X#X#X#X#X#X#X#X#X#X#X#X#X#X#X#X#X#X#X#X#X#X#X#X#X#X#X#X#X#X#X#X#X#X#X#X#X#X#X#X#X#X#X#X#X#X#X#X#X#X#X#X#X#X#X#X#X#X#X#X#X#X#X#X#X#X#X#X#X#X#X#X#X#X#X#X#X#X#X#X#X#X#X#X#X#X#X#X#X#X#X#X#X#X#X#X#X#X#X#X#X#X#X#X#X#X#X#X#X#X#X#X#X#X#X#X#X#X#X#X#X#X#X#X#X#X#X#X#X#X#X#X#X#X#X#X#X#X#X#X#X#X#X#X#X#X#X#X#X#X#X#X#X#X#X#X#X#X#X#X#X#X#X#X#X#X#X#X#X#X#X#X#X#X#X#X#X#X#X#X#X#X#X#X#X#X#X#X#X#X#X#X#X#X#X#X#X#X#X#X#X#X#X#X#X#X#X#X#X#X#X#X#X#X#X#X#X#X#X#X#X#X#X#X#X#X#X#X#X#X#X#X#X#X#X#X#X#X#X#X#X#X#X#X#X#X#X#X#X#X#X#X#X#X#X#X#X#X#X#X#X#X#X#X#X#X#X#X#X#X#X#X#X#X#X#X#X#X#X#X#X#X#X#X#X#X#X#X#X#X#X#X#X#X#X#X#X#X#X#X#X#X#X#X#X#X#X#X#X#X#X#X#X#X#X#X#X#X#X#X#X#X#X#X#X#X#X#X#X#X#X#X#X#X#X#X#X#X#X#X#X#X#X#X#X#X#X#X#X#X#X#X#X#X#X#X#X#X#X#X#X#X#X#X#X#X#X#X#X#X#X#X#X#X#X#X#X#X#X#X#X#X#X#X#X#X#X#X#X#X#X#X#X#X#X#X#X#X#X#X#X#X#X#X#X#X#X#X#X#X#X#X",
"#X#X#X#X#X#X#X#X#X#X#X#X#X#X#X#X#X#X#X#X#X#X#X#X#X#X#X#XAX#X#X#X#X#X#X#X#X#X#X#X#X#X#X#X#X#X#X#X#X#X#X#X#X#X#X#X#X#X#X#X#X#X#X#X#X#X#X#X#X#X#X#X#X#X#X#X#X#X#X#X#X#X#X#X#X#X#X#X#X#X#X#X#X#X#X#X#X#X#X#X#X#X#X#X#X#X#X#X#X#X#X#X#X#X#X#X#X#X#X#X#X#X#X#X#X#X#X#X#X#X#X#X#X#X#X#X#X#X#X#X#X#X#X#X#X#X#X#X#X#X#X#X#X#X#X#X#X#X#X#X#X#X#X#X#X#X#X#X#X#X#X#X#X#X% #X#X#X#X#X#X#X#X#X#X#X#X#X#X#X#X#X#X#X#X#X#X#X#X#X#X#X#X#X#X#X#X#X#X#X#X#X#X#X#X#X#X#X#X#X#X#X#X#X#X#X#X#X#X#X#X#X#X#X#X#X#X#X#X#X#X#X#X#X#X#X#X#X#X#X#X#X#X#X#X#X#X#X#X#X#X#X#X#X#X#X#X#X#X#X#X#X#X#X#X#X#X#X#X#X#X#X#X#X#X#X#X#X#X#X#X#X#X#X#X#X#X#X#X#X#X#X#X#X#X#X#X#X#X#X#X#X#X#X#X#X#X#X#X#X#X#X#X#X#X#X#X#X#X#X#X#X#X#X#X#X#X#X#X#X#X#X#X#X#X#X#X#X#X#X#X#X#X#X#X#X#X#X#X#X#X#X#X#X#X#X#X#X#X#X#X#X#X% #X#X#X#X#X#X#X#X#X#X#X#X#X#X#X#X#X#X#X#X#X#X#X#X#X#X#X#X#X#X#X#X#X#X#X#X#X#X#X#X#X#X#X#X#X#X#X#X#X#X#X#X#X#X#X#X#X#X#X#X#X#X#X#X#X#X#X#X#X#X#X#X#X#X#X#X#X#X#X#X#X#X#X#X#X#X#X#X#X#X#X#X#X#X#X#X#X#X#X#X#X#X#X#X#X#X#X#X#X#X#X#X#X#X#X#X#X#X#X#X#X#X#X#X#X#X#X#X#X#X#X#X#X#X#X#X#X#X#X#X#X#X#X#X#X#X#X#X#X#X#X#X% #X#X#X#X#X#X#X#X#X#X#X#X#X#X#X#X#X#X#X#X#X#X#X#X#X#X#X#X#X#X#X#X#X#X#X#X#X#X#X#X#X#X#X#X#X#X#X#X#X#X#X#X#X#X#X#X#X#X#X#X#X#X#X#X#X#X#X#X#X#X#X",
"#X#X#X#X#X#X#X#X#X#X#X#X#X#X#X#X#X#X#X#X#X#X#X#X#X#X#X#X#X#X#X#X#X#X#X#X#X#X#X#X#X#X#X#X#X#X#X#X#X#X#X#X#X#X#X#X#X#X#X#X#X#X#X#X#X#X#X#X#X#X#X#X#X#X#X#X#X#X#X#X#X#X#X#X#X#X#X#X#X#X#X#X#X#X#X#X#X#X#X#X#X#X#X#X#X#X#X#X#X#X#X#X#X#X#X#X#X#X#X#X#X#X#X#X#X#X#X#X#X#X#X#X#X#X#X#X#X#X#X#X#X#X#X#X#X#X#X#X#X#X#X#X#X#X#X#X#X#X#X#X#X#X#X#X#X#X#X#X#X#X#X#X#X#X#X#X#X#X#X#X#X#X#X#X#X#X#X#X#X#X#X#X#X#X#X#X#X#X#X#X#X#X#X#X#X#X#X#X#X#X#X#X#X#X#X#X#X#X#X#X#X#X#X#X#X#X#X#X#X#X#X#X#X#X#X#X#X#X#X#X#X#X#X#X#X#X#X#X#X#X#X#X#X#X#X#X#X#X#X#X#X#X#X#X#X#X#X#X#X#X#X#X#X#X#X#X#X#X#X#X#X#X#X#X#X#X#X#X#X#X#X#X#X#X#X#X#X#X#X#X#X#X#X#X#X#X#X#X#X#X#X#X#X#X#X#X#X#X#X#X#X#X#X#X#X#X#X#X#X#X#X#X#X#X#X#X#X#X#X#X#X#X#X#X#X#X#X#X#X#X#X#X#X#X#X#X#X#X#X#X#X#X#X#X#X#X#X#X#X#X#X#X#X#X#X#X#X#X#X#X#X#X#X#X#X#X#X#X#X#X#X#X#X#X#X#X#X#X#X#X#X#X#X#X#X#X#X#X#X#X#X#X#X#X#X#X#X#X#X#X#X#X#X#X#X#X#X#X#X#X#X#X#X#X#X#X#X#X#X#X#X#X#X#X#X#X#X#X#X#X#X#X#X#X#X#X#X#X#X#X#X#X#X#X#X#X#X#X#X#X#X#X#X#X#X#X#X#X#X#X#X#X#X#X#X#X#X#X#X#X#X#X#X#X#X#X#X#X#X#X#X#X#X#X#X#X#X#X#X#X#X#X#X#X#X#X#X#X#X#X#X#X#X#X#X#X#X#X#X#X#X#X#X#X#X#X#X#X#X#X#X#X#X#X#X#X#X#X#X#X#X#X#X#X#X#X#X#X#X#X#X#X#X#X#X#X#X#X#X#X#X#X#X#X#X#X#X#X#X#X#X#X#X#X#X#X#X#X#X#X#X#X#X#X#X#X#X#X",
"#X#X#X#X#X#X#X#X#X#X#X#X#X#X#X#X#X#X#X#X#X#X#X#X#X#X#X#X#X#X#X#X#X#X#X#X#X#X#X#X#X#X#X#X#X#X#X#X#X#X#X#X#X#X#X#X#X#X#X#X#X#X#X#X#X#X#X#X#X#X#X#X#X#X#X#X#X#X#X#X#X#X#X#X#X#X#X#X#X#X#X#X#X#X#X#X#X#X#X#X#X#X#X#X#X#X#X#X#X#X#X#X#X#X#X#X#X#X#X#X#X#X#X#X#X#X#X#X#X#X#X#X#X#X#X#X#X#X#X#X#X#X#X#X#X#X#X#X#X#X#X#X#X#X#X#X#X#X#X#X#X#X#X#X#X#X#X#X#X#X#X#X#X#X#X#X#X#X#X#X#X#X#X#X#X#X#X#X#X#X#X#X#X#X#X#X#X#X#X#X#X#X#X#X#X#X#X#X#X#X#X#X#X#X#X#X#X#X#X#X#X#X#X#X#X#X#X#X#X#X#X#X#X#X#X#X#X#X#X#X#X#X#X#X#X#X#X#X#X#X#X#X#X#X#X#X#X#X#X#X#X#X#X#X#X#X#X#X#X#X#X#X#X#X#X#X#X#X#X#X#X#X#X#X#X#X#X#X#X#X#X#X#X#X#X#X#X#X#X#X#X#X#X#X#X#X#X#X#X#X#X#X#X#X#X#X#X#X#X#X#X#X#X#X#X#X#X#X#X#X#X#X#X#X#X#X#X#X#X#X#X#X#X#X#X#X#X#X#X#X#X#X#X#X#X#X#X#X#X#X#X#X#X#X#X#X#X#X#X#X#X% #X#X#X#X#X#X#X#X#X#X#X#X#X#X#X#X#X#X#X#X#X#X#X#X#X#X#X#X#X#X#X#X#X#X#X#X#X#X#X#X#X#X#X#X#X#X#X#X#X#X#X#X#X#X#X#X#X#X#X#X#X#X#X#X#X#X#X#X#X#X#X#X#X#X#X#X#X#X#X#X#X#X#X#X#X#X#X#X#X#X#X#X#X#X#X#X#X#X#X#X#X#X#X#X#X% #X#X#X#X#X#X#X#X#X#X#X#X#X#X#X#X#X#X#X#X#X#X#X#X#X#X#X#X#X#X#X#X#X#X#X#X#X#X#X#X#X#X#X#X#X#X#X#X#X#X#X#X#X#X#X#X#X#X#X#X#X#X#X#X#X#X#X#X#X#X#X#X#X#X#X#X#X#X#X#X#X#X#X#X#X#X#X#X#X#X#X#X#X#X#X#X#X#X#X#X#X#X#X#X#X#X#X#X#X#X#X#X#X#X#X#X#X#X#X#X",
"#X#X#X#X#X#X#X#X#X#X#X#X#X#X#X#X#X#X#X#X#X#X#X#X#X#X#X#X#X#X#X#X#X#X#X#X#X#X#X#X#X#X#X#X#X#X#X#X#X#X#X#X#X#X#X#X#X#X#X#X#X#X#X#X#X#X#X#X#X#X#X#X#X#X#X#X#X#X#X#X#X#X#X#X#X#X#X#X#X#X#X#X#X#X#X#X#X#X#X#X#X#X#X#X#X#X#X#X#X#X#X#X#X#X#X#X#X#X#X#X#X#X#X#X#X#X#X#X#X#X#X#X#X#X#X#X#X#X#X#X#X#X#X#X#X#X#X#X#X#X#X#X#X#X#X#X#X#X#X#X#X#X#X#X#X#X#X#X#X#X#X#X#X#X#X#X#X#X#X#X#X#X#X#X#X#X#X#X#X#X#X#X#X#X#X#X#X#X#X#X#X#X#X#X#X#X#X#X#X#X#X#X#X#X#X#X#X#X#X#X#X#X#X#X#X#X#X#X#X#X#X#X#X#X#X#X#X#X#X#X#X#X#X#X#X#X#X#X#X#X#X#X#X#X#X#X#X#X#X#X#X#X#X#X#X#X#X#X#X#X#X#X#X#X#X#X#X#X#X#X#X#X#X#X#X#X#X#X#X#X#X#X#X#X#X#X#X#X#X#X#X#X#X#X#X#X#X#X#X#X#X#X#X#X#X#X#X#X#X#X#X#X#X#X#X#X#X#X#X#X#X#X#X#X#X#X#X#X#X#X#X#X#X#X#X#X#X#X#X#X#X#X#X#X#X#X#X#X#X#X#X#X#X#X#X#X#X#X#X#X#X#X#X#X#X#X#X#X#X#X#X#X#X#X#X#X#X#X#X#X#X#X#X#X#X#X#X#X#X#X#X#X#X#X#X#X#X#X#X#X#X#X#X#X#X#X#X#X#X#X#X#X#X#X#X#X#X#X#X#X#X#X#X#X#X#X#X#X#X#X#X#X#X#X#X#X#X#X#X#X#X#X#X#X#X#X#X#X#X#X#X#X#X#X#X#X#X#X#X#X#X#X#X#X#X#X#X#X#X#X#X#X#X#X#X#X#X#X#X#X#X#X#X#X#X#X#X#X#X#X#X#X#X#X#X#X#X#X#X#X#X#X#X#X#X#X#X#X#X#X#X#X#X#X#X#X#X#X#X#X#X#X#X#X#X#X#X#X#X#X#X#X#X#X#X#X#X#X#X#X#X#X#X#X#X#X#X#X#X#X#X#X#X#X#X#X#X#X#X#X#X#X#X#X#X#X#X#X#X#X#X#X#X#X#X#X#X#X#X#X#X#X#X#X#X#X#X#X",
"#X#X#X#X#X#X#X#X#X#X#X#X#X#X#X#X#X#X#X#X#X#X#X#X#X#X#X#X#X#X#X#X#X#X#X#X#X#X#X#X#X#X#X#X#X#X#X#X#X#X#X#X#X#X#X#X#X#X#X#X#X#X#X#X#X#X#X#X#X#X#X#X#X#X#X#X#X#X#X#X#X#X#X#X#X#X#X#X#X#X#X#X#X#X#X#X#X#X#X#X#X#X#X#X#X#X#X#X#X#X#X#X#X#X#X#X#X#X#X#X#X#X#X#X#X#X#X#X#X#X#X#X#X#X#X#X#X#X#X#X#X#X#X#X#X#X#X#X#X#X#X#X#X#X#X#X#X#X#X#X#X#X#X#X#X#X#X#X#X#X#X#X#X#X#X#X#X#X#X#X#X#X#X#X#X#X#X#X#X#X#X#X#X#X#X#X#X#X#X#X#X#X#X#X#X#X#X#X#X#X#X#X#X#X#X#X#X#X#X#X#X#X#X#X#X#X#X#X#X#X#X#X#X#X#X#X#X#X#X#X#X#X#X#X#X#X#X#X#X#X#X#X#X#X#X#X#X#X#X#X#X#X#X#X#X#X#X#X#X#X#X#X#X#X#X#X#X#X#X#X#X#X#X#X#X#X#X#X#X#X#X#X#X#X#X#X#X#X#X#X#X#X#X#X#X#X#X#X#X#X#X#X#X#X#X#X#X#X#X#X#X#X#X#X#X#X#X#X#X#X#X#X#X#X#X#X#X#X#X#X#X#X#X#X#X#X#X#X#X#X#X#X#X#X#X#X#X#X#X#X#X#X#X#X#X#X#X#X#X#X#X#X#X#X#X#X#X#X#X#X#X#X#X#X#X#X#X#X#X#X#X#X#X#X#X#X#X#X#X#X#X#X#X#X#X#X#X#X#X#X#X#X#X#X#X#X#X#X#X#X#X#X#X#X#X#X#X#X#X#X#X#X#X#X#X#X#X#X#X#X#X#X#X#X#X#X#X#X#X#X#X#X#X#X#X#X#X#X#X#X#X#X#X#X#X#X#X#X#X#X#X#X#X#X#X#X#X#X#X#X#X#X#X#X#X#X#X#X#X#X#X#X#X#X#X#X#X#X#X#X#X#X#X#X#X#X#X#X#X#X#X#X#X#X#X#X#X#X#X#X#X#X#X#X% #X#X#X#X#X#X#X#X#X#X#X#X#X#X#X#X#X#X#X#X#X#X#X#X#X#X#X#X#X#X#X#X#X#X#X#X#X#X#X#X#X#X#X#X#X#X#X#X#X#X#X#X#X#X#X#X#X#X#X#X#X#X#X#X#X#X#X#X#X#X#X#X#X",
"#X#X#X#X#X#X#X#X#X#X#X#X#X#X#X#X#X#X#X#X#X#X#X#X#X#X#X#X#X#X#X#X#X#X#X#X#X#X#X#X#X#X#X#X#X#X#X#X#X#X#X#X#X#X#X#X#X#X#X#X#X#X#X#X#X#X#X#X#X#X#X#X#X#X#X#X#X#X#X#X#X#X#X#X#X#X#X#X#X#X#X#X#X#X#X#X#X#X#X#X#X#X#X#X#X#X#X#X#X#X#X#X#X#X#X#X#X#X#X#X#X#X#X#X#X#X#X#X#X#X#X#X#X#X#X#X#X#X#X#X#X#X#X#X#X#X#X#X#X#X#X#X#X#X#X#X#X#X#X#X#X#X#X#X#X#X#X#X#X#X#X#X#X#X#X#X#X#X#X#X#X#X#X#X#X#X#X#X#X#X#X#X#X#X#X#X#X#X#X#X#X#X#X#X#X#X#X#X#X#X#X#X#X#X#X#X#X#X#X#X#X#X#X#X#X#X#X#X#X#X#X#X#X#X#X#X#X#X#X#X#X#X#X#X#X#X#X#X#X#X#X#X#X#X#X#X#X#X#X#X#X#X#X#X#X#X#X#X#X#X#X#X#X#X#X#X#X#X#X#X#X#X#X#X#X#X#X#X#X#X#X#X#X#X#X#X#X#X#X#X#X#X#X#X#X#X#X#X#X#X#X#X#X#X#X#X#X#X#X#X#X#X#X#X#X#X#X#X#X#X#X#X#X#X#X#X#X#X#X#X#X#X#X#X#X#X#X#X#X#X#X#X#X#X#X#X#X#X#X#X#X#X#X#X#X#X#X#X#X#X#X#X#X#X#X#X#X#X#X#X#X#X#X#X#X#X#X#X#X#X#X#X#X#X#X#X#X#X#X#X#X#X#X#X#X#X#X#X#X#X#X#X#X#X#X#X#X#X#X#X#X#X#X#X#X#X#X#X#X#X#X#X#X#X#X#X#X#X#X#X#X#X#X#X#X#X#X#X#X#X#X#X#X#X#X#X#X#X#X#X#X#X#X#X#X#X#X#X#X#X#X#X#X#X#X#X#X#X#X#X#X#X#X#X#X#X#X#X#X#X#X#X#X#X#X#X#X#X#X#X#X#X#X#X#X#X#X#X#X#X#X#X#X#X#X#X#X#X#X#X#X#X#X#X#X#X#X#X#X#X#X#X#X#X#X#X#X#X#X#X#X#X#X#X#X#X#X#X#X#X#X#X#X#X#X#X#X#X#X#X#X#X#X#X#X#X#X#X#X#X#X#X#X#X#X#X#X#X#X#X#X#X#X#X#X#X#X#X#X#X#X#X#X#X#X#X#X#X",
"#X#X#X#X#X#X#X#X#X#X#X#X#X#X#X#X#X#X#X#X#X#X#X#X#X#X#X#X#X#X#X#X#X#X#X#X#X#X#X#X#X#X#X#X#X#X#X#X#X#X#X#X#X#X#X#X#X#X#X#X#X#X#X#X#X#X#X#X#X#X#X#X#X#X#X#X#X#X#X#X#X#X#X#X#X#X#X#X#X#X#X#X#X#X#X#X#X#X#X#X#X#X#X#X#X#X#X#X#X#X#X#X#X#X#X#X#X#X#X#X#X#X#X#X#X#X#X#X#X#X#X#X#X#X#X#X#X#X#X#X#X#X#X#X#X#X#X#X#X#X#X#X#X#X#X#X#X#X#X#X#X#X#X#X#X#X#X#X#X#X#X#X#X#X#X#X#X#X#X#X#X#X#X#X#X#X#X#X#X#X#X#X#X#X#X#X#X#X#X#X#X#X#X#X#X#X#X#X#X#X#X#X#X#X#X#X#X#X#X#X#X#X#X#X#X#X#X#X#X#X#X#X#X#X#X#X#X#X#X#X#X#X#X#X#X#X#X#X#X#X#X#X#X#X#X#X#X#X#X#X#X#X#X#X#X#X#X#X#X#X#X#X#X#X#X#X#X#X#X#X#X#X#X#X#X#X#X#X#X#X#X#X#X#X#X#X#X#X#X#X#X#X#X#X#X#X#X#X#X#X#X#X#X#X#X#X#X#X#X#X#X#X#X#X#X#X#X#X#X#X#X#X#X#X#X#X#X#X#X#X#X#X#X#X#X#X#X#X#X#X#X#X#X#X#X#X#X#X#X#X#X#X#X#X#X#X#X#X#X#X#X#X#X#X#X#X#X#X#X#X#X#X#X#X#X#X#X#X#X#X#X#X#X#X#X#X#X#X#X#X#X#X#X#X#X#X#X#X#X#X#X#X#X#X#X#X#X#X#X#X#X#X#X#X#X#X#X#X#X#X#X#X#X#X#X#X#X#X#X#X#X#X#X#X#X#X#X#X#X#X#X#X#X#X#X#X#X#X#X#X#X#X#X#X#X#X#X#X#X#X#X#X#X#X#X#X#X#X#X% #X#X#X#X#X#X#X#X#X#X#X#X#X#X#X#X#X#X#X#X#X#X#X#X#X#X#X#X#X#X#X#X#X#X#X#X#X#X#X#X#X#X#X#X#X#X#X#X#X#X#X#X#X#X#X#X#X#X#X#X#X#X#X#X#X#X#X#X#X#X#X#X#X#X#X#X#X#X#X#X#X#X#X#X#X#X#X#X#X#X#X#X#X#X#X#X#X#X#X#X#X#X#X#X#X#X#X#X#X#X#X#X#X#X#X#X#X#X",
"#X#X#X#X#X#X#X#X#X#X#X#X#X#X#X#X#X#X#X#X#X#X#X#X#X#X#X#X#X#X#X#X#X#X#X#X#X#X#X#X#X#X#X#X#X#X#X#X#X#X#X#X#X#X#X#X#X#X#X#X#X#X#X#X#X#X#X#X#X#X#X#X#X#X#X#X#X#X#X#X#X#X#X#X#X#X#X#X#X#X#X#X#X#X#X#X#X#X#X#X#X#X#X#X#X#X#X#X#X#X#X#X#X#X#X#X#X#X#X#X#X#X#X#X#X#X#X#X#X#X#X#X#X#X#X#X#X#X#X#X#X#X#X#X#X#X#X#X#X#X#X#X#X#X#X#X#X#X#X#X#X#X#X#X#X#X#X#X#X#X#X#X#X#X#X#X#X#X#X#X#X#X#X#X#X#X#X#X#X#X#X#X#X#X#X#X#X#X#X#X#X#X#X#X#X#X#X#X#X#X#X#X#X#X#X#X#X#X#X#X#X#X#X#X#X#X#X#X#X#X#X#X#X#X#X#X#X#X#X#X#X#X#X#X#X#X#X#X#X#X#X#X#X#X#X#X#X#X#X#X#X#X#X#X#X#X#X#X#X#X#X#X#X#X#X#X#X#X#X#X#X#X#X#X#X#X#X#X#X#X#X#X#X#X#X#X#X#X#X#X#X#X#X#X#X#X#X#X#X#X#X#X#X#X#X#X#X#X#X#X#X#X#X#X#X#X#X#X#X#X#X#X#X#X#X#X#X#X#X#X#X#X#X#X#X#X#X#X#X#X#X#X#X#X#X#X#X#X#X#X#X#X#X#X#X#X#X#X#X#X#X#X#X#X#X#X#X#X#X#X#X#X#X#X#X#X#X#X#X#X#X#X#X#X#X#X#X#X#X#X#X#X#X#X#X#X#X#X#X#X#X#X#X#X#X#X#X#X#X#X#X#X#X#X#X#X#X#X#X#X#X#X#X#X#X#X#X#X#X#X#X#X#X#X#X#X#X#X#X#X#X#X#X#X#X#X#X#X#X#X#X#X#X#X#X#X#X#X#X#X#X#X#X#X#X#X#X#X#X#X#X#X#X#X#X#X#X#X#X#X#X#X#X#X#X#X#X#X#X#X#X#X#X#X#X#X#X#X#X#X#X#X#X#X#X#X#X#X#X#X#X#X#X#X#X#X#X#X#X#X#X#X#X#X#X#X#X#X#X#X#X#X#X#X#X#X#X#X#X#X#X#X#X#X#X#X#X#X#X#X#X#X#X#X#X#X#X#X#X#X#X#X#X#X#X#X#X#X#X#X#X#X#X#X#X#X#X#X#X#X#X#X#X#X#X#X#X#X",
"#X#X#X#X#X#X#X#X#X#X#X#X#X#X#X#X#X#X#X#X#X#X#X#X#X#X#X#X#X#X#X#X#X#X#X#X#X#X#X#X#X#X#X#X#X#X#X#X#X#X#X#X#X#X#X#X#X#X#X#X#X#X#X#X#X#X#X#X#X#X#X#X#X#X#X#X#X#X#X#X#X#X#X#X#X#X#X#X#X#X#X#X#X#X#X#X#X#X#X#X#X#X#X#X#X#X#X#X#X#X#X#X#X#X#X#X#X#X#X#X#X#X#X#X#X#X#X#X#X#X#X#X#X#X#X#X#X#X#X#X#X#X#X#X#X#X#X#X#X#X#X#X#X#X#X#X#X#X#X#X#X#X#X#X#X#X#X#X#X#X#X#X#X#X#X#X#X#X#X#X#X#X#X#X#X#X#X#X#X#X#X#X#X#X#X#X#X#X#X#X#X#X#X#X#X#X#X#X#X#X#X#X#X#X#X#X#X#X#X#X#X#X#X#X#X#X#X#X#X#X#X#X#X#X#X#X#X#X#X#X#X#X#X#X#X#X#X#X#X#X#X#X#X#X#X#X#X#X#X#X#X#X#X#X#X#X#X#X#X#X#X#X#X#X#X#X#X#X#X#X#X#X#X#X#X#X#X#X#X#X#X#X#X#X#X#X#X#X#X#X#X#X#X#X#X#X#X#X#X#X#X#X#X#X#X#X#X#X#X#X#X#X#X#X#X#X#X#X#X#X#X#X#X#X#X#X#X#X#X#X#X#X#X#X#X#X#X#X#X#X#X#X#X#X#X#X#X#X#X#X#X#X#X#X#X#X#X#X#X#X#X#X#X#X#X#X#X#X#X#X#X#X#X#X#X#X#X#X#X#X#X#X#X#X#X#X#X#X#X#X#X#X#X#X#X#X#X#X#X#X#X#X#X#X#X#X#X#X#X#X#X#X#X#X#X#X#X#X#X#X#X#X#X#X#X#X#X#X#X#X#X#X#X#X#X#X#X#X#X#X#X#X#X#X#X#X#X#X#X#X#X#X#X#X#X#X#X#X#X#X#X#X#X#X#X#X#X#X#X#X#X#X#X#X#X#X#X#X#X#X#X#X#X#X#X#X#X#X#X#X#X#X#X#X#X#X#X#X#X#X#X#X#X#X#X#X#X% #X#X#X#X#X#X#X#X#X#X#X#X#X#X#X#X#X#X#X#X#X#X#X#X#X#X#X#X#X#X#X#X#X#X#X#X#X#X#X#X#X#X#X#X#X#X#X#X#X#X#X#X#X#X#X#X#X#X#X#X#X#X#X#X#X#X#X#X#X#X#X#X#X#X#X#X#X#X#X#X",
"#X#X#X#X#X#X#X#X#X#X#X#X#X#X#X#X#X#X#X#X#X#X#X#X#X#X#X#X#X#X#X#X#X#X#X#X#X#X#X#X#X#X#X#X#X#X#X#X#X#X#X#X#X#X#X#X#X#X#X#X#X#X#X#X#X#X#X#X#X#X#X#X#X#X#X#X#X#X#X#X#X#X#X#X#X#X#X#X#X#X#X#X#X#X#X#X#X#X#X#X#X#X#X#X#X#X#X#X#X#X#X#X#X#X#X#X#X#X#X#X#X#X#X#X#X#X#X#X#X#X#X#X#X#X#X#X#X#X#X#X#X#X#X#X#X#X#X#X#X#X#X#X#X#X#X#X#X#X#X#X#X#X#X#X#X#X#X#X#X#X#X#X#X#X#X#X#X#X#X#X#X#X#X#X#X#X#X#X#X#X#X#X#X#X#X#X#X#X#X#X#X#X#X#X#X#X#X#X#X#X#X#X#X#X#X#X#X#X#X#X#X#X#X#X#X#X#X#X#X#X#X#X#X#X#X#X#X#X#X#X#X#X#X#X#X#X#X#X#X#X#X#X#X#X#X#X#X#X#X#X#X#X#X#X#X#X#X#X#X#X#X#X#X#X#X#X#X#X#X#X#X#X#X#X#X#X#X#X#X#X#X#X#X#X#X#X#X#X#X#X#X#X#X#X#X#X#X#X#X#X#X#X#X#X#X#X#X#X#X#X#X#X#X#X#X#X#X#X#X#X#X#X#X#X#X#X#X#X#X#X#X#X#X#X#X#X#X#X#X#X#X#X#X#X#X#X#X#X#X#X#X#X#X#X#X#X#X#X#X#X#X#X#X#X#X#X#X#X#X#X#X#X#X#X#X#X#X#X#X#X#X#X#X#X#X#X#X#X#X#X#X#X#X#X#X#X#X#X#X#X#X#X#X#X#X#X#X#X#X#X#X#X#X#X#X#X#X#X#X#X#X#X#X#X#X#X#X#X#X#X#X#X#X#X#X#X#X#X#X#X#X#X#X#X#X#X#X#X#X#X#X#X#X#X#X#X#X#X#X#X#X#X#X#X#X#X#X#X#X#X#X#X#X#X#X#X#X#X#X#X#X#X#X#X#X#X#X#X#X#X#X#X#X#X#X#X#X#X#X#X#X#X#X#X#X#X#X#X#X#X#X#X#X#X#X#X#X#X#X#X#X#X#X#X#X#X#X#X#X#X#X#X#X#X#X#X#X#X#X#X#X#X#X#X#X#X#X#X#X#X#X#X#X#X#X#X#X#X#X#X#X#X#X#X#X#X#X#X#X#X#X#X#X#X#X#X#X#X#X#X#X#X#X#X#X#X#X#X"
};
